NRRD0004
# Complete NRRD file format specification at:
# http://teem.sourceforge.net/nrrd/format.html
type: unsigned char
dimension: 3
space: left-posterior-superior
sizes: 512 512 47
space directions: (0.3512491473861537,-0.00028683293718469486,-0.015700770279388512) (0.0012003550306327994,0.35100323614837098,0.020441315054842053) (0.2128608931665372,-0.27834836699119125,4.7670939313418854)
kinds: domain domain domain
encoding: gzip
space origin: (-92.836799999999982,-60.006299999999989,-139.29299999999992)
Segment0_Color:=0.945098 0.839216 0.568627
Segment0_ColorAutoGenerated:=1
Segment0_Extent:=84 413 178 408 0 46
Segment0_ID:=Segment_1
Segment0_LabelValue:=1
Segment0_Layer:=0
Segment0_Name:=T11_bone
Segment0_NameAutoGenerated:=0
Segment0_Tags:=Segmentation.Status:inprogress|TerminologyEntry:Segmentation category and type - 3D Slicer General Anatomy list~SCT^85756007^Tissue~SCT^272673000^Bone~^^~Anatomic codes - DICOM master list~^^~^^|
Segment10_Color:=0.784314 0.784314 0.921569
Segment10_ColorAutoGenerated:=1
Segment10_Extent:=84 413 178 408 0 46
Segment10_ID:=Segment_13
Segment10_LabelValue:=11
Segment10_Layer:=0
Segment10_Name:=T12_Spinal_tumor
Segment10_NameAutoGenerated:=0
Segment10_Tags:=Segmentation.Status:inprogress|TerminologyEntry:Segmentation category and type - 3D Slicer General Anatomy list~SCT^123037004^Anatomical Structure~SCT^62818001^Adenohypophysis~^^~Anatomic codes - DICOM master list~^^~^^|
Segment11_Color:=0.956863 0.839216 0.192157
Segment11_ColorAutoGenerated:=1
Segment11_Extent:=84 413 178 408 0 46
Segment11_ID:=Segment_15
Segment11_LabelValue:=13
Segment11_Layer:=0
Segment11_Name:=L1_bone
Segment11_NameAutoGenerated:=0
Segment11_Tags:=Segmentation.Status:inprogress|TerminologyEntry:Segmentation category and type - 3D Slicer General Anatomy list~SCT^123037004^Anatomical Structure~SCT^62818001^Adenohypophysis~^^~Anatomic codes - DICOM master list~^^~^^|
Segment12_Color:=0.945098 0.839216 0.568627
Segment12_ColorAutoGenerated:=1
Segment12_Extent:=84 413 178 408 0 46
Segment12_ID:=Segment_16
Segment12_LabelValue:=14
Segment12_Layer:=0
Segment12_Name:=L2_bone
Segment12_NameAutoGenerated:=0
Segment12_Tags:=Segmentation.Status:inprogress|TerminologyEntry:Segmentation category and type - 3D Slicer General Anatomy list~SCT^85756007^Tissue~SCT^272673000^Bone~^^~Anatomic codes - DICOM master list~^^~^^|
Segment13_Color:=0.945098 0.839216 0.568627
Segment13_ColorAutoGenerated:=1
Segment13_Extent:=84 413 178 408 0 46
Segment13_ID:=Segment_17
Segment13_LabelValue:=15
Segment13_Layer:=0
Segment13_Name:=L3_bone
Segment13_NameAutoGenerated:=0
Segment13_Tags:=Segmentation.Status:inprogress|TerminologyEntry:Segmentation category and type - 3D Slicer General Anatomy list~SCT^85756007^Tissue~SCT^272673000^Bone~^^~Anatomic codes - DICOM master list~^^~^^|
Segment14_Color:=0.945098 0.839216 0.568627
Segment14_ColorAutoGenerated:=1
Segment14_Extent:=84 413 178 408 0 46
Segment14_ID:=Segment_18
Segment14_LabelValue:=16
Segment14_Layer:=0
Segment14_Name:=L4_bone
Segment14_NameAutoGenerated:=0
Segment14_Tags:=Segmentation.Status:inprogress|TerminologyEntry:Segmentation category and type - 3D Slicer General Anatomy list~SCT^85756007^Tissue~SCT^272673000^Bone~^^~Anatomic codes - DICOM master list~^^~^^|
Segment15_Color:=0.945098 0.839216 0.568627
Segment15_ColorAutoGenerated:=1
Segment15_Extent:=84 413 178 408 0 46
Segment15_ID:=Segment_19
Segment15_LabelValue:=17
Segment15_Layer:=0
Segment15_Name:=L5_bone
Segment15_NameAutoGenerated:=0
Segment15_Tags:=Segmentation.Status:inprogress|TerminologyEntry:Segmentation category and type - 3D Slicer General Anatomy list~SCT^85756007^Tissue~SCT^272673000^Bone~^^~Anatomic codes - DICOM master list~^^~^^|
Segment16_Color:=0.945098 0.839216 0.568627
Segment16_ColorAutoGenerated:=1
Segment16_Extent:=84 413 178 408 0 46
Segment16_ID:=Segment_20
Segment16_LabelValue:=18
Segment16_Layer:=0
Segment16_Name:=L6_bone
Segment16_NameAutoGenerated:=0
Segment16_Tags:=Segmentation.Status:inprogress|TerminologyEntry:Segmentation category and type - 3D Slicer General Anatomy list~SCT^85756007^Tissue~SCT^272673000^Bone~^^~Anatomic codes - DICOM master list~^^~^^|
Segment17_Color:=0.435294 0.721569 0.823529
Segment17_ColorAutoGenerated:=1
Segment17_Extent:=84 413 178 408 0 46
Segment17_ID:=Segment_21
Segment17_LabelValue:=19
Segment17_Layer:=0
Segment17_Name:=T12_Cord
Segment17_NameAutoGenerated:=0
Segment17_Tags:=Segmentation.Status:inprogress|TerminologyEntry:Segmentation category and type - 3D Slicer General Anatomy list~SCT^123037004^Anatomical Structure~SCT^62818001^Adenohypophysis~^^~Anatomic codes - DICOM master list~^^~^^|
Segment18_Color:=0.698039 0.831373 0.94902
Segment18_ColorAutoGenerated:=1
Segment18_Extent:=84 413 178 408 0 46
Segment18_ID:=Segment_22
Segment18_LabelValue:=20
Segment18_Layer:=0
Segment18_Name:=T12_spinal_cord_tumor
Segment18_NameAutoGenerated:=0
Segment18_Tags:=Segmentation.Status:inprogress|TerminologyEntry:Segmentation category and type - 3D Slicer General Anatomy list~SCT^123037004^Anatomical Structure~SCT^62818001^Adenohypophysis~^^~Anatomic codes - DICOM master list~^^~^^|
Segment19_Color:=0.670588 0.333333 0.266667
Segment19_ColorAutoGenerated:=1
Segment19_Extent:=84 413 178 408 0 46
Segment19_ID:=Segment_24
Segment19_LabelValue:=21
Segment19_Layer:=0
Segment19_Name:=T12_muscle
Segment19_NameAutoGenerated:=0
Segment19_Tags:=Segmentation.Status:inprogress|TerminologyEntry:Segmentation category and type - 3D Slicer General Anatomy list~SCT^123037004^Anatomical Structure~SCT^195879000^Abdominal wall muscle~^^~Anatomic codes - DICOM master list~^^~^^|
Segment1_Color:=1 0.878431 0.780392
Segment1_ColorAutoGenerated:=1
Segment1_Extent:=84 413 178 408 0 46
Segment1_ID:=Segment_2
Segment1_LabelValue:=2
Segment1_Layer:=0
Segment1_Name:=T11_bone_tumor
Segment1_NameAutoGenerated:=0
Segment1_Tags:=Segmentation.Status:inprogress|TerminologyEntry:Segmentation category and type - 3D Slicer General Anatomy list~SCT^123037004^Anatomical Structure~SCT^53505006^Anus~^^~Anatomic codes - DICOM master list~^^~^^|
Segment20_Color:=1 0.956863 0.819608
Segment20_ColorAutoGenerated:=1
Segment20_Extent:=84 413 178 408 0 46
Segment20_ID:=Segment_25
Segment20_LabelValue:=22
Segment20_Layer:=0
Segment20_Name:=T12_muscle_tumor
Segment20_NameAutoGenerated:=0
Segment20_Tags:=Segmentation.Status:inprogress|TerminologyEntry:Segmentation category and type - 3D Slicer General Anatomy list~SCT^123037004^Anatomical Structure~SCT^75042008^Arachnoid~^^~Anatomic codes - DICOM master list~^^~^^|
Segment21_Color:=0 0.568627 0.117647
Segment21_ColorAutoGenerated:=1
Segment21_Extent:=84 413 178 408 0 46
Segment21_ID:=Segment_26
Segment21_LabelValue:=23
Segment21_Layer:=0
Segment21_Name:=T12_nerve_root_right
Segment21_NameAutoGenerated:=0
Segment21_Tags:=Segmentation.Status:inprogress|TerminologyEntry:Segmentation category and type - 3D Slicer General Anatomy list~SCT^123037004^Anatomical Structure~SCT^75042008^Arachnoid~^^~Anatomic codes - DICOM master list~^^~^^|
Segment22_Color:=0.839216 0.901961 0.509804
Segment22_ColorAutoGenerated:=1
Segment22_Extent:=84 413 178 408 0 46
Segment22_ID:=Segment_27
Segment22_LabelValue:=24
Segment22_Layer:=0
Segment22_Name:=T12_nerve_root_left
Segment22_NameAutoGenerated:=0
Segment22_Tags:=Segmentation.Status:inprogress|TerminologyEntry:Segmentation category and type - 3D Slicer General Anatomy list~SCT^123037004^Anatomical Structure~SCT^75042008^Arachnoid~^^~Anatomic codes - DICOM master list~^^~^^|
Segment23_Color:=0.945098 0.839216 0.568627
Segment23_ColorAutoGenerated:=1
Segment23_Extent:=84 413 178 408 0 46
Segment23_ID:=Segment_28
Segment23_LabelValue:=25
Segment23_Layer:=0
Segment23_Name:=T13_bone
Segment23_NameAutoGenerated:=0
Segment23_Tags:=Segmentation.Status:inprogress|TerminologyEntry:Segmentation category and type - 3D Slicer General Anatomy list~SCT^85756007^Tissue~SCT^272673000^Bone~^^~Anatomic codes - DICOM master list~^^~^^|
Segment24_Color:=0.854902 1 1
Segment24_ColorAutoGenerated:=1
Segment24_Extent:=84 413 178 408 0 46
Segment24_ID:=Segment_29
Segment24_LabelValue:=12
Segment24_Layer:=0
Segment24_Name:=T13_cord
Segment24_NameAutoGenerated:=0
Segment24_Tags:=Segmentation.Status:inprogress|TerminologyEntry:Segmentation category and type - 3D Slicer General Anatomy list~SCT^85756007^Tissue~SCT^272673000^Bone~^^~Anatomic codes - DICOM master list~^^~^^|
Segment25_Color:=0.847059 0.396078 0.309804
Segment25_ColorAutoGenerated:=1
Segment25_Extent:=84 413 178 408 0 46
Segment25_ID:=Segment_30
Segment25_LabelValue:=26
Segment25_Layer:=0
Segment25_Name:=T13_muscle
Segment25_NameAutoGenerated:=0
Segment25_Tags:=Segmentation.Status:inprogress|TerminologyEntry:Segmentation category and type - 3D Slicer General Anatomy list~SCT^85756007^Tissue~SCT^51114001^Artery~^^~Anatomic codes - DICOM master list~^^~^^|
Segment26_Color:=0.54902 0.878431 0.894118
Segment26_ColorAutoGenerated:=1
Segment26_Extent:=84 413 178 408 0 46
Segment26_ID:=Segment_31
Segment26_LabelValue:=27
Segment26_Layer:=0
Segment26_Name:=T13_muscle_tumor
Segment26_NameAutoGenerated:=0
Segment26_Tags:=Segmentation.Status:inprogress|TerminologyEntry:Segmentation category and type - 3D Slicer General Anatomy list~SCT^85756007^Tissue~SCT^51114001^Artery~^^~Anatomic codes - DICOM master list~^^~^^|
Segment27_Color:=0.737255 0.254902 0.109804
Segment27_ColorAutoGenerated:=1
Segment27_Extent:=84 413 178 408 0 46
Segment27_ID:=Segment_32
Segment27_LabelValue:=28
Segment27_Layer:=0
Segment27_Name:=T13_nerve_root_right
Segment27_NameAutoGenerated:=0
Segment27_Tags:=Segmentation.Status:inprogress|TerminologyEntry:Segmentation category and type - 3D Slicer General Anatomy list~SCT^85756007^Tissue~SCT^51114001^Artery~^^~Anatomic codes - DICOM master list~^^~^^|
Segment28_Color:=0.847059 0.74902 0.847059
Segment28_ColorAutoGenerated:=1
Segment28_Extent:=84 413 178 408 0 46
Segment28_ID:=Segment_33
Segment28_LabelValue:=29
Segment28_Layer:=0
Segment28_Name:=T13_nerve_root_left
Segment28_NameAutoGenerated:=0
Segment28_Tags:=Segmentation.Status:inprogress|TerminologyEntry:Segmentation category and type - 3D Slicer General Anatomy list~SCT^85756007^Tissue~SCT^51114001^Artery~^^~Anatomic codes - DICOM master list~^^~^^|
Segment29_Color:=0.435294 0.721569 0.823529
Segment29_ColorAutoGenerated:=1
Segment29_Extent:=84 413 178 408 0 46
Segment29_ID:=Segment_34
Segment29_LabelValue:=30
Segment29_Layer:=0
Segment29_Name:=T13_CSF
Segment29_NameAutoGenerated:=0
Segment29_Tags:=Segmentation.Status:inprogress|TerminologyEntry:Segmentation category and type - 3D Slicer General Anatomy list~SCT^85756007^Tissue~SCT^309312004^Cartilage~^^~Anatomic codes - DICOM master list~^^~^^|
Segment2_Color:=0.694118 0.478431 0.396078
Segment2_ColorAutoGenerated:=1
Segment2_Extent:=84 413 178 408 0 46
Segment2_ID:=Segment_3
Segment2_LabelValue:=3
Segment2_Layer:=0
Segment2_Name:=T11_cord
Segment2_NameAutoGenerated:=0
Segment2_Tags:=Segmentation.Status:inprogress|TerminologyEntry:Segmentation category and type - 3D Slicer General Anatomy list~SCT^123037004^Anatomical Structure~SCT^53505006^Anus~^^~Anatomic codes - DICOM master list~^^~^^|
Segment30_Color:=0 0.592157 0.807843
Segment30_ColorAutoGenerated:=1
Segment30_Extent:=84 413 178 408 0 46
Segment30_ID:=Segment_35
Segment30_LabelValue:=31
Segment30_Layer:=0
Segment30_Name:=T12_CSF
Segment30_NameAutoGenerated:=0
Segment30_Tags:=Segmentation.Status:inprogress|TerminologyEntry:Segmentation category and type - 3D Slicer General Anatomy list~SCT^85756007^Tissue~SCT^29092000^Vein~^^~Anatomic codes - DICOM master list~^^~^^|
Segment31_Color:=1 0.878431 0.780392
Segment31_ColorAutoGenerated:=1
Segment31_Extent:=84 413 178 408 0 46
Segment31_ID:=Segment_37
Segment31_LabelValue:=32
Segment31_Layer:=0
Segment31_Name:=L1_bone_tumor
Segment31_NameAutoGenerated:=0
Segment31_Tags:=Segmentation.Status:inprogress|TerminologyEntry:Segmentation category and type - 3D Slicer General Anatomy list~SCT^123037004^Anatomical Structure~SCT^53505006^Anus~^^~Anatomic codes - DICOM master list~^^~^^|
Segment32_Color:=0.980392 0.980392 0.882353
Segment32_ColorAutoGenerated:=1
Segment32_Extent:=84 413 178 408 0 46
Segment32_ID:=Segment_38
Segment32_LabelValue:=33
Segment32_Layer:=0
Segment32_Name:=L1_CSF
Segment32_NameAutoGenerated:=0
Segment32_Tags:=Segmentation.Status:inprogress|TerminologyEntry:Segmentation category and type - 3D Slicer General Anatomy list~SCT^123037004^Anatomical Structure~SCT^53505006^Anus~^^~Anatomic codes - DICOM master list~^^~^^|
Segment33_Color:=0.784314 0.784314 0.843137
Segment33_ColorAutoGenerated:=1
Segment33_Extent:=84 413 178 408 0 46
Segment33_ID:=Segment_39
Segment33_LabelValue:=34
Segment33_Layer:=0
Segment33_Name:=L1_cord
Segment33_NameAutoGenerated:=0
Segment33_Tags:=Segmentation.Status:inprogress|TerminologyEntry:Segmentation category and type - 3D Slicer General Anatomy list~SCT^123037004^Anatomical Structure~SCT^53505006^Anus~^^~Anatomic codes - DICOM master list~^^~^^|
Segment34_Color:=0.266667 0.513725 0.384314
Segment34_ColorAutoGenerated:=1
Segment34_Extent:=84 413 178 408 0 46
Segment34_ID:=Segment_40
Segment34_LabelValue:=35
Segment34_Layer:=0
Segment34_Name:=L1_spinal_cord_tumor
Segment34_NameAutoGenerated:=0
Segment34_Tags:=Segmentation.Status:inprogress|TerminologyEntry:Segmentation category and type - 3D Slicer General Anatomy list~SCT^123037004^Anatomical Structure~SCT^53505006^Anus~^^~Anatomic codes - DICOM master list~^^~^^|
Segment35_Color:=0.501961 0.682353 0.501961
Segment35_ColorAutoGenerated:=1
Segment35_Extent:=84 413 178 408 0 46
Segment35_ID:=Segment_41
Segment35_LabelValue:=36
Segment35_Layer:=0
Segment35_Name:=L2_cord
Segment35_NameAutoGenerated:=0
Segment35_Tags:=Segmentation.Status:inprogress|TerminologyEntry:Segmentation category and type - 3D Slicer General Anatomy list~SCT^123037004^Anatomical Structure~SCT^53505006^Anus~^^~Anatomic codes - DICOM master list~^^~^^|
Segment36_Color:=0.670588 0.333333 0.266667
Segment36_ColorAutoGenerated:=1
Segment36_Extent:=84 413 178 408 0 46
Segment36_ID:=Segment_42
Segment36_LabelValue:=37
Segment36_Layer:=0
Segment36_Name:=L2_muscle
Segment36_NameAutoGenerated:=0
Segment36_Tags:=Segmentation.Status:inprogress|TerminologyEntry:Segmentation category and type - 3D Slicer General Anatomy list~SCT^123037004^Anatomical Structure~SCT^195879000^Abdominal wall muscle~^^~Anatomic codes - DICOM master list~^^~^^|
Segment37_Color:=1 0.878431 0.780392
Segment37_ColorAutoGenerated:=1
Segment37_Extent:=84 413 178 408 0 46
Segment37_ID:=Segment_43
Segment37_LabelValue:=38
Segment37_Layer:=0
Segment37_Name:=L2_muscle_tumor
Segment37_NameAutoGenerated:=0
Segment37_Tags:=Segmentation.Status:inprogress|TerminologyEntry:Segmentation category and type - 3D Slicer General Anatomy list~SCT^123037004^Anatomical Structure~SCT^53505006^Anus~^^~Anatomic codes - DICOM master list~^^~^^|
Segment38_Color:=1 0.878431 0.780392
Segment38_ColorAutoGenerated:=1
Segment38_Extent:=84 413 178 408 0 46
Segment38_ID:=Segment_44
Segment38_LabelValue:=39
Segment38_Layer:=0
Segment38_Name:=L3_bone_tumor
Segment38_NameAutoGenerated:=0
Segment38_Tags:=Segmentation.Status:inprogress|TerminologyEntry:Segmentation category and type - 3D Slicer General Anatomy list~SCT^123037004^Anatomical Structure~SCT^53505006^Anus~^^~Anatomic codes - DICOM master list~^^~^^|
Segment39_Color:=0.635294 0.45098 0.411765
Segment39_ColorAutoGenerated:=1
Segment39_Extent:=84 413 178 408 0 46
Segment39_ID:=Segment_45
Segment39_LabelValue:=40
Segment39_Layer:=0
Segment39_Name:=L1_nerve_root_right
Segment39_NameAutoGenerated:=0
Segment39_Tags:=Segmentation.Status:inprogress|TerminologyEntry:Segmentation category and type - 3D Slicer General Anatomy list~SCT^123037004^Anatomical Structure~SCT^53505006^Anus~^^~Anatomic codes - DICOM master list~^^~^^|
Segment3_Color:=0.435294 0.721569 0.823529
Segment3_ColorAutoGenerated:=1
Segment3_Extent:=84 413 178 408 0 46
Segment3_ID:=Segment_4
Segment3_LabelValue:=4
Segment3_Layer:=0
Segment3_Name:=T11_CSF
Segment3_NameAutoGenerated:=0
Segment3_Tags:=Segmentation.Status:inprogress|TerminologyEntry:Segmentation category and type - 3D Slicer General Anatomy list~SCT^123037004^Anatomical Structure~SCT^53505006^Anus~^^~Anatomic codes - DICOM master list~^^~^^|
Segment40_Color:=0.552941 0.364706 0.537255
Segment40_ColorAutoGenerated:=1
Segment40_Extent:=84 413 178 408 0 46
Segment40_ID:=Segment_46
Segment40_LabelValue:=41
Segment40_Layer:=0
Segment40_Name:=L1_nerve_root_left
Segment40_NameAutoGenerated:=0
Segment40_Tags:=Segmentation.Status:inprogress|TerminologyEntry:Segmentation category and type - 3D Slicer General Anatomy list~SCT^123037004^Anatomical Structure~SCT^53505006^Anus~^^~Anatomic codes - DICOM master list~^^~^^|
Segment41_Color:=0.235294 0.560784 0.32549
Segment41_ColorAutoGenerated:=1
Segment41_Extent:=84 413 178 408 0 46
Segment41_ID:=Segment_47
Segment41_LabelValue:=42
Segment41_Layer:=0
Segment41_Name:=L3_cord
Segment41_NameAutoGenerated:=0
Segment41_Tags:=Segmentation.Status:inprogress|TerminologyEntry:Segmentation category and type - 3D Slicer General Anatomy list~SCT^123037004^Anatomical Structure~SCT^62818001^Adenohypophysis~^^~Anatomic codes - DICOM master list~^^~^^|
Segment42_Color:=0.670588 0.333333 0.266667
Segment42_ColorAutoGenerated:=1
Segment42_Extent:=84 413 178 408 0 46
Segment42_ID:=Segment_48
Segment42_LabelValue:=43
Segment42_Layer:=0
Segment42_Name:=L3_muscle
Segment42_NameAutoGenerated:=0
Segment42_Tags:=Segmentation.Status:inprogress|TerminologyEntry:Segmentation category and type - 3D Slicer General Anatomy list~SCT^123037004^Anatomical Structure~SCT^195879000^Abdominal wall muscle~^^~Anatomic codes - DICOM master list~^^~^^|
Segment43_Color:=1 0.878431 0.780392
Segment43_ColorAutoGenerated:=1
Segment43_Extent:=84 413 178 408 0 46
Segment43_ID:=Segment_49
Segment43_LabelValue:=44
Segment43_Layer:=0
Segment43_Name:=L3_muscle_tumor
Segment43_NameAutoGenerated:=0
Segment43_Tags:=Segmentation.Status:inprogress|TerminologyEntry:Segmentation category and type - 3D Slicer General Anatomy list~SCT^123037004^Anatomical Structure~SCT^53505006^Anus~^^~Anatomic codes - DICOM master list~^^~^^|
Segment44_Color:=0.737255 0.529412 0.65098
Segment44_ColorAutoGenerated:=1
Segment44_Extent:=84 413 178 408 0 46
Segment44_ID:=Segment_50
Segment44_LabelValue:=45
Segment44_Layer:=0
Segment44_Name:=L2_nerve_root_left
Segment44_NameAutoGenerated:=0
Segment44_Tags:=Segmentation.Status:inprogress|TerminologyEntry:Segmentation category and type - 3D Slicer General Anatomy list~SCT^123037004^Anatomical Structure~SCT^53505006^Anus~^^~Anatomic codes - DICOM master list~^^~^^|
Segment45_Color:=0.737255 0.529412 0.65098
Segment45_ColorAutoGenerated:=1
Segment45_Extent:=84 413 178 408 0 46
Segment45_ID:=Segment_51
Segment45_LabelValue:=46
Segment45_Layer:=0
Segment45_Name:=L2_nerve_root_right
Segment45_NameAutoGenerated:=0
Segment45_Tags:=Segmentation.Status:inprogress|TerminologyEntry:Segmentation category and type - 3D Slicer General Anatomy list~SCT^123037004^Anatomical Structure~SCT^53505006^Anus~^^~Anatomic codes - DICOM master list~^^~^^|
Segment46_Color:=0.603922 0.588235 0.788235
Segment46_ColorAutoGenerated:=1
Segment46_Extent:=84 413 178 408 0 46
Segment46_ID:=Segment_52
Segment46_LabelValue:=47
Segment46_Layer:=0
Segment46_Name:=L3_CSF
Segment46_NameAutoGenerated:=0
Segment46_Tags:=Segmentation.Status:inprogress|TerminologyEntry:Segmentation category and type - 3D Slicer General Anatomy list~SCT^123037004^Anatomical Structure~SCT^53505006^Anus~^^~Anatomic codes - DICOM master list~^^~^^|
Segment47_Color:=0.603922 0.588235 0.788235
Segment47_ColorAutoGenerated:=1
Segment47_Extent:=84 413 178 408 0 46
Segment47_ID:=Segment_53
Segment47_LabelValue:=48
Segment47_Layer:=0
Segment47_Name:=L4_cord
Segment47_NameAutoGenerated:=0
Segment47_Tags:=Segmentation.Status:inprogress|TerminologyEntry:Segmentation category and type - 3D Slicer General Anatomy list~SCT^123037004^Anatomical Structure~SCT^53505006^Anus~^^~Anatomic codes - DICOM master list~^^~^^|
Segment48_Color:=0.670588 0.333333 0.266667
Segment48_ColorAutoGenerated:=1
Segment48_Extent:=84 413 178 408 0 46
Segment48_ID:=Segment_54
Segment48_LabelValue:=49
Segment48_Layer:=0
Segment48_Name:=L4_muscle
Segment48_NameAutoGenerated:=0
Segment48_Tags:=Segmentation.Status:inprogress|TerminologyEntry:Segmentation category and type - 3D Slicer General Anatomy list~SCT^123037004^Anatomical Structure~SCT^195879000^Abdominal wall muscle~^^~Anatomic codes - DICOM master list~^^~^^|
Segment49_Color:=0.694118 0.54902 0.745098
Segment49_ColorAutoGenerated:=1
Segment49_Extent:=84 413 178 408 0 46
Segment49_ID:=Segment_55
Segment49_LabelValue:=50
Segment49_Layer:=0
Segment49_Name:=L4_CSF
Segment49_NameAutoGenerated:=0
Segment49_Tags:=Segmentation.Status:inprogress|TerminologyEntry:Segmentation category and type - 3D Slicer General Anatomy list~SCT^123037004^Anatomical Structure~SCT^195879000^Abdominal wall muscle~^^~Anatomic codes - DICOM master list~^^~^^|
Segment4_Color:=0.847059 0.396078 0.309804
Segment4_ColorAutoGenerated:=1
Segment4_Extent:=84 413 178 408 0 46
Segment4_ID:=Segment_5
Segment4_LabelValue:=5
Segment4_Layer:=0
Segment4_Name:=T11_muscle
Segment4_NameAutoGenerated:=0
Segment4_Tags:=Segmentation.Status:inprogress|TerminologyEntry:Segmentation category and type - 3D Slicer General Anatomy list~SCT^123037004^Anatomical Structure~SCT^53505006^Anus~^^~Anatomic codes - DICOM master list~^^~^^|
Segment50_Color:=0.117647 0.435294 0.333333
Segment50_ColorAutoGenerated:=1
Segment50_Extent:=84 413 178 408 0 46
Segment50_ID:=Segment_56
Segment50_LabelValue:=51
Segment50_Layer:=0
Segment50_Name:=L3_nerve_root_right
Segment50_NameAutoGenerated:=0
Segment50_Tags:=Segmentation.Status:inprogress|TerminologyEntry:Segmentation category and type - 3D Slicer General Anatomy list~SCT^123037004^Anatomical Structure~SCT^195879000^Abdominal wall muscle~^^~Anatomic codes - DICOM master list~^^~^^|
Segment51_Color:=0.117647 0.435294 0.333333
Segment51_ColorAutoGenerated:=1
Segment51_Extent:=84 413 178 408 0 46
Segment51_ID:=Segment_57
Segment51_LabelValue:=52
Segment51_Layer:=0
Segment51_Name:=L4_muscle_tumor
Segment51_NameAutoGenerated:=0
Segment51_Tags:=Segmentation.Status:inprogress|TerminologyEntry:Segmentation category and type - 3D Slicer General Anatomy list~SCT^123037004^Anatomical Structure~SCT^195879000^Abdominal wall muscle~^^~Anatomic codes - DICOM master list~^^~^^|
Segment52_Color:=0.823529 0.615686 0.65098
Segment52_ColorAutoGenerated:=1
Segment52_Extent:=84 413 178 408 0 46
Segment52_ID:=Segment_58
Segment52_LabelValue:=53
Segment52_Layer:=0
Segment52_Name:=L3_nerve_root_left
Segment52_NameAutoGenerated:=0
Segment52_Tags:=TerminologyEntry:Segmentation category and type - 3D Slicer General Anatomy list~SCT^123037004^Anatomical Structure~SCT^195879000^Abdominal wall muscle~^^~Anatomic codes - DICOM master list~^^~^^|
Segment53_Color:=0.752941 0.407843 0.345098
Segment53_ColorAutoGenerated:=1
Segment53_Extent:=84 413 178 408 0 46
Segment53_ID:=Segment_60
Segment53_LabelValue:=54
Segment53_Layer:=0
Segment53_Name:=L1_muscle
Segment53_NameAutoGenerated:=0
Segment53_Tags:=Segmentation.Status:inprogress|TerminologyEntry:Segmentation category and type - 3D Slicer General Anatomy list~SCT^85756007^Tissue~SCT^71616004^Muscle~^^~Anatomic codes - DICOM master list~^^~^^|
Segment54_Color:=0.901961 0.862745 0.27451
Segment54_ColorAutoGenerated:=1
Segment54_Extent:=84 413 178 408 0 46
Segment54_ID:=Segment_61
Segment54_LabelValue:=55
Segment54_Layer:=0
Segment54_Name:=L1_muscle_tumor
Segment54_NameAutoGenerated:=0
Segment54_Tags:=Segmentation.Status:inprogress|TerminologyEntry:Segmentation category and type - 3D Slicer General Anatomy list~SCT^85756007^Tissue~SCT^248300009^Body fat~^^~Anatomic codes - DICOM master list~^^~^^|
Segment55_Color:=0.752941 0.407843 0.345098
Segment55_ColorAutoGenerated:=1
Segment55_Extent:=84 413 178 408 0 46
Segment55_ID:=Segment_62
Segment55_LabelValue:=56
Segment55_Layer:=0
Segment55_Name:=L6_muscle
Segment55_NameAutoGenerated:=0
Segment55_Tags:=Segmentation.Status:inprogress|TerminologyEntry:Segmentation category and type - 3D Slicer General Anatomy list~SCT^85756007^Tissue~SCT^71616004^Muscle~^^~Anatomic codes - DICOM master list~^^~^^|
Segment56_Color:=0.384314 0.6 0.439216
Segment56_ColorAutoGenerated:=1
Segment56_Extent:=84 413 178 408 0 46
Segment56_ID:=Segment_63
Segment56_LabelValue:=57
Segment56_Layer:=0
Segment56_Name:=L6_cord
Segment56_NameAutoGenerated:=0
Segment56_Tags:=Segmentation.Status:inprogress|TerminologyEntry:Segmentation category and type - 3D Slicer General Anatomy list~SCT^85756007^Tissue~SCT^71616004^Muscle~^^~Anatomic codes - DICOM master list~^^~^^|
Segment57_Color:=0.752941 0.407843 0.345098
Segment57_ColorAutoGenerated:=1
Segment57_Extent:=84 413 178 408 0 46
Segment57_ID:=Segment_64
Segment57_LabelValue:=58
Segment57_Layer:=0
Segment57_Name:=L6_CSF
Segment57_NameAutoGenerated:=0
Segment57_Tags:=Segmentation.Status:inprogress|TerminologyEntry:Segmentation category and type - DICOM master list~SCT^85756007^Tissue~SCT^71616004^Muscle~^^~Anatomic codes - DICOM master list~^^~^^|
Segment58_Color:=1 0.878431 0.780392
Segment58_ColorAutoGenerated:=1
Segment58_Extent:=84 413 178 408 0 46
Segment58_ID:=Segment_65
Segment58_LabelValue:=59
Segment58_Layer:=0
Segment58_Name:=L5_bone_tumor
Segment58_NameAutoGenerated:=0
Segment58_Tags:=Segmentation.Status:inprogress|TerminologyEntry:Segmentation category and type - 3D Slicer General Anatomy list~SCT^123037004^Anatomical Structure~SCT^53505006^Anus~^^~Anatomic codes - DICOM master list~^^~^^|
Segment59_Color:=0.266667 0.67451 0.392157
Segment59_ColorAutoGenerated:=1
Segment59_Extent:=84 413 178 408 0 46
Segment59_ID:=Segment_66
Segment59_LabelValue:=60
Segment59_Layer:=0
Segment59_Name:=L5_cord
Segment59_NameAutoGenerated:=0
Segment59_Tags:=Segmentation.Status:inprogress|TerminologyEntry:Segmentation category and type - 3D Slicer General Anatomy list~SCT^85756007^Tissue~SCT^59441001^Lymph node~^^~Anatomic codes - DICOM master list~^^~^^|
Segment5_Color:=0.235294 0.560784 0.32549
Segment5_ColorAutoGenerated:=1
Segment5_Extent:=84 413 178 408 0 46
Segment5_ID:=Segment_6
Segment5_LabelValue:=6
Segment5_Layer:=0
Segment5_Name:=T11_muscle_tumor
Segment5_NameAutoGenerated:=0
Segment5_Tags:=Segmentation.Status:inprogress|TerminologyEntry:Segmentation category and type - 3D Slicer General Anatomy list~SCT^123037004^Anatomical Structure~SCT^62818001^Adenohypophysis~^^~Anatomic codes - DICOM master list~^^~^^|
Segment60_Color:=0.478431 0.396078 0.14902
Segment60_ColorAutoGenerated:=1
Segment60_Extent:=84 413 178 408 0 46
Segment60_ID:=Segment_67
Segment60_LabelValue:=61
Segment60_Layer:=0
Segment60_Name:=L5_nerve_root_left
Segment60_NameAutoGenerated:=0
Segment60_Tags:=Segmentation.Status:inprogress|TerminologyEntry:Segmentation category and type - 3D Slicer General Anatomy list~SCT^85756007^Tissue~SCT^59441001^Lymph node~^^~Anatomic codes - DICOM master list~^^~^^|
Segment61_Color:=0.992157 0.529412 0.752941
Segment61_ColorAutoGenerated:=1
Segment61_Extent:=84 413 178 408 0 46
Segment61_ID:=Segment_68
Segment61_LabelValue:=62
Segment61_Layer:=0
Segment61_Name:=L5_nerve_root_right
Segment61_NameAutoGenerated:=0
Segment61_Tags:=Segmentation.Status:inprogress|TerminologyEntry:Segmentation category and type - 3D Slicer General Anatomy list~SCT^85756007^Tissue~SCT^59441001^Lymph node~^^~Anatomic codes - DICOM master list~^^~^^|
Segment62_Color:=0.568627 0.360784 0.427451
Segment62_ColorAutoGenerated:=1
Segment62_Extent:=84 413 178 408 0 46
Segment62_ID:=Segment_69
Segment62_LabelValue:=63
Segment62_Layer:=0
Segment62_Name:=L4_nerve_root_left
Segment62_NameAutoGenerated:=0
Segment62_Tags:=Segmentation.Status:inprogress|TerminologyEntry:Segmentation category and type - 3D Slicer General Anatomy list~SCT^85756007^Tissue~SCT^59441001^Lymph node~^^~Anatomic codes - DICOM master list~^^~^^|
Segment63_Color:=0.180392 0.396078 0.513725
Segment63_ColorAutoGenerated:=1
Segment63_Extent:=84 413 178 408 0 46
Segment63_ID:=Segment_70
Segment63_LabelValue:=64
Segment63_Layer:=0
Segment63_Name:=L4_nerve_root_right
Segment63_NameAutoGenerated:=0
Segment63_Tags:=Segmentation.Status:inprogress|TerminologyEntry:Segmentation category and type - 3D Slicer General Anatomy list~SCT^85756007^Tissue~SCT^59441001^Lymph node~^^~Anatomic codes - DICOM master list~^^~^^|
Segment64_Color:=0 0.423529 0.439216
Segment64_ColorAutoGenerated:=1
Segment64_Extent:=84 413 178 408 0 46
Segment64_ID:=Segment_71
Segment64_LabelValue:=65
Segment64_Layer:=0
Segment64_Name:=L5_CSF
Segment64_NameAutoGenerated:=0
Segment64_Tags:=Segmentation.Status:inprogress|TerminologyEntry:Segmentation category and type - 3D Slicer General Anatomy list~SCT^85756007^Tissue~SCT^59441001^Lymph node~^^~Anatomic codes - DICOM master list~^^~^^|
Segment65_Color:=0.752941 0.407843 0.345098
Segment65_ColorAutoGenerated:=1
Segment65_Extent:=84 413 178 408 0 46
Segment65_ID:=Segment_72
Segment65_LabelValue:=66
Segment65_Layer:=0
Segment65_Name:=L5_muscle
Segment65_NameAutoGenerated:=0
Segment65_Tags:=Segmentation.Status:inprogress|TerminologyEntry:Segmentation category and type - 3D Slicer General Anatomy list~SCT^85756007^Tissue~SCT^71616004^Muscle~^^~Anatomic codes - DICOM master list~^^~^^|
Segment66_Color:=0.980392 0.980392 0.882353
Segment66_ColorAutoGenerated:=1
Segment66_Extent:=84 413 178 408 0 46
Segment66_ID:=Segment_73
Segment66_LabelValue:=67
Segment66_Layer:=0
Segment66_Name:=L5_muscle_tumor
Segment66_NameAutoGenerated:=0
Segment66_Tags:=Segmentation.Status:inprogress|TerminologyEntry:Segmentation category and type - 3D Slicer General Anatomy list~SCT^85756007^Tissue~SCT^71616004^Muscle~^^~Anatomic codes - DICOM master list~^^~^^|
Segment67_Color:=0.501961 0.682353 0.501961
Segment67_ColorAutoGenerated:=1
Segment67_Extent:=84 413 178 408 0 46
Segment67_ID:=Segment_9
Segment67_LabelValue:=68
Segment67_Layer:=0
Segment67_Name:=T11_needle
Segment67_NameAutoGenerated:=0
Segment67_Tags:=DrawTubeEffectMarkupPositions:-5.139603766393634 -30.584699770180563 82.0928759615509 14.114506902088735 -53.743903042131286 84.30486788175175|Segmentation.Status:inprogress|TerminologyEntry:Segmentation category and type - 3D Slicer General Anatomy list~SCT^85756007^Tissue~SCT^71616004^Muscle~^^~Anatomic codes - DICOM master list~^^~^^|
Segment68_Color:=0.945098 0.839216 0.568627
Segment68_ColorAutoGenerated:=1
Segment68_Extent:=84 413 178 408 0 46
Segment68_ID:=Segment_10
Segment68_LabelValue:=69
Segment68_Layer:=0
Segment68_Name:=T11_needle_tip
Segment68_NameAutoGenerated:=0
Segment68_Tags:=Segmentation.Status:inprogress|TerminologyEntry:Segmentation category and type - 3D Slicer General Anatomy list~SCT^85756007^Tissue~SCT^71616004^Muscle~^^~Anatomic codes - DICOM master list~^^~^^|
Segment69_Color:=0.694118 0.478431 0.396078
Segment69_ColorAutoGenerated:=1
Segment69_Extent:=84 413 178 408 0 46
Segment69_ID:=Segment_14
Segment69_LabelValue:=70
Segment69_Layer:=0
Segment69_Name:=T11_needle_end
Segment69_NameAutoGenerated:=0
Segment69_Tags:=Segmentation.Status:inprogress|TerminologyEntry:Segmentation category and type - 3D Slicer General Anatomy list~SCT^85756007^Tissue~SCT^71616004^Muscle~^^~Anatomic codes - DICOM master list~^^~^^|
Segment6_Color:=0.564706 0.933333 0.564706
Segment6_ColorAutoGenerated:=1
Segment6_Extent:=84 413 178 408 0 46
Segment6_ID:=Segment_7
Segment6_LabelValue:=7
Segment6_Layer:=0
Segment6_Name:=T11_nerve_root_left
Segment6_NameAutoGenerated:=0
Segment6_Tags:=Segmentation.Status:inprogress|TerminologyEntry:Segmentation category and type - 3D Slicer General Anatomy list~SCT^123037004^Anatomical Structure~SCT^62818001^Adenohypophysis~^^~Anatomic codes - DICOM master list~^^~^^|
Segment70_Color:=0.435294 0.721569 0.823529
Segment70_ColorAutoGenerated:=1
Segment70_Extent:=84 413 178 408 0 46
Segment70_ID:=Segment_23
Segment70_LabelValue:=71
Segment70_Layer:=0
Segment70_Name:=T12_needle
Segment70_NameAutoGenerated:=0
Segment70_Tags:=DrawTubeEffectMarkupPositions:-1.6209057682012542 -34.9022386250943 58.537835377363095 8.759952372046001 -63.16585421478513 60.65166192188141|Segmentation.Status:inprogress|TerminologyEntry:Segmentation category and type - 3D Slicer General Anatomy list~SCT^85756007^Tissue~SCT^71616004^Muscle~^^~Anatomic codes - DICOM master list~^^~^^|
Segment71_Color:=0.847059 0.396078 0.309804
Segment71_ColorAutoGenerated:=1
Segment71_Extent:=84 413 178 408 0 46
Segment71_ID:=Segment_36
Segment71_LabelValue:=72
Segment71_Layer:=0
Segment71_Name:=T12_needle_tip
Segment71_NameAutoGenerated:=0
Segment71_Tags:=Segmentation.Status:inprogress|TerminologyEntry:Segmentation category and type - 3D Slicer General Anatomy list~SCT^85756007^Tissue~SCT^71616004^Muscle~^^~Anatomic codes - DICOM master list~^^~^^|
Segment72_Color:=0.866667 0.509804 0.396078
Segment72_ColorAutoGenerated:=1
Segment72_Extent:=84 413 178 408 0 46
Segment72_ID:=Segment_59
Segment72_LabelValue:=73
Segment72_Layer:=0
Segment72_Name:=T12_needle_end
Segment72_NameAutoGenerated:=0
Segment72_Tags:=Segmentation.Status:inprogress|TerminologyEntry:Segmentation category and type - 3D Slicer General Anatomy list~SCT^85756007^Tissue~SCT^71616004^Muscle~^^~Anatomic codes - DICOM master list~^^~^^|
Segment73_Color:=0.564706 0.933333 0.564706
Segment73_ColorAutoGenerated:=1
Segment73_Extent:=84 413 178 408 0 46
Segment73_ID:=Segment_74
Segment73_LabelValue:=74
Segment73_Layer:=0
Segment73_Name:=L1_needle
Segment73_NameAutoGenerated:=0
Segment73_Tags:=DrawTubeEffectMarkupPositions:-5.434473346857686 -33.96044496522326 15.176898013310376 17.17219118325019 -54.63240800354831 17.393359812591914|Segmentation.Status:inprogress|TerminologyEntry:Segmentation category and type - 3D Slicer General Anatomy list~SCT^85756007^Tissue~SCT^71616004^Muscle~^^~Anatomic codes - DICOM master list~^^~^^|
Segment74_Color:=0.752941 0.407843 0.345098
Segment74_ColorAutoGenerated:=1
Segment74_Extent:=84 413 178 408 0 46
Segment74_ID:=Segment_75
Segment74_LabelValue:=75
Segment74_Layer:=0
Segment74_Name:=L1_needle_tip
Segment74_NameAutoGenerated:=0
Segment74_Tags:=Segmentation.Status:inprogress|TerminologyEntry:Segmentation category and type - 3D Slicer General Anatomy list~SCT^85756007^Tissue~SCT^71616004^Muscle~^^~Anatomic codes - DICOM master list~^^~^^|
Segment75_Color:=0.862745 0.960784 0.0784314
Segment75_ColorAutoGenerated:=1
Segment75_Extent:=84 413 178 408 0 46
Segment75_ID:=Segment_76
Segment75_LabelValue:=76
Segment75_Layer:=0
Segment75_Name:=L1_needle_end
Segment75_NameAutoGenerated:=0
Segment75_Tags:=Segmentation.Status:inprogress|TerminologyEntry:Segmentation category and type - 3D Slicer General Anatomy list~SCT^85756007^Tissue~SCT^71616004^Muscle~^^~Anatomic codes - DICOM master list~^^~^^|
Segment76_Color:=0.305882 0.247059 0
Segment76_ColorAutoGenerated:=1
Segment76_Extent:=84 413 178 408 0 46
Segment76_ID:=Segment_77
Segment76_LabelValue:=77
Segment76_Layer:=0
Segment76_Name:=L3_needle
Segment76_NameAutoGenerated:=0
Segment76_Tags:=DrawTubeEffectMarkupPositions:-2.564639992059142 -28.982111295838124 -42.49985713852709 20.908583003719656 -48.07708388430869 -40.33678138742945|Segmentation.Status:inprogress|TerminologyEntry:Segmentation category and type - 3D Slicer General Anatomy list~SCT^85756007^Tissue~SCT^71616004^Muscle~^^~Anatomic codes - DICOM master list~^^~^^|
Segment77_Color:=1 0.980392 0.862745
Segment77_ColorAutoGenerated:=1
Segment77_Extent:=84 413 178 408 0 46
Segment77_ID:=Segment_78
Segment77_LabelValue:=78
Segment77_Layer:=0
Segment77_Name:=L3_needle_tip
Segment77_NameAutoGenerated:=0
Segment77_Tags:=Segmentation.Status:inprogress|TerminologyEntry:Segmentation category and type - 3D Slicer General Anatomy list~SCT^85756007^Tissue~SCT^71616004^Muscle~^^~Anatomic codes - DICOM master list~^^~^^|
Segment78_Color:=0.901961 0.862745 0.27451
Segment78_ColorAutoGenerated:=1
Segment78_Extent:=84 413 178 408 0 46
Segment78_ID:=Segment_79
Segment78_LabelValue:=79
Segment78_Layer:=0
Segment78_Name:=L3_needle_end
Segment78_NameAutoGenerated:=0
Segment78_Tags:=Segmentation.Status:inprogress|TerminologyEntry:Segmentation category and type - 3D Slicer General Anatomy list~SCT^85756007^Tissue~SCT^71616004^Muscle~^^~Anatomic codes - DICOM master list~^^~^^|
Segment79_Color:=0.784314 0.784314 0.921569
Segment79_ColorAutoGenerated:=1
Segment79_Extent:=84 413 178 408 0 46
Segment79_ID:=Segment_80
Segment79_LabelValue:=80
Segment79_Layer:=0
Segment79_Name:=L5_needle
Segment79_NameAutoGenerated:=0
Segment79_Tags:=DrawTubeEffectMarkupPositions:0.8027012894145571 -24.121572035952326 -114.52607373489495 23.12231145450488 -44.79330066333 -112.32244321067384|Segmentation.Status:inprogress|TerminologyEntry:Segmentation category and type - 3D Slicer General Anatomy list~SCT^85756007^Tissue~SCT^71616004^Muscle~^^~Anatomic codes - DICOM master list~^^~^^|
Segment7_Color:=0.752941 0.407843 0.345098
Segment7_ColorAutoGenerated:=1
Segment7_Extent:=84 413 178 408 0 46
Segment7_ID:=Segment_8
Segment7_LabelValue:=8
Segment7_Layer:=0
Segment7_Name:=T11_nerve_root_right
Segment7_NameAutoGenerated:=0
Segment7_Tags:=Segmentation.Status:inprogress|TerminologyEntry:Segmentation category and type - 3D Slicer General Anatomy list~SCT^123037004^Anatomical Structure~SCT^62818001^Adenohypophysis~^^~Anatomic codes - DICOM master list~^^~^^|
Segment80_Color:=0.980392 0.980392 0.823529
Segment80_ColorAutoGenerated:=1
Segment80_Extent:=84 413 178 408 0 46
Segment80_ID:=Segment_81
Segment80_LabelValue:=81
Segment80_Layer:=0
Segment80_Name:=L5_needle_tip
Segment80_NameAutoGenerated:=0
Segment80_Tags:=Segmentation.Status:inprogress|TerminologyEntry:Segmentation category and type - 3D Slicer General Anatomy list~SCT^85756007^Tissue~SCT^71616004^Muscle~^^~Anatomic codes - DICOM master list~^^~^^|
Segment81_Color:=0.956863 0.839216 0.192157
Segment81_ColorAutoGenerated:=1
Segment81_Extent:=84 413 178 408 0 46
Segment81_ID:=Segment_82
Segment81_LabelValue:=82
Segment81_Layer:=0
Segment81_Name:=L5_needle_end
Segment81_NameAutoGenerated:=0
Segment81_Tags:=Segmentation.Status:inprogress|TerminologyEntry:Segmentation category and type - 3D Slicer General Anatomy list~SCT^85756007^Tissue~SCT^71616004^Muscle~^^~Anatomic codes - DICOM master list~^^~^^|
Segment82_Color:=0.901961 0.862745 0.27451
Segment82_ColorAutoGenerated:=1
Segment82_Extent:=84 413 178 408 0 46
Segment82_ID:=2.25.54008119781065785640045701623558883357
Segment82_LabelValue:=83
Segment82_Layer:=0
Segment82_Name:=T11_needle_center
Segment82_NameAutoGenerated:=0
Segment82_Tags:=Segmentation.Status:inprogress|TerminologyEntry:Segmentation category and type - 3D Slicer General Anatomy list~SCT^85756007^Tissue~SCT^248300009^Body fat~^^~Anatomic codes - DICOM master list~^^~^^|
Segment83_Color:=0.847059 0.396078 0.309804
Segment83_ColorAutoGenerated:=1
Segment83_Extent:=84 413 178 408 0 46
Segment83_ID:=2.25.162739202337509606474873440060719701715
Segment83_LabelValue:=84
Segment83_Layer:=0
Segment83_Name:=T12_needle_center
Segment83_NameAutoGenerated:=0
Segment83_Tags:=Segmentation.Status:inprogress|TerminologyEntry:Segmentation category and type - 3D Slicer General Anatomy list~SCT^85756007^Tissue~SCT^51114001^Artery~^^~Anatomic codes - DICOM master list~^^~^^|
Segment84_Color:=0.847059 0.396078 0.309804
Segment84_ColorAutoGenerated:=1
Segment84_Extent:=84 413 178 408 0 46
Segment84_ID:=2.25.323006734872142544165320593041627525079
Segment84_LabelValue:=85
Segment84_Layer:=0
Segment84_Name:=L1_needle_center
Segment84_NameAutoGenerated:=0
Segment84_Tags:=Segmentation.Status:inprogress|TerminologyEntry:Segmentation category and type - DICOM master list~SCT^85756007^Tissue~SCT^51114001^Artery~^^~Anatomic codes - DICOM master list~^^~^^|
Segment85_Color:=0.847059 0.396078 0.309804
Segment85_ColorAutoGenerated:=1
Segment85_Extent:=84 413 178 408 0 46
Segment85_ID:=2.25.260997417278004933438862359315462779280
Segment85_LabelValue:=86
Segment85_Layer:=0
Segment85_Name:=L3_needle_center
Segment85_NameAutoGenerated:=0
Segment85_Tags:=Segmentation.Status:inprogress|TerminologyEntry:Segmentation category and type - 3D Slicer General Anatomy list~SCT^85756007^Tissue~SCT^51114001^Artery~^^~Anatomic codes - DICOM master list~^^~^^|
Segment86_Color:=0.847059 0.396078 0.309804
Segment86_ColorAutoGenerated:=1
Segment86_Extent:=84 413 178 408 0 46
Segment86_ID:=2.25.289051445039195191919837183129205418553
Segment86_LabelValue:=87
Segment86_Layer:=0
Segment86_Name:=L5_needle_center
Segment86_NameAutoGenerated:=0
Segment86_Tags:=Segmentation.Status:inprogress|TerminologyEntry:Segmentation category and type - DICOM master list~SCT^85756007^Tissue~SCT^51114001^Artery~^^~Anatomic codes - DICOM master list~^^~^^|
Segment8_Color:=1 0.980392 0.862745
Segment8_ColorAutoGenerated:=1
Segment8_Extent:=84 413 178 408 0 46
Segment8_ID:=Segment_11
Segment8_LabelValue:=9
Segment8_Layer:=0
Segment8_Name:=T12_bone
Segment8_NameAutoGenerated:=0
Segment8_Tags:=Segmentation.Status:inprogress|TerminologyEntry:Segmentation category and type - 3D Slicer General Anatomy list~SCT^123037004^Anatomical Structure~SCT^62818001^Adenohypophysis~^^~Anatomic codes - DICOM master list~^^~^^|
Segment9_Color:=0.901961 0.862745 0.27451
Segment9_ColorAutoGenerated:=1
Segment9_Extent:=84 413 178 408 0 46
Segment9_ID:=Segment_12
Segment9_LabelValue:=10
Segment9_Layer:=0
Segment9_Name:=T12_bone_tumor
Segment9_NameAutoGenerated:=0
Segment9_Tags:=Segmentation.Status:inprogress|TerminologyEntry:Segmentation category and type - 3D Slicer General Anatomy list~SCT^123037004^Anatomical Structure~SCT^62818001^Adenohypophysis~^^~Anatomic codes - DICOM master list~^^~^^|
Segmentation_ContainedRepresentationNames:=Binary labelmap|Closed surface|
Segmentation_ConversionParameters:=Default slice thickness|0.0|Default thickness for contours if slice spacing cannot be calculated.&End capping|1|Create end cap to close surface inside contours on the top and bottom of the structure.\n0 = leave contours open on surface exterior.\n1 (default) = close surface by generating smooth end caps.\n2 = close surface by generating straight end caps.&Decimation factor|0.0|Desired reduction in the total number of polygons. Range: 0.0 (no decimation) to 1.0 (as much simplification as possible). Value of 0.8 typically reduces data set size by 80% without losing too much details.&Smoothing factor|0.5|Smoothing factor. Range: 0.0 (no smoothing) to 1.0 (strong smoothing).&Compute surface normals|1|Compute surface normals. 1 (default) = surface normals are computed. 0 = surface normals are not computed (slightly faster but produces less smooth surface display, not used if vtkSurfaceNets3D is used).&Conversion method|0|Conversion method. 0 (default) = vtkDiscreteFlyingEdges3D is used to generate closed surface.1 = vtkSurfaceNets3D (more performant than flying edges).&SurfaceNets smoothing|0|SurfaceNets smoothing. 0 (default) = Smoothing done by vtkWindowedSincPolyDataFilter1 = Smoothing done in surface nets filter.&Joint smoothing|0|Perform joint smoothing.&Reference image geometry|-0.35124914738615376;-0.0012003550306327996;-0.21286089316653728;92.83680000000001;0.0002868329371846949;-0.35100323614837103;0.27834836699119136;60.0063;-0.01570077027938851;0.020441315054842056;4.767093931341887;-139.29299999999998;0;0;0;1;0;511;0;511;0;46;|Image geometry description string determining the geometry of the labelmap that is created in course of conversion. Can be copied from a volume, using the button.&Oversampling factor|1|Determines the oversampling of the reference image geometry. If it's a number, then all segments are oversampled with the same value (value of 1 means no oversampling). If it has the value "A", then automatic oversampling is calculated.&Crop to reference image geometry|0|Crop the model to the extent of reference geometry. 0 (default) = created labelmap will contain the entire model. 1 = created labelmap extent will be within reference image extent.&Collapse labelmaps|1|Merge the labelmaps into as few shared labelmaps as possible 1 = created labelmaps will be shared if possible without overwriting each other.&Fractional labelmap oversampling factor|1|Determines the oversampling of the reference image geometry. All segments are oversampled with the same value (value of 1 means no oversampling).&Threshold fraction|0.5|Determines the threshold that the closed surface is created at as a fractional value between 0 and 1.&
Segmentation_MasterRepresentation:=Binary labelmap
Segmentation_ReferenceImageExtentOffset:=0 0 0

‹      ìİivãX’ QnA±šÈrA®dõŸÚÿNÚ5“ f<3À{Ow‰¢ì3RCHŠË                                                                                        vàÏ;Õ'"Ú}sKğf„·gµ(¾8—ñmÀY¬oÎ`S}pt[ó[€CÛßX‹üà°Úä· Õ*¿8¤vù-ÀéÿĞZæ· ‡Ó6¿şÓ8¿8–æù-À¡èÿĞò[€ãÉo#¨¿8†¨üàâú[€ÌoË¢ş»Q1ÉĞü`¾¢a÷· ³Ô30}Ğ‰Ï§pAÑÃÎ{F•(xÜ3*hûÜ¡Ç=Ÿâ‰6N}ÜÓ©hÓÎñÇ=™ú‰¶kœuâÙÁ8[ÕÍ>÷	ÄÎñMsôÇ9Å¡ø÷+Ğ¢gÛ³?ˆÀ×¿]1ÛşAÄpFı«Ø~ÆÇaœWÿ{Z¤åùCØüæçÿX€&'ix!j|Kê,@›£4»‚‡6½£õÌŞÂüoĞê0­®áÌnqù¯hu˜qzQ£[[ß@¢¸Ñ­ÏÿºíÏµî*Î-pr›òÿñGÄÉV\Å¹Nncşò¨“#rráı£—¤6M¼ØÁmÏ?Ñvæ–l¼ŒÓ
[ÃşÃmgoÉÖË8«¨¡ıÙîé¿?í‚%is!g6²ï±õŸ·$-/ä„Â&v5¶&ı;mç.IÓ9Ÿ°]M­Mş›¶óv¤ù•œMØ¸n¦Ö¨ÿ÷ig­HÄ•œLÜ¸n†ÖªÿÇy‡o)g8­Û¡5ëÿzä‘$\Ê‰DNëvfúKº–Ó×ŸMşÕï^êŸ¯øÀ²ú'\ÈÍÅœCêÄ_ÿlıs'vüú'ëŸ<°ÃÇÿó\ı³çu‚ügêŸ>®ã×?Sÿüi¿ş‰úkfÕé[şpEªAã¹+ym4ùìÛÖşxJœxAÓ;ÿ>ß¼ö÷€r3E	ÎhŞ‰üÿsíû¤;Ë¯ÿ˜±Â³ı·ıïŞ.îô³$‡Š5œ±ÆKò¿/À_]zŞ0ğø3TÔj.l:Cı‡?¥ÿ:Ó}ÿ¿şz_€»·;şEÅšŠ›Î`ÿßÙ–öÿë¯şĞ«ÀñŒ,ÀXş¿ÿşûşãÿ×èßTè|VôÿûÍ{ÿÿ|z}Eÿ€şÛdMjöÃÿ£ÿïÿ¹vy[€÷3ï¦Yµf‡µ°ÿº~/À×±õo#y^sú¸ËÿşAàƒşmdlKşıõOÕ^şÈföïË½ ×o•ŸÒ{µV1´óôOÏÕ\ÉØfôïÏµ ú·P47ıw¢jpSı‡òï«E±¶ª&7´ŸçÒ?EÕà^5ë_vÅÚª™Û‡FıË®£ Wk%sû¢±’±]^€…ı+®¤ WkS»¥©‚©u,íÿ}öêşùµÚËŸZ×ÒO ¾Ï®ÿvùS»›â²'€«³÷Oo!}j÷–<ô|º¨ÿéS»7û	 ?~Uÿºf-eO­Ç`ÿËÌü%ß ¨KÖTòÔú÷¿Ù€‘üı«zµ–;µ^£¿Õ{™Q¿ qµvR§Öoâ÷úßŒç×µÔ©õ›¨ûzÊ‰üéÿ°8ZC™Sp™\€Éüú¯•9µ—*õJª£5”8µ!—…ı¿_Ô¿,V€¼©MsUıKÕO€•„
’7µÑi®ª_Ô??R¤´±sqş7Ö«´±Îó6óëKÇò¿mç²{"YcñzŒ»şŞ¯@ßÓ ²U„œ©»ô÷ï,ÀŸ}ÇÕ«œ±»íÿıòÛ—öVÿrÆ6áÒ›NİäşÕµÚKÛ¤‹şURæ6imÿ?SóëeªÿÔ„ğMu«9“›2Ğ9ûÓ»	Õ­BTõ]æ}õ¯.£zªz+ëŸ z¬cöÔ¿ºS˜êÁĞ?Aõ`Gì¨u¥8Õ“±ŸO ª#Eªí0ı3TÏvÄ^ :Q¬ÚÙÑ?EípGÌùp‚ê>Ñ*g;Jÿ•Ãµ‹şÕuâwÜúWÇÉP7İ	úç¨ï¸úşÕer”wByÿê0Yªæ;¡ú€ê,yjæ;¥¸u”L%RÛ¿:I®Š	Oªì_$[Áˆ'ö¯Î‘.ÄÓÊ> TÇ¨<â9Šş@u‰"™#GÿT™3GÿT™C§dª3ÔIò<ú'KóúçKœô¤ŠÏ «ç¿iÃ¢™´Ñ¿XÚØûå ¨ø]Í&)Â7ı÷%©Â—ìşÕóİ½œ_’ûWO÷ R:|Kí_=Û#Èèp%³õh!¡ÃµÄ Õ“=†ğ·òúWö(¢;ÜJë_=ÖÃîĞ‘Õ¿zªÇÛáNNÿê¡Ihˆ;)ı«Gz(‘!î¤<ÿWOô`KÜÉè_=ÏÃ‰Kq'¡õ4(¬ÅğşÕ£<¦ ÷¢ûWò¨bjô]€ê)Y@>ı«'xxÍ‹ôø£ÙÜ·zvç±1Ë„Fı«‡tf­R÷jÑ¿z@g×0÷½Mı«'ó(šWÿ.¸¡õTI@ú„+ûWäáåÿZ õ÷.&ÿÇ¨õ—ŞoÕ¥Ógf©E?*ÍúO|                                                                                                                                                                   €Íşìª>yîâÛ‚Ç1ßœßœúvà¬æ×·'´0¿8—5ù­Ài¬ÍoNaS~+pt›óÛ€#k‘ßV£üà˜šå· GÔ0¿8¦ù-ÀÑ4Îo¦yp$íó[€‰Èo#¦¿8ˆ üà ôlaı-ÀÄå· GÙßì_l°wÁımÀÎ…÷· »ßßìYF°_9ı-À^%õ· ùşèÓ½QVª·}ß
äõ· YÆâw7 ±¿È0ÿv2ûÛ€p³ê_o@n+jvıÊ°A–ÔÿŞ€üş ÄÒüuım@{‹ëm€8Uùß ¤¿hjeşÂ' ĞÎÚú¥O 6 •ù-ÀñmÊo¤lú[€‹¦44¸ù‹Ÿ wMns~P¡Õää×?]»Ñµê?q¤÷6:öıU<˜v£k‘r¾oØìà7ñ`®MşÑt{Ë†gÿV›#WÛÉ…÷ïŞ²íñ?ÔÉÔxpò/Àİ_À»Ú&‰Z®qÿ»óİß°õ¼+’¦ùØšåïíß{Ãæ×ğ¦4K–öckŞÿ2ußí¯á]e—$Sk×¿û0p«€kxWZ&CÈÔÚ÷¿ŒÜqÈ%|¨L“ hjı/wt_
ãÄ‹ZDÿKß½F]À·º8ñÂ†Ò¿¢ş©ûÇ- Ï«âÎ¥2P¬À¡µï_TÿÄı#‡Ö¸Ï‹#O£:S”Ğ¡µí_™_ÿ5Zö¯ŒÿçiûÇ­aÿâüú¯qšúgí<´óä?gÿƒëqü§ìßb.ãQN“ÿŒı[Œe*ÎÌ ÿójÇõõ0iAşyào´Òd,óúÎ‰?¯¿¿ÑJ›±´ÌÿÛëÁFë—ıXq­æ¥iı÷şƒĞòÜ‹¦ŠĞl.Ûò_Ş³ÿçË×wÖ¿ªS”v“Ù”ÿr[ÿsşúë¯h{îejk5×t6òÿöŸ;¯ù_ »Í¾@e¬ö"&´.ÿ}ıß>ûw7 èä3TÆj/lLmòë,zZ³óôÿÏgş½ô¯K!on+ó} ÉÃÉ?ØÿkvÑ¿*Tôù-Ï¯œŠ	öçéÿ¹ {è_*FÅÿìlÀçY¦ûw âè5¢TLğU“ş%'¯é¤d‚¯zò£I¦(|§ÿTÌïÃQû—tŠR0¿/Çì_’)Jşø®¬êÿGqÿšNQÒÇwMÿjéÓ»ÑÓò€÷¯é%{z·õ{m·¾ş›d¯kÉ\ú4ùÄe©B$ïÎ‚şC?œ|âºV’gwï:ä×©úêÄOï_+@îìzÜ”ü:Ö‚úúo‘;»·)¿6?¿¿ø²^êèzİÕü:ÛÜüú¯—:º^}Aï©ÔÑõê-Ú9åxşÔş%•âd®_Ò«#şqß¿ó’Ìã–•Š‘9º~íİ({¨ÖXâäÜtœ|ªÿ<·şm$Nn@7ãè¼¿É¥®u¯Öò&7¤/ãxş[¤¶ºWkiƒ4Pq<¿ş¤nĞpÅÎÚ¤ÃVçj.in#&#ê(in#æ÷z³Ä¨ÎÕ\ÎØÆ©u­öRÆ6jeÿ’¨®Õ^ÆÔÆMœÙ?cªkµ—0´	kû<TÇ
?´)úWŠÚ”ÕıÓ ºU„è™Mk×?zª[…Ù´õı“Ÿ ªKÅˆÙúç.@u©¡#›c2ŞHŞÌşÕ¡¢DÎléx»è_)LàÌfYĞrâNY])NÜÌæ™¯¾u¤HaC›gSÿ?súW'
5´™ô¯5µy¶õÿSşÍ¢Æ6ÏÆşÓß?Ø¬ºO¸¨ÁÍ²¤ÿèD°ºN¼¨ÉÍ²¹°ê8
ÆúeNÛÂşÕiRäõÛ®ûW‡É’=×+ûí_%Qê\;f¤-ù ºIªÄ¹Ş™«¸ÄÁ® ¸ÄÉ.§¼ÄÑ.Vğ :G¾´Ñ.§†´Ù.§Š´é.•Ş¿ºD•¬ù.¤¬/‘İ¿ºÁ$z–äşÕ£ß¥œÑ÷Ëí_=é}Jı€Ô/ «½S	“¤½„ÉKì_=ç½ŠŸüıËÅO~DŞ€ê1ïWôäÇ¤õ¯òO~\RÿêïYìä'äô¯ñ¾…~BJÿêï\äè§dô¯ïîÎ~J|ÿêá@Øì§…÷¯í!DZpÿêÁEÌôgí_=Õ‰ÿqı«'z0Íç?OXÿêyNë óõ¯æµ-0SHÿêITËsô¯ãqµk0[ëşÕ#<¸FækÚ¿zzgĞ¢ÃíúWî4T¯Å€TìtÚå´±õ¤Nªqä[úWOéÄÚ‡²²õ€N/¦ö½åı«'ó0«›î_=†ÇVÚ¿úâyWÑ¿úš¹½ Òï^FÿêkdJÈˆ$ûW_ë©Î;Á                                                                                                                                                                                                      àqıõ×_ÕG Î_Y€G¦ÿCøûï¿û_¡ÿ#ø{°¿ÿàï‘şœŸüM~                                                                                                                                                                                                                                               `'ª@™§wÕÇ ˆşíéÉ<2ı›şMÿ'ÿcÓÿÑ©ğp|ğ`OWªÏBª§®ê‘è®¾x(ú?´¾üú?ù[oÿç¿_ÿ×oÕg$PÏ£ÿùË[~pf=Ïûú?”îGıgıØóu~ÿÉßÿıÿç—êc‘ãwş¿ïâÛ€Gñ÷WÿŸ÷ªG¸Ïü=õ-ÀÍoNï½ÿP~ıOoìÑoÀh~ıÀXpz£ùõ?½ñşàä&òërú?6ı›şMÿÇ¦ÿcÓÿÁÉÿØôpò?6ıœüNş'ÿƒ“ÿÑÉÿèÔtê                                                                                                                                                                                                                     Ô¯oÕG!Û¯®ê‘ç.¾xñmÀC«oÎn²¾8³yù­ÀIÍÏoÎgQ}p6‹ó[€YQßœÅºøàÖ×·Ç·­¾8¸Íù-À5¨o«M~pP­ò[€#jW_ÿ2O«ß²e~ëéòôúÿŞ­»‹¶ùõOôÔ±æ>ç· yºù×,@óü Ø/ÛûÔ· ±Æò/Ü€˜ú ĞkÛ ¬¾ócºÿÜˆÌ¯Œ?š-@h~ xfÜYp~ı[ë«¿şs€èü ­¡ú0uwñùõoi,ïŒß]Bşí3…‰üK #ÿ£-@ä&ó/úSÿ‘úd:ÿ’mŞâr&|&sò÷~°ı¸ÛlëAÄOeVşÙ_¶¯ÜîJ'c0óòÏı>PË¼M/óx2F33şìh¶ñUPÎläŸ÷o¶»ù5QÒp–ä\€ëhrî¦—xDiÓiÓÿ{Z¼İQŞ|–õŸ|hxğ6×wD™jÔÿ)ää›¯îˆrg¤ÿÎdiYÿŸ¿êröõ—vDùcZ”_ÿXszzZpb¿æº¨bPO³àûôQ2©§¹ğÏo_oÑ· ±Ç_vUGT3ª§Şø|íó‡ËåŸ©şÑÇ_rQ‡T3«§»øzÕ¿ÿşûüµ _ı‡>?şük:¤¢iİõÿ|Å¿o¾Ÿ nß`'ıºd)šW·ÿçËÿ]ÖßÃ£ª¹=uàóåı/ïŸ|İüùYÿU£›î¹üüô¶>ıP6¼ñş¯ÿëçµŞşU ÿöñõ¿|äÿÙÕ³¥p
5Ó{ß`ÿ7wõ{ î
*ZE¨™Şë ûÿÎÜWÿ}»ù}ù·IÉôŞ<İ.À×‰†óëß\ÉğŞ=İ,À÷Oòç¿ûPweÁ«™Ş›å¯FşwO ePX¬­šñ½ê?œ¿ûPv…ÅÚªß‡ı/7 ÿV5óûÔ· £ùoŸ ÊÎ_Y¬­šù}êù0şğ{ğğo§f€_î`ºùÓu³–Jx5Ê»XĞßÃ»š	^Í²» “ı/Õı«“µT2À›ané_sâ)`gš˜ìÿ¤+%ó»ué.ÀDÿò§ÿêfUŒ¯ërßüû?ÅÿêfUŒïÎëA<T?ü«›5T0½¯'YğPüÙ_u³–
Æ×ãí(İ¯æä¯è_\¬©üéõz?Ì¬èŞ¨è¬'‘>½^Ÿ§é¤í[€§Nÿ²³Búôú}grºùı½·M²§7âí<O]—±úúo•=½qƒ¿Û9œßŸûÜ"yxÓÿ¾Ïkë¾—•ıÚâ)äo–áèÍï¯}o‘:¼™vÜ¿:Ws™Ã›mäcÀ}~ÿ­-‡·ÀëÉææO¼„ÊPAò†·ÈeıKCIŞBsú'_Bi§(YÃ[jFÿì+(í%mzK½Î³´´ñ-õq¾©şÙç9›´ù-öyBù#¥p±ÏõO?Ìù¤p©¯÷Ï?Ëù¤Íp±¯#Ê(mˆ‹}q şAÎ(mŠ‹}±øá_×&EÖû>béÃ¿®L¬9.ö}DÏşÒ¹Ô÷{úœâ¬ÒF¹ĞÕå”6Ë…®èÉ?PÚ0º9¤OıãdMs¡î1}ã'HÚ8¹?çg~?ñÕXŞ<¸?fúÃ_ÿB÷ÇÔ?JâDçê9eAP¥çÙ_üã”R‡:CÏ™ô”:Õi}çÑ?RêXWyëŸü>««dJíbúGKîBú'HïúçèN ïVĞ/^Ş$§Ğ/^>å¶(è_=é}z¹’Cÿ}x¹•Cÿ]xyœşÕ£Ş%ıZ7rÿÌ¨õİåOüPÿzÔ¿zÔ{tŸÿ´ı«G½C=õõ½ñÏÛ¿zÜ{3”ÿ¤_ V{o†óëNom¯şçCõ¯}½ñâE×¿züÕåÏíŸ± Õã¯¶,ÿéúW¿ÚÂügë_=şjKó§-@Jÿêé—[ÿDı«‡¿Û¿zòû°¢Ò„ö¯û^¬ÉŸúqÇÕCß‘Uı à^«G¾+»î zŞ{³®ÿnàë:–İšO+ûïcn/eÑy·2ÿ~sxì²æßòÑ­Ì_¾ Õs;‹uñ_©«ó_Ê6 lV§´6ş+ñO`uıKÄŒßmòhÃúü­`ü®S†ñˆFƒÄTŸDsíıÄ?ué?ˆşğÔxò3{	ªÏIõ¹Ù‚                                                                                                                                                                               xp¿®U†\¿îU‰4=õmÀÃ¨oÃH~p~£ùíÀÙMç·'6/¿8©ÙùmÀ)-éoÎfY}p2ËóÛ€óXUßœÄêú6à6Õ· ·µ¾8²õ-Àaµ©o©Y|p@më[€OŸ6ŞOóú ÁÓ•-÷Qß„{ºµú~‚ò[€XO]—UKVß„ºË¿êi ²¾ˆ3Táç×?ÆXı]ß„èKşãÇòHÈ¯{÷éß,~ÈÈoZëm¿ Ó“_ÿ¶úÓ÷ôŸÚ€¤ü ©áú=0¶iùõogäÁ?´ +—_ÿf¦ê,@Ï$æ· ­Läÿñ¿¯ú7 ³©ù¥ôFóÿ÷³ÿĞsÀõ¤Toxå?‰ñüÿıïtÿÏˆ­İø² cSù/ÀGÿ©g€¨Êí¯ùr¦1Öÿ¿ïæõrÅÇ4ù_?||!0² ­ÛF]ğ1¤Íc¤ÿÿÛY€áüú·•7Yù?`¬Ã¨‘—{‰ìW´³¢±W{‰3|úïÉ?Ò¿MÍàk=ŠÌÑõïË?² mu‘Ç’9§şıùû·;ró+<Äù<ôÈÿcàÇ‹>ù›¾¾#JœĞ@şûOü?ó÷ÿ„`]~ı·Œè©¿ÿ`şwoUüìÆşy3zêï›ÿùù2Õ¿ğáºş‰Cš™ÿù¹ÓÿnBÎ¼éÒ+qJOıı;Oş3úW>üOÖ?sLıı»ûoûÿş`pÿ¶a‡^w]–:§ŞşwŸúuû?ß¿iÜ©W]×q…êåİû{ëëÿ‰ÿóóÏß®ú?wßÔÓ#Áƒz¹véíßóußÏ}ıC=yU';ª——ÎÜ÷¿Ëùyçm<üÛ‹ÕKwîúwò_zê÷,€/ş›ŸU·ÿËK§7oı·¸ùÛ`áQ­„a÷ï~â?˜Gı«£5“2­Ñ'€»/ûóÿ^€ô¯®ÖLÎ¸îû¿¬ÊÿóúÃaÿêjÍ$Í«§ÿËPşÑş?wÑ¿ºZ3Yëëÿ¾óï¢uµfÒ&ÖßÿrŸAÿÌó_«ÖNŞÌú_ç¯ï_­Ä¡õ÷yËş÷ßòñTÜ¿:Z;™SËÿÿwçı«£µ“9µ‘üÿ3û?Õö¯ÖNêØÆò_=ùÏxş¿Éï/~¬–;¸Ùù§úW>ü«“µ”;¹‰ú×?æ=»òUTk,qr¿úúßä¿úï‰x*ê_«µ´Á½™Ê?»'Úe×j/kpï¦òßôY€§¢şµ­$ÍíÃdşÛşÃÿş¯›?ç:*CI™Û§éüşCPôğ¯$gpïfäïöÿ1/¿‡ÿJ)sû4–ÿó·f=ÈßJÊà>æÿìßı gjşU‰BeîËhş¯ş·p¹t7 ï?	›qúš@Á2÷m,ÿwÿËmÿÛx~¾ÈßNÆä¾å¿ê¹éÿÙúùƒ‡C“ûÖÿ‰ÿË]ÿ«¸®İ­ÿ”yùm2dLîÛXş›ş—Şş]©W‘]&GÆä¾ÍÎÿe7ùõo`$¿ş%RF÷e$ÿKÿ¤w“_ÿó{¢âÙË…Jà¯·ş}ùÇÆ=œ?÷èú7Ğ÷eoıWïìŸyîïãœNê{òÜúã„oOõúIá¢üŸ&¹÷0'’9Â…ùÇ åÄg9“¼	.Î3tıc$pqşë©ë$q†7ùg½Å÷1‹óëßÀËÒüWô’4Àÿ÷juşïş¿*êë¿Ù[ÿ—µùÕ=òßUW
”3À÷ş«ßcqÿÚBÁR&øÖıûÓ?PÆ?û¯|óÂOı^U
–5ÅõoZÛ¿ºO¸Š¡.¢¬Š©.RÙ¿:N†‚±.¢°‚¹.QØ¿ºL’üÁ.á[¿ñfâg¸Z*û°:Jªe£IÌ_Ö¿ºH²%£úñíEı«{ä›=šßİˆTÒ¿:F‰y£IÎ_Ò¿ºD•9“y€şÕ
M¦ïW÷Bå÷¯nPl|,uı³ vú{—Ş?û	 zÀ;—?¹õ|÷NÿÇ¦ÿcÓÿ±éÿàôléıs z¼»§ÿƒ;uÿêáşìÜ_ TOw×^n$Ôx§†Ï¬×ÿ«ïõ§î_3úzwqïV ç•ñ9Ş%şàº¥†ò/@ßëÂk|Ò?Öpş·|Mxiı«CÔÏ?":Ç'ı#­Îº¬.QbCş³ı
@uŠ›ú'ÿPì»©.Qc[ÿÜß}/Õ!jlÌŸ² )ß ¨QdsÿŒHè_İ¡Jƒşñß¿:C™&ı£W ºu„B­ú}§8¢Ï¦şİ+¼Áciœwıû¯zâÕ¤qşXß¿l¬‡Ñ¸ş%b¦¾ zŸ5=˜ÖùC`¤³ø+µÎ° ãıóGv.mã¿JíŸ;¬3jşK^ÿ”	\Ãğ_’úGå‘|çmRÿÍúà·î2‹G×(ÿfÓısÏó@öÿòµıÓó`Ş›—Å7Ø¿è<ä»ï_}"2}õ¯>5älú?:õ                                                                                                                                                                                8£_×ªCš_ªÏE‚¡ø6àŒÆ·ç6ßœ×¼úàœf×·'´¨¾8›¥ù-À™,¯oÎc]}p
ëã[€ãÛVßÚöø ×[›î«M}çÇ½Õ÷Õ¬¾ÈÑÃ´ÌoâÔÿİÿééiùİµÍo‚ÖÿñônÙİµ®obç_Ó? ¾şFêæ_² !ù-@˜±ü+úå×?Æhı«şcpıÚ¨ü ÄDş«şC[pûš¸ü ÀTş»şİè¼42¿şÍMæïíÿ¼g-Bû[€Æ¦ó.À}ÿØü ­9ùõÎ¯K³ò/X€øü ¡™ùg/@F~ı›™îdä· ­Ì?{Rıú·²äÑ?£Â§~ ¥–ı_ï/-¿ş-,Í?¸ ÷——ÿ±ûOcÙZõ<W  ÑîİØ<–iyş˜:[„øQïOãAµÊ¯°˜Q5{ø'ü;ßÙu>a³jÖ¿Ù9·_ÓÉDkU~ıóOk2uç6oÿĞı—ıeùO¿ ÑÓš~¨wnøşOúgˆ×Œ§úËåùùùõ¶ÿüóÏ×Ûí&ÿ‰û'ŒkFş¯ùß`´à‘—\Ğy¤ÌkNÿÿ}ëÿóÓÛê+g^óò¿.ÀÏk¯Ï{ÉÎşI›Ûÿg×ó¥/¿şdlmşß°—‡ÿû§lNÿøwrîéË9‡Ì‰Mæ¨¯”Ü‰­ïó)@ÚÑÇ¯æøò'¶6ÿ^úDŠ“8²—wãıGòÿü©ki#{¹¶®ş}ÿ¤Óß]Ìidì¥£¿şóDşŸ?õo*mdİşİo§yÖ?WŞÈîú¿¼ ÓAşäŸù¿Q¬­Ä‘İ÷[€Cö/,ÖTæÌzú¿.€şuRg¦ÿŞ¤¬/ÿQûWFk'wf½ı_ô/“<³Fı/;è_š­•ä™õç¿ï?µ ú·‘=³Fıo~ ¨â:~#ÿNş×ıßày|õo#{fsú¿.ÀxÿçÛŸÿª¸säßËÃÿæÀÉx¾øûÅŸU’g6˜¿ÓtŸû~ú3ùJÎ‘_úôZ€»üú¯–<³Ñü÷Ğ÷EÀó}ş’şeÉšÊÙøÃ¿§ÿİ¼ı&Xo~öcÜ¡Mõï[€ß®ãßÿæWIÿüR!Rg6–ÿ£ÿí]nşk.ÏÏ½ş§ŠŸş¯©Õ^âÈ~Íê» İĞ½õşê_M¬ y#û5ÿ«ÿe¬¿ô‹)I"md¿&ò÷ö_–?ñÇ×Ï"i`ïæå¿^€…ù3{årönæÃÿrµ »ìŸœ(TÊÀ>Ìï¿h²¯'3O¸„y}Zÿc>øS®'+L’ğy}Y”ÿuf=÷'÷Ï‰’(x^ßæ¿ôş}Ç©úÁ£@ä¸®çïë?ûÑ[(ğ’Ó¤×µåùçôÏ;ÿ¯sÖÏšßDşuıÓNÿ*9Kš”áMåïí?µ ¾ÛÛBÆø&ó¯ëŸqôWÉErÅoºşKÏYŞ^°ƒúuer„pFş—şƒ\ó®ø¹ïÏpJÑœ“ÿeè×-ÉşˆŞ¬ú/#‡¸=lA°ŞGŞî?/Èÿkè9 ğÔ#ïÿŒ¢æÖóÒùùoä?ıÄ­¿şÕkfç¿ €€‘×è¢üW*ÿO¿ ­Çõ•vt Ÿ÷Ï{ïŸGÕ?BÃQ]?±ÏšèÌûı¸µşšêefşï‘Î¾ë÷›×ô· ³¼ÌÏÿ9Ò÷şv{ıclQ÷³úY3]òŞÎY“ÿüı×/À¥>ªÿÛèeõhVæ_ş“Z¯§Ô?ÌÚÉ¬ï¿ü}éhÕdÖ>û¯qÑ?ÔŠÁä×ÿ˜–Îe(Lÿ_ú‡[4–äüú§˜=•ÁüúßôP†óGõÿõË·ÿÎd¤~\~ıÓõOd¬¾ş'ÓÇxüÈü5ı«ç¿/Sõõ?µÒüúW›ÎŸÓßÏ—˜‘?´Å@õÌw¤<Aÿê™ï‰şíûW|Oæä?Yÿê‘ïJ}şìşÕß—=õOY€êïÌ£õ¯÷Şì æ€êqïÎAû¯;Tõ°wèıWªzÖ»t¼şkU=é}:ZÿÕ«ôNí©ÿäl8Yõœ÷jıg<l>Zõ˜wëı7Ÿ­zÊû5£ù' ›ÏV=ä;@ÿ­§«ñ¾í¾ÿÆóUÏwïfôşƒÒ[û¬@õt÷oFşÒş³ò÷ÿÙÁêÑÃŒÉ/ÀXÿùù;ç,œèÁ,›knÿeùYeÆH‹úËŸbÆHSúw@ü$3†šß_ùDÓ“]Şuöõö×>Õôp—×ŸûF}ıÕO79ÛÅõg¾QOñwiiüyotßÖ%TXÎİõ}ùwmAü±7èëÿñêÂ¬øoÑ×ÿûvêŸÕ`ÿîÅ?«ŞşOÕ§¢‚şMÿ§ÿc“ÿÁéÿèÔ                                                                                                                                                                               Nè×¯·ÿóëõÿÿª>‰~¨>á†Ò[ó›joNl^|+pNKêÛ€xz×èŞ–æ· ÅZ.Àòü6 ÒÓ­­w·*¿¨òtgÛı­ÌojÜçß¶ «ó[
}ù7,À¦ú6 ]şÕ°9¿H4í4Èo²ŒÖ_³ MêÛ€$Sù—.@³ú ÃtşeĞ2¿7+ÿ‚h›ß›™|®nÒ:¿5;ÿÈ\ß¢}~iIÿŞ¸½AD~fYı¾è¼Zÿ#Y¿»İWÆô· VÅ¿İ€ûWõ· Í­Ïÿ¹ }¯‰êolûã·Õ‹–ß45\ğÇ˜_ÿ†FşX¿ ‘õ-@CcüX·Áñ-@;ã!¬Ù€„ú ‘YA-@È7}õ1/é[ÿ?ö•ß´° ÿ¬g€˜å£yùŸæ~pÉÌo¦=ÿÍgæŸûeÀĞôßèæ’Nfqÿ±¸=hŠ¸‰ïHÜpææŸõeà¦³†]âÑµ™ÏU¡kËëöoqÚõ×wRÍ&ÔíÔ}éüüıÛxÍåSÃõµš×ÿG—ş9š©¿ØXõşøCĞşÌ³/í¤ÚiÎ#}ä1mì¯´=ô……"5ŸÓÚü}‡ÛÑÃÿœıƒ&µ<ÿĞ÷ÓÿŒ9ª¾Şù?óüîöŒ}uî©k:™àaõ<Üûòçù¹» ¯ÿ ”¤iİöÎÕÿç›ÜIyğY—t
‰Óº>˜ÿ«ÿÏ/Ïİˆ=ù¬+:¾ìyİ~Q—ÿßß:õ?6àr» GŸs=G—6°—W—¯¸éÿq“?ÜåÿX€Ûşñ'»œ“HšØË·Ï¸Ëÿï—Ë¥›ÿuöÑ¿2V€œ™½\»zèÏÿï}ıû' ÿ’föÒ· 7ı'êß?èßBÖĞ 'ÿ@}ı#äM­oúúæÿ½ ·ıóÎ~£:YSyc»íÿòñÄßíßóyŸşq2ç6Şÿ2¿Ûßçÿ›eÎ­÷3€î÷şôÏ”;¸¾'€NÿÑüú·–;¸á'€¯-êŸ{úO…¹ZKÜtÿñüú7–=ºÛşık¥®q?ı±Múì:ı/G|üöj,vúïIşìºıï`ÿı{5V0¼­ı/õÿëzµV0¼Éşp)ï_V«¹üÙõô¿,êßù@¿ú¹Eúì~Íé?º ¯¯/í_S*Döè^½lêÿtÇ_şX/ytoîóÏ_€ûúéO 5¡b¤îS_ÿK·ßôÅO¨È&spŸzş_uûß/ÀP~ıWËÜ§şü—K·wógıÑç7¹}‚%ÎíËPşş—¡ú—î¯ ¦>1N‚´±]YÒÿjnëçüÇşî%uÉ’5¶kCùûûl@'ş«ŠşÑ=²%íÖ@şûO ¿õä¯èX¢FÎØ:òßàU÷3ı¡W%œ;:F„©İêß]€ûOóooÛ?¡F¾ğ©õÈÓÿ>~§ÿ¯Û?,}æ¤ É¢§ÖoFÿ©úo'OìŸÔ#[ğÔL÷Ÿªÿqğ´şI9ÒÅNmÈ@şÎšzô¿ÊÉŸ£@èØ]å¿ğ}ş·×öOÌ‘.pl#>ów§|—ÿã”wO Wo§şƒñ¿ûÒK÷Ùÿë”cıƒ¥É•7Èk¯ù{^<”ÿ®ŞIó‹äÊ›dgª}/Ê_×?;Gº´IvÆÚÿòüwŸ &ôäÒ&y;Õá×ôµ¯”´QÎséÍ¯˜´QÎrÿè¿zyÁ¡ó{dk1¥«ŸçØxO×ùï^ŞöĞ³EÉÔ`J/Íà»ÏËÛz–ª(‰Lé¥Õ|åï}Å¯FÇ] :N†ÍCziŞ¿ÿ¿sl¹ó5ªÛdØ<¤—V0ü¯r¢¿É?¤ºMŠ­Cziµ ú×Ø6£nşõ0˜¿ªu˜,›†tßå?üG6#Tu—4fÔ:¿şÖÏ(#¿şñV¨ÙGı«­Qëşc¯]yÏ«UI·|DŸü½ví]¯U£ÀÂ	µË?Q¸¢u‹K&Ôìsÿ_úïÈÜµÌ?¡ u…Z3”˜_ÿ|SóéÉ¯ÿ¹Œ'5¿şU†¦Ó—ÿTı«¿ıÃÉÍ¯¥Ñ$?üóûWÏ|gºƒÑÿ±½õ|w®7ÿ‰úWÏwïöİóO4Vw÷Îİ¿zºûwêşÕÃ= ı[qÿ‰wµí Õ³=‚ìü·ı§Ş—şÑJûO¾¯MG©í!TöŸ~g[R=ÙcØ{ÿÕg©ìAdç¿ê?ã½­?Lõ\¢¾ÿØ»[{šê©Çşû¯8NõP¤¬ÿœ÷¶î<Õ#=”ô_v êÌú/8Rõ8çıçªz˜GtŒşsU=Éƒ:Hÿ«ÿÎPï'xlùıŸ~mëOK© ôßŸƒô¯Óy%.ÀúşÕC:³ì'€yıåOÓõşúWèì:£î8ëF›úËŸëfĞÓõgÜj°ÿÓÂşEyd3êÏ¼õxÿÁP¿Ö‚úc·^İÿ"~­™åûn>²wı é"±°ÈÍ§`¢ô¥1Ë† sû÷Ş2àRÈ6Öü«Íê“ÓÆpÿÏè½]í¡ij´ß­
ÏJ{CO İ/íÔ?©şÕÇ"KÿTŸŠ4ú?:ŸŞ=:õ                                                                                                                                                                               8_ß>ÿ¡úH$ù5¬úhÜ{ºÒàîFêÛİyº³íş&ë[ø*}ŸÛÌËo*õ5o´òÛ€3ê¯Ş€eù-@™ùW,ÀÒø`™_Ÿ_Io¹“Ùù—.Àšú6`®6ƒ[é¬Ío¦µšİÒüóW`}}0¥ÙìÖäŸ· ÛòÛ€í†·.ÿœØœßh8¿µù'à÷-,€èÑp~ëó.ÀÇ-Z,€èj9¾˜ş_7± Íµß–şƒğ}‹&ı-À•¶ãÛ”¿nnĞ¦¿øÒvzó÷-@H~ğ¡íğ6ç¿[€ÛW6Ìo^5^óşù-@óo¦7Èÿ4|oíÂ^Äi<»ù¿ ¼~ÿE<’Æ£kØÿî¥­ŠO_Åãh=¹6ı{4Š=ó2FãÁ1ÿ#/@ëÁ±~ßu<ˆæs;dı‡í0·Æï¿Ó‹[ãúMN¹êBN.hlëgå°ˆ›ZËö-ºâRN+pfmëgæœş‘3kZ?5ÿÃ,@ƒIİ…ú¢ÿÎµT¬7³ßŞe‹³.P‘#[“A=\/›ú_½yËÃ.PĞ#Y›9æÛüƒ¿7÷Õæ°”eÉÒhNÓàµ  fsšñ^SıûãÛãÎWÛ'XÃ9Õ\ÿ~iw¶Ú@¡¦µ´ô`ş»:ğ´ÊB‘ÂÖ&w"O<ª0Q¤Ğ‰µÈß¹—Ø#^Ílá³Àó›N~ıÃäLnaşßp{Ê}ô?á¤naÿî9oû§º£¢P¨Ìáé¿;éœ¨ÿûHù~ø:ªşí•Ìp,ş—Ÿ?»psË’ƒËßÈ’ü_°‹ ‘âÍğWÿwŞô³ÏÇqwğø×¿İgçÿ\€ë[û4ªfø1ÈÏîWOıù{ ê}U3ü˜äıGı¡ü=O e§>ª~Nò®ÿpşİ| ¨)£f‚ßºıGòïæ	 (U„š^Ñ¿TÍ ¯¬èßüO|.U“*DÍ ¯<uà ı‹R…(àı•ÌïVç	`ÿı«ZE¨˜_ÇÓí,ë_± e±Ú+˜Ş½ƒõ/‹Õ^şğúè_%x}.Kû?Uö¯«Õ\úìúmêŸ½ uµÚKİÎ¯óOö*ì_X«½ÜÑºÜ.ÀÂş©PY«¹ÌÁ¹şÍŞWãıŸºrz"™ƒqéö^€KßŒåõ<ç6êõ,·ıG~şë>âÔµŠ6¶	¯géôüùÏ¾üiıËJÅÈÛ”×³Üô|}AoşN÷KîÔÖj/gj“ŞÎrÿ ¬õWdòÎy")C›áí0½ÏëÃ>¯!±Y§(C›áı0ëò'ö/Š(ah3|fMş_ßÿæ(ë˜g>³9>Î²¸şÇ›gõ¯«'zfs|eaşï;Èé_)PğÌæø:Ëªÿ«ŒşUb…lñ\‡{wãß<á@A››ïû83úwï_Ñ&CÜÄù<Îwä‰ş·î_'AØÄú8Îmäáè¾yğ€’4)‚¶Üûq:OòƒĞ}ëØş5iRÄl·ãtú_úV ïÔ‘ıKº¤‰˜Ø:¯§¹ï¿ }‡~
[€’(‰šl½KoÿKÏ¿¾Û¨şùA’µØ—¡ş—KçGCîß6è	 5E‰¶óÚfFÿ¡3ÇôÏMQ£éÀ¶¹ûù¯+ıC 7D‘†óÚjäá?ıßzjß?5C™vóÚlı‡ÿW­ûçf¨Ól`ÛÍ{ú]€fgÉLPªÉ´^^ZÜË¶ş¿|ô_¥Á¬^vÑ¿±Ì¥¶êåMƒ‰ï«¿˜ç%´ÿ¯o5xW³¤‡¨²iJqıû_ÓàÍT•#İ–!½4ë?ò(¿zÍö÷³àDbıˆ^^š-ÀÈĞıû5›ßË¢=Œµz‰éß}Õ×k6¿“e'zëôòÒr>+/yM¨ê(™ÖÌçå¥åŒ|¿õ7wçª’iñp^îlõÓ“şµ–æ¾ş¦xÒ¿Ü‚ÁôÖË_Õ¿:Hº¹ƒéÏ¯ÿñÍK`ÿ±W¯¿ÿuªcT˜5ıOlzÍóOıü^MÿºåŞ¯şm=£ˆë?şêï`’ÉAXÿ•¯R=æİjßâ§÷ôß•öù'~z¯¤õ”÷+¢ÿ(ıwEÿÇ–_ÿ}yˆşÕCŞ3ıÛô¯ñ®%çÏûÏßªG¼kçï_=áKîŸş z¾{wòşÕãİ¿S÷¯îœ¸õhá¬ı«çz§ì_=Ô#Éïï¿ñ³+§û@õ@çT ª‡yPoõ£5;ºõ/,Í›ØşÕ³;… 6ïB?¨Ü9„¤ùÙ¿zpgÑæKXÿê©Hû8ß‚ ªGv.ãÜé_=°³Y0ø¥©" ªÇu>¿°UûşÕ³:§“_–kUÿÏ÷òñî.W/'ÊÌü`qÿÂ	p•`,KTÿŠKfÜ@–…ıGàãÎ’/‹.€üÙ4è_}	l±µõùÙjKÿê³ÓÆÊşÕÇ¦¡åı«OL ÉşÕ$Åuÿ'íÓmÿêÓí»õI(ñÑ¿úT‘ÿÁÉ                                                                                                                                                                                                      pÿüV}êücšşN                                                                                                                                                                                                                                                             úüóÏ?ÕG şM                                                                                                                                                                                                                                                              ëŸş©>…ôlú                                               Àÿgïn“ÛFºrÒ.a«ìrUm£{şõş—2&%QøH 	 3/HœÓoI•¼Ïå‡dY                                                                                                                                                                                                           çŸ®èÃĞÚ?ÿX€ûGÿsú÷ß¯ÿGÿsú÷ß÷¸‡ÿûoùOä³ÿåï÷øï¢OE+ïıÿŠ>­$ó[€3Iä· ç‘ÌoNc¢¿8‰©şà&óë
úŸÛtpúŸœşç¦ÿ¹y89ıONş“Óÿäô?9ùÏNş““ÿäÔ?=ñ                                                                                                                                                                                                                          Büî‹>-ıN‰>$ëÛ€ÃzıTäÚ&ë[€#zÚwusõmÀÑŒâïİ¥üà8¦âo^åøà0æëoØ€¼úà–ó¯Ü€ìü ^Vı5°¢¾—aî—X—_ÿX+òÏnÀıı+ó[€PëòO/Àıİ«óÛ€8këO-À×{·ä·A6äOöÿzïÆü Â–ü‰è¾ssĞÜ¶ü£(”ß4¶5zïØ•ß4µ=wJÖ· íÉÿšº’õ-@3»ò.@ñú ‘ù_‡WR,¿hboÿ×ŞUlı¦ˆ²¿wŠæ·õíÎß[…âı-À‚½3+Z¿|~0gÿÔŸßL)2µãç· ieÆö ùõO(4·‚õëõ· #¥æöù-ÀĞªÁ}+Ø¿b~Ğ·nrİûèĞƒä· ]+'7nõEÿ´rt©ZŸ%¿ø²vrÅnJõ¯Q| nàÇ²atÓğ@ı-À»-£›\€Bù›ô· 7{Æ7Ú€BıF^¸§·o~Ãx¨üúïuá?ïoÜÿìPf‚Åû8ÖŠãŸV©–Î¯EgX´¹“åş”
±`ÿ¢'Ë8úÕ˜b¡üûŸrêQÿPu‹…ÿ¹ê§ß¿Êár~µç¸Ô~´ k~÷?_ÿúƒÜ”?¬ÿÉ Å óë¥Í$“ù/Ÿñÿ¾ëLÿšr\ÿrÄl@Xÿ-@»Ië_ëw@ÿê2™ÿ2Îÿµ ú×Ör–Éş©ü÷Ğ¿¶¦³ÌÎ¯#mg™ùèÿµ —mrÊ‰3?µÆÃÕŸÌ¯‡¹¢ÿßĞ¿’ÖÃ\İÿã#Z3qä§Ö|šúIûinì° Ích?Mı$`œúGÄ8³¿ü×¿ºˆq®í¿|ÓÃvüÄ"Æ™ÿ`ÿâú3Î­ı[/@û­ÅÌ3÷ aı‹šg7éÇ¤ó¿÷iÍó5g†íõ/®ñ8'ÿ.ĞíóõC¾W¦¶Óü=ÙÿËÔ}?æÏ Bã4Ğvš¿3úOü®˜KHÿ¸0m4fw¢sıSûğõ1§}ZM‡Ùèêø_pÚ§Õr–½‘.<Ú§êôo£µ†£Ì4™xø»#‡^/@ãí5›äh¨ıüİ÷'ú~”ş…5›äh¨şã‹$;w>ªÍAŸ?`ÿËLştÿÎ´8æò ò"Sïjúsà¡ai1Ç‰¹Îİ“'ß×°h—VÌqj°‹ıÓÜjB³4S}ŒÓ“İÖâ¥Aq¡UÚ©=Æ™Ñîë_yB£4TwŠ³³İØÿsª=´IK5‡8?ÜÙ{qFÿš ±MZª8Ä…ñÎ6\~gÍşÁMZª7Ä¥ùnï_y‚‹´Ui†Ë^~ø_ì_g¢‹´Ue„9#>fÿèÍ•aæ”3á§¯ ÎD·ˆPv‚+&]¤Áˆ¤Ü WÚñòïw€èAÊp¥}ı‹	İ!J±®µ³ÿâSÄJÑ¢àZ{ûg]&_t‡(Å¸ÖîşeEwˆÒtÈ]úBÓ!wéM‡Ü¥ÿ14r‡şÇĞtÊ_æ¿|Ó¿™¦Sş¢ÿQ4óİÁúGGˆÔrÎwó…õo¨åœ¿,ÿù^»³œ»Ü×€“Z÷.¬á¤óèßTÃIçÑ¿­†£Î¢cg£qÿèé@»açĞ¿¹vÓÎ {íÆ½¬mÿèÉE³/Ò?D³‰/iÚ?zêGÒjæZöùÑ4û,ıc5ı¤†ı£G}XmÆŸÖ®ô”¯I…¡fı£§ûZ„èkÕ?z²£AŒFı£‡úhêùĞ¦ô8Oõ$ZôåCªÜäSƒşÑ“|P¹£İ§vÿè)>°Ã]ß§nÿ€©=‘õÓ]_¨bÿö{:kÇ»>R•ş­Çô¼ÖÎxuª
ıÛNèé­šñêXÅû·Íidxu®Òı›„¤ĞşÑ7ÕP®ôçfKÿİ}£ùÒ¼ô¦¯]ÿè[JJ£şÑ7“)ë@ùgR«ôí"OşÑ7=V÷-@ô-`ıÏMÿ“[» ò?ıONÿ“ÛÑ?úè±µô¹)DÿÓÛĞ?úÈÔ7Ó?úh´0Ù?ú`´1Ñ?úX4“è}$Z½Œ>­‰                                                                                                                                                                                <¶ß#Ñ'"áuÚ«×·4S×¤óÛC™¿gfòÛ€£ÈÈ¿qæó[€#È«Ÿ·ÃK-õ·áòó/.ÀèbËù-@°5ù`t©œü Ôºüs¸T^gmşÉH]&7¿ˆ²>zÒÉïoBlÉŸê?¸ÀŠî Ò¦ş£è¿wK|ıClË?X€Á»6æ· ímÍß]€Rõ-@sÛó¿¦¯bÕ>mGÿ×Ô5ìÍoÚÚİø–½ù-@K{òßr×a~ĞĞŞş5òÛ€vvöÔ/•ß4²/wnÊå· yvî¸ù-À¢ı³;r~0+cv_e¦”¬_>¿˜”3¼~¤’ùkô· Iy³+Ù¿F~’9ºÄ]tèğùõË]¢ÒÀñû[€UÃ[Ú€rı+ÕÿmúV/uOíx„ş cÃøæV Xşšı-Àİ¦ñ%{½+Ö¿pñ€IÒÖùM.Àƒô· ïvL0½Òß\íajJõ/yNÔÌd÷Ç ÿã(1Åa·ÇéoÊŒ±_îúŸ}J±×NÿGQnšó7éî(:É‡Ìê(<É5‰ÿy—|®¨sº)¡BUæªø·o@Åã%E&Uc˜«â¿/ÀÄ/øhÖÿ¤Pk˜ù/ãş7ıÏ¹ Õ†¹*ÿÌÔ:`âÈ'Tqš3ùÿî?úõN8>òéTædıçúÃgÍ#O|6•Ç9UÿOÿëüİÑ9Ôà î'>™ÊÓL>óöÿ{à~(ı[©>ÎqıËgÿaşÉ¨}Èş‰Ï¤Á8‡ñïÆù¿@ÿ6ZÌs¢*ÿxZ²sŞi2Ï5ùï mº¥ošó~Üóh5ĞDÿ©üÉ€6çü:ïI4¨ş‡Ôn úPË®ï	ë’h:Pı§í@õ?˜ÆÍşúOÿ6ZOTÿCi>Qı¥ùDæû§èßx¢+^ ¼¿óë[ÆeşÉ‡•‡}z'šßÿı}¯úWÕx Éï Ìüùÿ«şu5hö· ßßñª]çù»Û¿ûÛ’ù_‡ô/­ñ<÷ú÷~9ÌÒ_ÿÏów¿ÿŸõû;ıƒßİ_áÏÿÊj;ÎÏ™ïØ£W„ı/û¾şwó³>·¶ãüêTÿô¯ìÿgÛ“>»–ÓüšêdÿÏ½©óß-úôÚ³;Öéşãß÷qĞ€şqUši6Ëş\gú§ş×Û1›/@h˜Fr4ØÙûûàÕú °J;M&™˜ìğ~(èXÓ­ÒNıA¦g;z|_ÎßtB£4T{SÃí´ÿ8Ärşvıƒ4VwÓãíöÿxëbşVÙ£µŠcœpï±ÿËRàÊš"D)æŒù«ÿ]Ku«,@l‚På†¸nŞ_/şï[Š[¶ğôã•â¦©ö¾/¿¿( Ä7}kÿÂ<şpF¸mèıGï[Nk
*0Ám3Ÿêßz¢Û?À3_è?÷áú—³€G¾ãş_ök€à Ñ
LpÓÄ÷ôÿ­1&¸iâïıïÍ*«)&¸iâûúg¼JXušó*1Â-ŸìWî½æ8çÕlĞıëÍİŸ·şGÑlÒ½yëÍ&İ·ş‡ÑlÔİqëÍFİ¶şÇÑlÖaëÍfíşLÍ†ıÛëÿCj6íûÄõ?”fã¾|ªqãşÁs?ŠVãşúä;İı#4øçÔ§Şåş£ÕÀ?Æ>ù¶ı£§~$F¾Äİ?J«¡ÏrÿÓhè³ôÔhì3šö÷ñ´™ûıƒµ™ü$ıÃµ™ıù M€„–÷ÿè!?šMöçÃi¥]ÿèi> Uô?°Uš½ş‹åCªŸ¥Õı?z’ªz—Fı£çø°j‡iÓ?zŠ«r˜6ı£‡øÈê–iòú/z„­n›ú÷ÿèù=¾Šqê÷Ş3¨W§vÿèÉ=‰Zyj÷Ûó¨¨nÿè¡=•:‰j¾şØ³©Ñ¨Şı?zZÏ¨|¥jı£Gõ¤JgªÕ?zNÏ«l§:ı£gôÜJ–ªÑ?z>gpŸõÎVåûGOæ„vÔ*Ü?zgß?z¬^‚‚ı£o:ŸZ÷¾½$4ê}3™U±ôM#KVÿU}‹X«HÿèÁ[ úÜ´²ôq©!Ù_ıóÈ»ÿGŸ’j²îÿÑ‡¤¢åûô	i$İ?úT´òğª úP´óÑ¿³Ñ'¢­×è                                                                                                                                                                                ğ»#ú,4õ;%úP4‘loÎa.¾xrñ­ÀÓÊ®oå5eõµ¬Êo"ı
¬¬oa¦şªØß„[ªŸ½ ›òÛ€`ùó6`k~(¯~Îüéøçbà‘d×_^€[}ğPÖä_X€ßŸ—ÚÖßX—v¾.´±¿hnmş™ØŸß´¶>ÿÔt.°=¿hlKÿä”©oÚÚ”?± Åê[€–6æ-@Áú Íù_'®§H~ı[ÙŞÿ5y-eò[€FväM\K©ú ‘=ı_G×Q0¿şMìêÿ:¸Š’ù-@ûò¿ö¯¢l~ı3ìÖÎş]…ëë¿¤ÄÄ[ßÌ*3³Cç×RöÔîÒ×sèüúOÉ[·QêŠ_ÿ´“†^Õ±û[€”5£K´ê]×±óëŸ°jvé^_Wvìü`lİğ&›}\ÛÁóë?´vzP ÿ¿ì‘uèØ8¿É8zĞ³}~P ùæ©ósµk€Zëj÷õdEFøXùÇç?±íìÏòÁúÛ€w§ù`ı-ÀUÑy>Tşß6 hşßÅ6 îÿıŸZyfôıçKú“ŠŸkîÀ§Ui “÷ê«ºñoı¯—¬r°ÉóTÍÎôºŸ'¨ÿI ò@³óõ· 5è8ÿlÿz?òŸyŞÓh4ĞAşÿ¸gÿûİ?ıƒéßB«‰&úÿÛÓ;YLÿ“-@³‰Nôÿ»¯w6P]»ıoı/ÃüıĞ¿¶†Möçï.@Pÿó,@Ë‰^ıÿ‘ÊßY ıëj:ÑDÿtşñ@»sŞO{mGšßô Ğò §=ƒ¶÷ŸÊ¯'ªÿ±´©şÇÒz¤ÔÿĞ|¢úJó‰ê(ÍGªÿ‘´é}ÿGÿ#Õÿ@F:îŸ^€Î)õ¯%`¤‰ş©èòUÿJÚO4İ?± wê_Kû‰ö¾Ü=ÊÒ“DÿÖ9šk>Ñ‰?¼YÊ¯qÍ':ü«@½ÓL~áµ ­s4×z ¿G¬Nı×”æg}rçù>ÓqÖÑ¹’ñ›/@@Æšós¦“q3´>ë“k:ÎûLe¢ëÔ×rš_3İÓ¿áDÇi İ0»CİĞ\ÿ*Ú³;ÓuíßOÙ~‚Ó4Ñj–ı¡~„¼,nBçÓo­}Òg×f”Ã©Şû_ß’Uÿwû.ÓF“I†úÙ?u‰éÄmûÇvi¦Å(GSË8ó¾–[¥ú“LLucÿßíú‡6i©ú$Scİİ¿ö„&iªò ÓcÍi<ûÎÊ¤µªƒœëæşm °F{ç89ÚœÄ³ï¬º ±=Z«6Æ™énï_¢{4WgŒsÎº‹O}tåˆ®Ñ^).(Ô¿üD·ˆP|ˆËöô¯· Ñ!‚a]ıë<DWTnˆ¹öõ/ÿE`tX…†¸ÂÎşE¿=ıx†¸ÒŞşß$Ê=úcØ;ÅÕv÷ÿ]èî=ùcØ=Æµö÷/$zòÑdÖ‡éoŞµöşÓfØwúM›iÒÿpÚŒûİüWoú‡h3ï«…ïŞè£ÍÀëTm&®ÿaµ¹şÇÕdæúW‹™¨ô¸¨şĞõ?¶ÚC×ÿàjO}¾°şñ*}6pÃşÑc>®ÓŸ ÿ´˜şı ÅøÓÚõñ¡5˜šşÇĞ @ÒüW‡EøèªHÓÿ(ªHkÔ?zº v‚´6ı£gû*7HÓÿ8*GHjÒ?z°¢n…¤/ £Çú@jfHjĞ?z¦¥b‡¤úı£'úhê•Hªİ?zœ§ZŠ¤Êı£‡ùjÅH¨üø=É‡U©ÇHİşÑS|hu’Tí=ÁÇW%K×ÂÏ‡î=¼'Q¡Ì—×j=¶çQºLWµşÑC{&…ÓtUê=±'S´MOşÑÓzBåâ”î=¨§U&ÏH~ÿèœ]íşs}Û¹
ê}³ùÒ¾ô-fh§nÿèË’ªı£oË*ö¾iä¨Õ?úv‘©Nÿè[E¶
ı£okÈßí}sX«\ÿè[Â&ûûGßöÑÿäô?;ıOoMıË«şÏ(³şEÿ§•S_ÿ§¶ÿ¢ÿÓ›i¥ÿ¹énúŸœü\ä                                                                                                                                                                            à™üNˆ>¤â[ğz·ı:n¯WaËëÀ¦+ù}Ï?½ Vàh†é·î@·şìØ€™¬¿vù-À#˜­¿f~òÏõ·Ç°˜?wÆõú[€#ÈèŸµ ëó[€ÈÉŸ³‰ú‹ù-@¸Ìü‹¨Ÿ‘ßDËî¿° ãúyù-@¨üüó°¹¾µªÿôìÉoâ¬Ë?¹ »êëgmÿäŒ/µ.¿ˆ²:ªÿîú Èúüã_bC~ıCléÿºp[ê[€›ò¿Î_ÃÆüúØÖÿuú
¶Æ· 6æüø=ùõonkÿ×‰ß•ß´¶9ÿkâÃw¶×¿½}ı‹ç· mmÏÿ:úè"ùõojWÿù-Àz‰±İï¢vô¯_ÿu&f×»›Î8`~mzzãBék8b~ıóÌÍ/Ñ(yeòÏü=OPÉü “•Æ
å×¿¹…	N…8f~°hq‚“­zôHY3œÎõ¥Lşòı-Àœü.t+Ô¿|~ıç¬b‰Äíû[€i+gX½üúOZ?Äºùëô· 6ññòë?aã«å¯Õß$ì˜å£å×hï@¬¿è)1ÑPâ\¢G~åFZ¼¹£%DÏı
Ï´ğ>İ@ôìãUêõ?ûTšêšÀ_8T:á—è‘ªuEşOQıÏ» 5‡º:ÿebjòST€X•‡º:ÿUHşs.@õ¡.•ÏúÁê§|×|úÑZuùÿ÷İı`ƒ‹µ8çUP†(­†:›ÿïûÙô¯®İT³îüƒˆèªh6ÔôO½¿q”?ùĞú¨gĞn¦Éúx[¢ÿ×\Ú÷?Ï4œéøàó©ü‰G€ög}z-G:üá¯S¤û ùQŸ^Ë‰şî÷ïc¢ÿğE`û³>¹¦ıêƒô?Ã´èÇPWôÿ\ ı«h;ÏÏ¡ŸşÙÿù ñ<?†ªÿA4ççP¦ÿ³/@ëq~5ÿë?ı«j=Î¡¿ı“Û?äËÕ§Õx˜_C]± ïêÿÜĞz˜÷¡æ÷ÿ|·ş´æ}¨¯ãÈìï	  Æ³ì5wîGêÿÔĞz–™`6ÿ×—Œg}V­GÙékÎ|õëÂg}V­GÙêëx–üõ/«õ({C}M,Àe9¿şå´eo¨¯É¸ë¿õYµe¨©Xüg>õ/¨õ(ûC•M½-~‚ÕÔx’ƒ¡&ÒæıÒ¨öG}Rm9jVëNõ ˆTQÓ9†º®şïÎßl}ÒgÕrã©~Ä\ñœ± Ñjj8ÆÄT?û/-@çÃ’o¬ÒgÕlˆÉ©~öŸı‹áƒk¾ Ñ‰êj4ÄôX»!3ó·_€èBuµ™áÄXóú7~¨²&3œšëÒ#üDä–İ§¶#œìÆş- ºOmõ'8=Øß“ú·{§¾Êœ™ìïéş¿¿§?ºÑDÇi êüæ&»x¡o‹ˆNÓD½ñ-ÚÓ¿Ák€è2T›ß¢]ık?Dgi¦Êô²ä½Ä[üğ
+İ¤¥Â£Ë—ù
où
Š-@tŠEF·Áîş ºA¤}“Ûnÿb ÔÁíQ ÿâ7Š2E'ˆµgr;,tËìªÿn{&·İR·Ü®%ÿ£Û5»­Jõ¿ä¾³D¶oxÛ,>n—yaŸ':@´3XÌ«C-†Ü§ÿ‘´rßr]ıj1åı¥Å”»2İõo©Å˜;ô?šs¾Ëù®şmµô§œ÷ú·ÕbĞŸô? “~—õµ½ş­µõMÎÓÃşÑs?Œ³¾YÓß_òi©ş°çşè®şêOûpı£G~,ÕÇ­ÿÁUxVşfı£Ç}@•'W¶QÿèYSİ™g…Õ?Tå±/kÓ?zÌVwğ‹ò^%ì=ãc«9ùE-úGøø*AƒşÑÃ}õ
Ì¨ß?z¬¥Z†	ÕûGôÁÔÊ0¥vÿèy>œJ¦ä}—x«èa>¤Å©ş÷ßÅ
Uí=Éµ0Õÿ>IT±ô×ìXÿ{ŒşÑ3|l“cıï¿Gè=¾'œëÿ=BÿèÑ=‹ÁXÿ(Òªxÿè¡=›Ï¡ë²ô°Ø¸‘(Ø?zBÏ­z¿İçĞı,Àk™şÑÃ9ÃöÌI¤úï_€=ı£'r2ÉØûÇEëúGàÔÒıwşaFÿèÛÍ‡tşİıÇWsKIZÈÙ°Ãşİëh}óX²”ıôú7¿=¬´”ÿ²rºù_ÛŞ6Y¨£?y[ ÿsÓÿìô?;ıÏNÿ³Óÿìô?9ıÏn¡ôñ¨¯_ÿrÑÿÜô?9ıONÿ³“ÿää?9ù                                                                                                                                                                                                                                                                                                                                                                                                                                                                Ü·wÑÇ Ä·/ÑG¡½oß,À™éjß¾Y€S“ÿÜzı½‹>ó[€sÖ· §ôËœ›ü§ôóçğ-òŸÇÏ«èCåçOpb©üßßˆ¦ù¿÷Ä‹V:õ¿‹ÖÆù-À‰¤ò[€óH÷· g¡ÿ©Mä×ÿ$¦ú[€sĞÿÜô?µÉüúŸ‚şç&ÿ¹érúŸ›üç&ÿÉÉrİìïÿsq¯?=ñ                                                                                                                                                                                                                            ®	Ñg¢•T}pSõmÀ)Ìå· Oo>¿xnKõ-À3Ë¨oJ:ÖPóòã¬Ï ÌT_úJÇTVf¬/	¥Î£E…æšê¿iVä· ûšëDşõ°*¿Ø«Ô\§û¯Z‚•õ-ÀNÅÆºĞ?sÖç×—bs-ÒC~°G¹±.öÏX€Mù-ÀeÆúíjy7@ÿÆŠŒõÛ·ÜşK°1¿Ø¬ÄT¿İíİ€Íı-ÀFeû[³
+c*(1Ódş-°'¿ş›ÔìŸ±kc*(0Ó¹üK°æ,ú—W`¦ùV`Ía,@qûGš‘?³ÿŞü`½çêoVÚ?ÑœüúÕş™fõŸY€•‡± %íj^~ıiÿXö/‘ß¬²{®™ùg`ËYô/d÷dËõ/”ß¬±{²Ùı'`ÓIô/b÷hóó/ô/—ßä*0Úı§`ëQ,À>E&»¦ÿÄl>‹ş;íšü?ºç4™§d`×dß:WT¦¹ğ_§dÒ®Ñ¾İ|^ÕªüS=´Pô®¸áŞÎÉ¾½u7`]şäÔÈ¯ÿ”ı£í-@~ı¿n—oÕß¤˜ì†ş.ø×_·h•_ÿ”"“}ë.À\óî#ÿ_½/@³ş`¤Ğ`³ú_ß÷ëö¿~ıúuıûÿhjå×¨Ô`ßº0ÿçm~½»|>ÿ·ëoúŠÍ5£ÿŸwüüy]€ë9~é¡Ü\ßº0ÕÿçÏÛŒWàºmú[€®rcÍèÿg>ò_¾/@íoş|
ù‘œê[æ\®ñï"ú[€O%‡š×ÿ[¯~o^šõ· ïŠÎ´ßú`˜ÿ¾½üuû[€›¢#}Ëz HåÿşıÒº¿¸”qVÿtş÷G€nıêı-@Hÿoı¿7ïo
Ïó-k¦úoŞÿìPxšÃüéş“ùúŸ|
ó-k²úWùÑ¿”à¡
òmÜ?µ Óı‡ …Ï—› TáIêÿXJ2‘?µ ëŞ(=ÇdÿÑŒ¿ù«ˆâcœèä?Zÿ³.@é)ŸşSpûÏ™ş—nÿÂœ>ù)â¨ê)àöŸSù/ı›)>ÃDÿ·ñ‚ßş{²Ë?şéı|*Ì0½ ı/?şJÿbÿ
Gœ=ûéTâDÿÎÜ¿³›\€‹şÍT˜âdş÷è}g?µ İµ|ø×¿Ğgàmp×¾Œàú¶§ı™ëÿÖıÉîÏCôãGå?cÿ*sœïŸZ€—Şªœ0­ñì Î g ùĞ–ÿ„ıkM2F;ğ¢;ÕF9¿ //S0|Gµ¦ÄuˆRm”ëú.ÀøÍÕ˜Z"F½anY€ñ[ë/!¸E„zÃœï?^€—†¿ö#-ºE„ŠãœïŸñ¯€7Î¯Y Ë }5:,ŞÏÄ/úì¨y¶±è1jNtªşûû®Ÿ]şh5G:]ÿöŞë§Ÿyğ÷Ú¯…š3Íÿ1òÉúò7Qs¨óù?‡>‘ß7~š¨9Õ…üÓPû`ésœSÅ±föO}××ú·Rq°Kù»£ë5øƒ¨8ÙÅüİÙG½ú‹šûQTírÿ‰¨{¬©œT½Ù.çï_ÿõf»œ?¼ÌÈ¥Şpõ‡»”ÿÇ×'¿è¤êp×\\ÿ‡»êòíûGOş*NwÕåõRoº«.ÿÕ¿Ò†¢ç~ÕÆ»îò÷şu3=÷Ã¨5Şu—i½ Ñc?:ã]yyıãTïÚhÜ?zæGÒfâôÓfäóÚöø±4ùı5™ù¼¦ı£ç}8-†>OÿP-¦>«eÿèaQƒ±ÏjØ?zÔÇTî³ÚõôQUü¬Âı—şæce&¿QÑşÓû zÆ‡Vbô[•ì?ù—Ïß–gpn†¿Q¹? şê‰è]‰”›,÷_ø+åãKÉ¿E…¶Y–úO>¨O]Dÿê5³®rô/§fê¤µı Ius¬yş×¿•ªÉ{ôæ«šşfÕ [úGğ±UmS¯ÿEüİª¦¿Ùÿ€Ô}^ùBje¿Ëé?ğk*İ{hÿw€Õ¯ªdì„¢ı£gõ”JÖN(Ø?zRÏªdî‘½ıÕ¯¯hğBı£GôÜŠïÛÙÿz:ñ«+Û¼k_ÿè¹œGáìw{úGÏäTŠ—·©ô,Îéı£‡pjåó_rûGßtnZö¾­L(˜ºôd«5ù§~lôm`—mıy¹ùõVyùõZëòëÿ|ëş(üg7Sß£ÿILÔw÷?;ùÏMÿ““ÿää?;õ                                                                                                                                                                                   €ƒùÑ}Úú1}"Ú×·ç‘®oNb:¿8¹ü6àé-ä·Ïm9¿xb9ù-ÀA}KXwyùmÀ!¥ò¯Üìşàp&óç/@~~p43ùs`M~p,³ù«ô· 2Ÿ?oVæ· íéRÿ—Yg° íjfı¡éCX€vöOucşşléoöÛ?ÕÜÿÙØ”ßì¶ª»òß`c°Ïî¡.ÕÏì¿9¿ØeïP—ó/õ™=‡¨jïT3òg= ìÉo¶Ú;Õ¬ú9÷ÿ}ùõßd÷\óò7èo6Ø=×Bù_öç· ëíŸk±»ÿşü`¥sÍÌ¿Ü¿D~ıW)0Ø¥ìÿ“¹ eîş`ƒ]ªÿ?ÿó¿W‹ıKå· ùövñÎßí¿ğç?¥ú[€Lûçš“¿Óz6œÆì´®Yù»ıç~ @ÿ¶
6§~¿ÿÄl<Ø®À`óò¿›í¿ı<`£ƒ]‘¿óö6ı-À¼sİ”?¹ »N´xNFŠvõcÿäì;ÑÒ9)2×ùõWf°ûÓı÷hé ”ëÆüÍú[€	…Æº1ÿ¨#-œ”BS]®Ë?ºôeT¿VRl¨Ëwş?úuu»ø_Ÿ7î_¢õüY¹+6ÔŒü¿>ıÉÿ×ç4ìoF
Ît>§şıu_€fÿ½ÃrSh¤o×ÿoö©ÿòëçÏÁ|<4íoúJLôíİe)ÿ`>Ÿ
Úö· ]%úv7óÔË]€Kÿyà–ÏÿW±?–ó|K,ÀğË¾?Íoù?>í¯ïß¿ë¯È<ÇıG_õßîò?~|ÖïŸPîXÓâæ}0eÆù6\€qşû—ıßÒ/ ÊœkRìĞ£Ğ8‡ıÇßñıÈ?Œu|Pò`“bÇ~¥¦ÙíI~Ãÿ½*ÿŸ¸è¢Ø4»ıßFıGìošæşOç¿-€şí›å(ÿÿê¿ÿ¹OòÙ?ª¿(7ÊQşÿû¿Aş÷?óÕÿHŠMrüà?Êë?•ÿº íûŸ}Êrá©_ÿ#*7ÇœüGìî(8ÆTşá_?¥şÇQrŒÉüƒ¸}ÒC½şÓ¿ÔÇıïŸcEÿÑ÷ÿ½ ¨ªèGùoß¾Ê|Ğ¿µ²S|ÕÿÜ€¬€K¢ÁÎü¤ÊN1ÿ¶ 9Ï ×·GÜıõ/cüØ?İ?± ×·†<üŸ·Ñ)Næ,ÀÇçNå×¿­’Cœ®Ÿ~ ¸Œâ_ôo¬àçò§^ŞtÊ_ùg÷¿ù²B»L¹Îæï= ú~z*~Äi§~Å8óÔ?ì?
|3ªßòá_ÿrò_†ù»Èïé¿ºRó[ªßı`ò1~úî¯E…Æ·œÿ½ÿeÜÿ£òôİßwë)3½şcÿ™ü7ÉÌı#Ş ÿêş/É7¶ûÖÿyóï ~ºï³&R§ó—8^†ÑBáò§ú>í8v`}ıw>ö_%ú'xÂxäÿ<ÍIí]*ÿ¸zæ³õåobïìõGı'Ç>Óï¹VˆNjïğşßÕ ÿ¬üÓµBtX{§÷Õ¿óÆ¼üSPàT+D¶w|÷ş·åæŸx
¿¡½óûèß{Ûšş©oì=Ó
Ñã·w€ïıûoËÎŸX€GZ#züá*Ì4ÿî?ê_éDsŸşä*uEşáÔ9ĞÜ'?»
S]ÛÿÒí_á<³Ÿûì*ŒuUÿş€ïú5W~®«ò ŠŸföóR¡ÿº»ÿà øif>+7¥'ûı£‡~ Åg».ÿ›€Å3õ)¹+?ŞUù# ¢G~,mf>£qÿèM“¡ÏåhÛ?zÜ‡ÓbèóôÔbèóôÔbèóš>Dûx}^ËşÑÃ> úC_ ¨úC_ ¬úS_ ¨úS_Ğî zÔÇT{êKôU{êKšõôQUûı£Uû‚ııóşÌ1zÊ¶uğeìêŸÿ3'ÑC>°-ƒ/§XÿÙˆñ¡mWH¹ş37$zÂ·9^åú¿MŞ’èùŞ€;•íŸ¼)ÁÃ};#îPºÿè¶„ÎõqH¹É®/ ß’Ğ½-‘#}0¥Š®S°ô ^ñ¸ô?–âìé?ñğÏ.åÏ*Ö?znÏ¥|è	Ûû»û×V!÷Èöşù««|`sÿëñÔ¯®Fó®­ı?Ï'~uUºÚØ?z&çR'ıÍ¶şÑ9Jõ7öÆ§ô$Îêı£§pfáı£pzı£o:ïšõ¾¡LĞÿôô¾‰,™ëš»"“ı£oyæºíèus(jcÿècSJvÿÎE£ÏLA™ù_¢ÏI-YùõbSù/úŸEª~ÿŒ>!µêëvúŸ›şç¦ÿÉÉnúŸœüg§>                                                                                                                                                                                   àÇPôhgß
œÈD}p
3õmÀó[ÈoÛb~ğÄ2êÛ€§•Yß<§üüàù¬©oéåİ¦]™ßÌK×ú_ßÊËHîG]ÿï†úà@Æõsvà~¡mùõ?Š©ü3[Ğ}ÿÆüà ò'v ÿ¾Íı-ÀääŸµ½¿ˆ™_ÿp¡ù-@¸ØüúÎob…ç×?ÒŞü[¿ócaÔóÛ·o©7×Ì¯ÿ{†Ùïşÿ]æ¤>¿hh×4wûìïêgß@çòkz÷· ›ì›èlş¬ş‹gĞ¿¦Œ™Ş3ôBóçôÏ9ƒ¨&c¨PKùõ?ºüü‰XÌŸÑ?ó †¬‘kİ-çÏX€ìcè_\ŞHG¹>dÔ_î¿â °Ü‘N,@NşÅXsPTşH—îÄsù¶`İA,@1ëfº7ÿä¬>‰şE¬êÎúS°å(`¿Sİ™?½ Ï² zºG·q¬ûò'`ÇifEOøĞ¶õímWş–ı-À´Í3}-@FôËe¡Áè]ÑS>¬í#}»»]QÎ]¾Á–ı-À„#íõÏŒß¹hú¯>5ßƒÛ3ÒŞÀBû_¿~?yËş açH³û_ó¿ûsÉ¿îŸ¾i0²w¢şü¿¾à¯¿î ¨İí<,=ïßûÿõ××´íoúö4«ÿŸÏôóçÏKêş?Z€"§š6éC*0Ğ·Œ'€Ë-ÿ}.İçÿÆı-@G‰yfô¿|äÿ³ IúÇ(2Ï¼ş—NşïWı“4ìo>•çò7 ş¼ı×ûóÿå#ş÷á
è Ì8—¿|¹ãç{ß×Qôo¯Ğ8ÿàãë¾Qıî´ìoŞ•æÛ ÿh.ŸıÇùõTh˜oKp}ÓDş¯Ğ¿µB³|ËêI>úw`Ğß€ê
ÍòmiîŸp¶ÿEÿ¶
òí-wÒùCú[€
/ş&¿øø„ıO å7%`ŞSf‰ü“ ÿ‘”c½ş^ TUhÉş£üøœúG©9f= ||Îù×ıÛ)6Èé€ñ¬ëï€+*7Éİ ÷3µ|h=ïƒ)9ÊœW Ÿv6¿ íå®şİSéßHáQ./Àç'ÎÌï@]¥g¹Ôÿë3Ïäïö/|ÀÔ™Ï¬ø0^ö>ù{øÏøïw÷—ÒLùÌÊsv&Ï1Ì®¦™Ìµ¡~‹h1æ£ª1Îôı?û—DëßP•yNÜÿ;ı{¯ïgë7X€¨ÙAyÎŞÿ7¨qÆ®Ğ Áª´pÿÚ X•êÿurUù%4@°:İÑÿ~©_'Xç”ŸB«3ÑTÿå_=şV“ˆ¸:#õsNÿşµX€è¡êŒtĞÿóÍ;ú×[€è±êÌ4Y?«ÿğšê/@tXufšÎÿóG¯æı-·şã«ª½ Ñ‚Õj:ÿGÌÄå?û§®«nÿèùG«2Ôù—ú§¯¬æD?\…™şèô¼}SÿŠßŠ~¼ò3½šË¿¾µˆş”é»Jı/@ôì ìD?¥óoî_ç zô‡Pt¢wsù÷ô/¹ Ñ“?†‚íHæŸ¾û/ö¯ğ =øƒ(7Ğtş=ıK/@ôØ£Ğ<ûæîşû—]€è©H‘y¦;}÷ßÛ¿ÄDÏüH
Œ35Şñ[çòå¤-· Ñ#?”İÓLwôÖÙz«úï]€àÌÎaNŒwüæİı= ûpvsjÂ‰·Î¶Ë[ ô´gÇ0×˜o—YvwÿèaÑöi®°8³¬üåmç
K}sïÙò·}Ù–_¹•ûÚ~Zô ªêĞo–ŸŞõSuè7‡è=æãª9õ«ŒW÷úª9õ«Œ¸õûGùÈ*ıÇªoîV<EôŒ¬âØèÿ *Î}îÇ>†—©Ø?zÂÇVoî?ôõŒşÑó=ºjƒÿ‘÷M{ıƒU›|Êı£§û j>şájÍ>KİşÑ£}•†Ÿ¥jÿèÁ>Š:ÓÏ²±Ö™£Çú86„+$¯ÿà¯ä9x¦eOÂ]²û«äÂ‡°F± ëdü	ñUê×JÎŸ9t˜¨`ÔòúOı^ùÉCÎñq•n›cgÿô¡Ã&øèj·éá¿· ”Õ$ûİ–—òÑÿäô?¹¨şÉ¯ÿiOÿs«Ô~®ŸXşcˆêß€Ø›OXÎ%~¼Èş@•ş3}{hÛ?úÖ2Ò²ôm%¥üÈÿPõ¾™LjÑ?ú62§zÿèÈ{ûGŸŸ½Öô.@ôÙ)d[ÿèSSÒDúKwÔf©úïo= •*¦ßïıÏF˜—pfúŸ›şç¦ÿ¹éròŸ›şg§>                                                                                                                                                                                  Göòòòõ?>Ä‡¶^^¾àGWè©häå«ÿ¡à£QßËWÿQ~ğô¾ò§êÛ€'÷rï?•ß<±{ş™úà¸^¶|ø|~pD©öë¶ ;¿8šùøYğuÁåü6àH2â/oÀÊüà(rëÏoÀêüàÖäŸŞ€¯wgç· °²şÔlÊoÂ­ÏŸX€î»Vå·ÑJôß“ß„Ú’¸ ;ó[€8Ûò¿L\ÇÆü6 ÊÆüİè½mk~bsş—ñU\ÿc{~`{ş—ÑU\ÿcO~ĞÜü0X‡ı-@S»ò¿ô®áı
÷æ· Míî_<¿şíËÿÒİ)’ßÑï²t©İŞ¯®H~ı¥Y¼Øşú¥ú[€ı¦
-\ìùõß¦;»ÉF}%ëËo¶èo®SÇrİoëÌoVNo¡Õ§ÌøÓ0qĞPrxyŸ©áü ×Ìø–7 ?ÿÄ,Cÿº–¸°ùõ' ã š¼Î¬ÀŠúéÈ=‰şdqrÖÔO.Àš“è_ÖŠQNŞo×õoÀê£è_ÊºaNlÀÊü£Ørı‹X;ÎDèdÿ…úÍú[€9[Æ™~°_›¿· ›O“u`¦lh™üú‡Û>Ñùõ¶g¦Ùóë§^ ”‹Ş;+I{‡š·ï|Òæıû ö5«ÿõ‚¿.¿>t>¿ş¡ÊÌu!ÿõ"¿z.ıul‘#¥¼½½5ŸìCØ?ÚÏkšÏÿkà¯¿î0z Ø¦·›€é^‰éö¯1çÎÿÿc^jöëh;Ù‡PfÈ½«L¾èæ¿>ü,ÀK³ş`¨Ô”»×™Êÿóç{ôîË¾Ïû¿şaÊ¹s¥Éü·¸ıïïW·ÿ•zø/İÿMÿiåÆÜ]€tşŸ?¯ÿëû—¯h×ßô”ó©¸ş÷=ÿ÷ûåİÿc”›òÕ×õæåÿZ€qÿrGÓR±ú¼âTÿË8ãş½#RñG,Oÿ×ÿ3êÿ¹ ‰€ÅN×«ß9ãé•pÏÇuú_nù§û×| æ· J¸çãº‡ıoÆù[ô¿èŸTj¾Ãq¿ËìŸ|(z¾ëUõó[€«BãMüòµ O9İ?õü_ö[S©#Y¹á&†}3^€°ş•<â‰•îpÖïÆÏ ı“'<±z³½wwPO½ÑŞÇ;ş`²ÿ‹şmÕ›lg¼Y —™¿Q^û€çUo²ùæô¿ÌıN‰Êç;¯zƒíÍ7ã	`ö†­}¾Óª7ØŞ€3 f«PåãW½Áö¼ø-€©¿<Vû˜íG~(õÛŸğÒ÷ 'ÿî`õc¶ŸùTœkÀ½şesòë_UÅ¹Üéß‰;óÊ_ÿú*u8à¯€ÄË»éü^ ÖToª£}0
<S¿Á@ÜôãÕ›êhÀ“ıSÉõo£ŞTGş–~Hş"‰Ê'œ°zCML¸óÀ|ıÛ‡”ï?÷ËŒOjÿPó&3øÀlş?ô¯oã$G?E¹4ù›áw€º‰Çù‡°ñ¨½CÏî”¶rå¼²~ÿÛ;æòwß¹õ¨£cOŸî”¶qå||¶nÿûû&ó 65uğéÓÑÆ!nìùêß{÷DşÎ;¶uâèÓ§;¡ÕC¼Ôì?ú¸îÀê£M:núñVqWÿ‰ü?¦ò—} Ğln\É·^¶äÿĞàıSù¿`ş¬9&8şpsãJ¾ùrÙÛ?ñi§ïÿİş;`êØqÃ?€¹q%ß¼»êÓÎô/÷ 0uî¸áÀÜ´Òïè,@şìoŸ+õÅß»œş»_N<qEN?ŞÜ´Òï¸~ÔÚü…úï[€nÿûU…ş æ†•~ÏÇ®Êû Ñ÷ş¾Ìõ/÷ ğã¾AÃ> ¹AM¼kæ£&]?Õîş%à‡ş=sSÚ?ì»ë§šÎŸ¿ %Î"ÇäŒÊ.ÀõSmî_z"ç}4#:jPØÄ„Õ¿÷G„…NÃÍÔˆ
/ÀõSíè?ü1ÇájjBUû'.ĞvBG~(SZı¾åçôŸ<€:&'T´ÿíSåõÏ[€"b±¡¸}ª}ıç~Llã˜ÿó¿Âı_®ÿØÔçüê?ıCÚúW09¢’ ×Otï»Ôæ§ôïı÷~ lÜ‡3=£‚p¹§›úŒË÷ÿî?-;ğ¼ñnrFëÿ”nÚ/ğ—^ÿ^MÎÁóÄ»É!í¿ôÀ½şy}ÏDÏüP¦†´áÇ|¦§½ôÂmËëºÍ=ñƒ™˜ÒÄËm÷Òë¶B¯ëóÄ—ä&~\nã´—ú¶ì<íJMéí­ÌÜ>Áâ×íúGJéíiûÏúÆS*ÕÿvõËß¶k×?xÒ5šÒ³öóq¦T¨ÿíª—ó·ê<ãcëO©Hÿ÷+Îèßf‡ûºCzÂşas}H½şÛ¾×öqMYm«çæ#êæ¯Ş¿öı?t’ê^ÿR`æ/Y·Üİı/KíšÿrÙšı#ç÷<ª¤¹«Õ?zjÏ£xš:ı£göT
·ØŸtÂè=™]q–¸ÿÎ=®ç³3ñ¬ııû‡Ô³*zÂîşÑ³9‡rÁ>úoıÑs9Òİ?íºÿGåLÊf¿ÛŞ?z §S¼ıÍÆüÑÃ8¥òõóîÿ¾À?ˆZ°ŸÃ¨’a¢o3]5@ş‡R:ÿìDßXÚõ¾¥$µê};™2
U£ôdÆ¨Sñş±·ÕÊö¾5lS¨ôÍ`—½ı£ÏO)›úGš‚Ö/@ô‰)l]ÿèÓRAvÿèƒRIVÿèCRÓ|ÿèÓÑÎp¢ÏC„ÎO€s://úŸ™ş§ö¢ÿ©ÉnúŸœüç¦ÿÙ©                                                                          ÀÿgïN²ãÖ±…ÆäØkYò•ÖõëdÏšC¾¿ûæ?•ßª¢ A îİÉ´ŠÄùN*ì                                                                                                                            ìĞşj}šùÏ,Àıç?£øıW³ó°±·øÿóîë-¿-À‘üÏ•÷7èÿ3ğñVıb˜ÿò$ÀŒóë üúÀ¿ÿşûş¿¡şàîı«ÿ¡}õæ×ÿŞÍßıõ¿wúÛW~ıéÜßë¿ƒÓÿØä?8ıMÿc“ÿàô?6ùNı£ÿğÄ                                                                                                                                                                                                                                                  øıûwë#ĞĞïß6àÈô?œ.ô?ÿ:İÔÿØ áß÷şÿŒ´>Ûxï?Îob2¿8ım"¿8ıMÿcÓÿØô?8ıMÿcÓÿàô?6ıNşƒÓÿèä?:õ                                                                                                                                                                                                                         `KÏÏÏ­@Ï×Z†m=µ>›	Ô·Ç1‘ßÃd~p3ù-Àı›ÍoîİR~pß–û[€;‘ßÜ±¨şà^Åå· ÷*¶¿¸KÑù-À]JèoîPJpw’òëwÒú[€{“ØßÜ—Ôüà¾èléı-ÀÉÈoîHVp7òú[€{¡ÿ¡eæ· w"»¿¸ùı-À=ĞÿØVô· Å4êšü „¶ƒÕ¿©æ³]×ß¬ÑÃpWö· Ùú˜îÚş Só]ßäédÀú[€½Xÿº™p‰ü U?.Óß$éhÂ…ú[€=M¸T­«ëo"u5àrù-@œÎ\¬¾ş1º›p™ôÕwgúp‘ğÏwWø÷_Õ´şx‡ÑhÂ¿7ëoæ´šğl°•úş÷İèÍsõK÷· “êøÒÿŸ³­s¾CÛ`¾çşÿ\Ûê`<°-çûÏ?)Pîd±ç; -çûÏĞvg‹;àñl9ßQş…(z¶˜Ğ†ãä×¿±-çê?» …·xÀÚr¼ÁşsPøpË'<œMÇ«o¶oı-ÀÅÆãMîoêÚx¼ô· Ÿ¶nÿ³G<”­§ÛMğfóáöòø¯ÿ»ZÃM\€'´ m†ÛÉİöŒGÑd¸Iù= TTo´)ßèòŒ‡Ğj¶	ùõ¯¨æl‹wgÜ§š“-6Û=œq§ª¶ÔpwpÄ½ª:Ú^û¿¼¼?ãN•íP‡|ùRôˆ{Ut´İñåe¸ %¸WEGÔÙ!_^FPà„»Ur´aQÿEgÖ×ı¼ egÖÕ_^< \);Ü°®N¨ÿÂÓëé€úß(=Ş°Î'ÿµòóééxú_©0ß N§ÿ•*èép¾ü»¨4â‘®Î6Ì¯}íåúçåÇºU‡|­Ûƒeœí~t;ä¦wSŞòXGÎßéİlÓSéßÛœ7=Ô¡ów¹ ›IşŞfİá‘îXwÓîî@÷mãq/Î»³ãÜ½ç½4ø>Nq |aü­¯ÿx6øB‚†W}T›|!C£«=´-g¾P¢ÅuŞ†CŸ²õQZ»?s“ºù)yí [\“ø#““ı–Lå(õ¯Fü‰YK®r˜-®ƒ±ğ´BK®jœÚ—Ï”àÀ6îÿì_xl&8³­û×Óz¼ı-ø·äv©õp÷`<µ»éßz´»0Û½ôo=Ùî.ò·ë~ŒFwı[uO†³ÛÿÖİ™áøv¿õ8÷g8Ásş~F˜ªõ0÷h<Å·øá÷ô­ñ wkr®Ğr„{71Æf-ÓµšÜ	Ì°uÕXÛë(Z—ÑzF÷­uİ%­çs÷ZÕz8‡P5àªOf¥j
®ù\6S.ù°aö'²©²á¯2æ}›«“?õrÛÎàØêôO¸Ø¦·Ât±o55òÏ^lèÓ´S%ÿÔ·¸,¨“ÿö²İë»V+?;òuOUŸ”5h}VªŸ-8?;|üf‘Wt                                                                                                                                                                                               phß‚ZŸŠ„Ó[c˜¯oîÛr}p¿âêÛ€;Ÿß
ÜŸ´úIğüü\ñà”?j¯U¿äÊÉ¿¸ÏcÛÜeæŸİ€@}Ğ§üüÓ0‘ßôgMş©˜Îoz³®pæòÛ€¾¬ÌZ€…üV '«û "¿èÅúü™ı-@
ô,@d~Ğ…†ı-@Jô¿Ù€øü Mû[€æÊô¿,@R~Ğ\ãş ±ÂıSóÛ€Æ
õÿZ€Œş ¥²ısò[€–zèoÚ)Õÿ}2ó[€vúèošé¤¿(,v°û¯ÉoÊIn/ı-@Éãí¦¿X/g¼ıô· +eÍ·£ş`•Ìùê_ ¿X#wÀ=õ· ÙVL¸DşBı-@¦5Ö÷Ö¸@şRı-@–u3N+=ş¬ôè_ÔÚ)§¦|RŞ,@1k§œ’=ğIyG° Å¬rbùÑ'åÁ²~Ê±íÿşú¤ìCè_Âú1‡óÿsãí-ı‹}ÿÇäX?æàÿŸFpÓÿT«¿HS¶ÿ×Û†ù?NáÏ*Ûß$Y?åÅÿ¥Ğ¿SË?Z€«O+ÿöh,Z?åQÿpş™(Øşæd,*0åîú[€HÉƒ}yy	L9³¿h+u¨/_†C^}ÿ×¿Ô™¾¼L-@^ÿoû[€E©}y-À×E_ Äôÿö­j° y ş_C}x¹öoßôo*} ûë×èoæ¤óå%° _—Ö“üúÏÈg°ÿÔÀ\ÿq}°­¬iè?üPı›Èg( ÿôŒ>Ò´;Í¤şS?ÿÊ¯ÿV²§ÛbX»¿[1Í@ş¯ú~ÿ+ÿùYÿ-­g ¨`N¡sÿßÜê‰ŞÆí?2“¿Np«Ú„G9W>W_ÿ-Ô›p èàºçëë¿Š#^ˆñwëÎ\©8á¥ºG´âéxSgÀÓO ‰jSWıÏ_õë¿™:óÍèÿñiúo¬Î|Ÿ#_ Œ#oÓß|ª4Şç¨ş_ï¾ş4ı7Ui¼Ïı×j¬ÿ†*M÷<áõı½ ¨©Îp/ëÿ<ñC¾-ú7v‡ª÷jÆÓıß?d"±ş©2ÛëOõÿüıÛª2Ûëú?_]ëTbı·Qe¶×C^x.ŸL\{Z¾5F{3æÜşÏuû·{/*Œö–ş=«0ÙìşÏú×Wa²óùŸçW\€ÖsïEñÁèßµâ“ZÑÿ¹ZÿÖSïFéÁ-ôoò õÔûQx°ùıg?mÖCïIÙÉ|[X€¥Å(ß¿õÈ»Rt²!¹ı6òµx_JN6¨³ş­çİ›r“ĞSÿÖÃîP¡ÉN‹ì_û'À­çÜ­õ£×¼ëwnÍhc4ëÿö{,ÊmŠ¥şu~¨õTw$«j¼Üşk¾ıÓz¤»’U5^vÿüïş·è¾äDMß?÷€j=Ğ½Éˆš`Eÿ,­§¹?¥&ômÓş­G¹OEF?!º¿ïñ´³~ôS†ùköo=Å[=û)Ûõo=Â}[9üI[õo=¿İ[5ıËı,@ëáİƒüéÏZÎ¿ºëÉİ‹üÈs*÷o=´û²ªtØbş5ı[Ïë.¥%xıÃßy§çöo=¨ûôÿOnÀÂûÅïRTşˆÇ€ù÷Fõÿ<OãNLş…˜•ÖŸíétúŞ|ş ÿ~´ìßú¶óFÿ£/@v~ı÷§EÿÖ·™ú^™ü‘ı[ßXÆ®ó¿¿¡^ÿÆ·”	oñoŞP§£[G–âı[ß Òìßú¦ëyaŞÖä³ÿäÆ´¾”ğ·ãp>ßsîÚ€†'¦aÖ«ş§Ûhp86wÛÿôG2Ê                                                                                                                                                                                            ÀÁ|i}(6,oa¶½¸sõ-ÀİŠ«oîStıèx>«|tÖKÊ³ Ï7êß ÖHÌ¿Øÿyd‹[A¦ÔüK0Îoz–Şv‚ù-@·2òÏ-ÀD~Ğ«¬şÓ0İßô(/ÿdÿ™ü6 G™ı§`¾¿èNnÿğ,ä· İÉî\€Åş /ùù3û[€®¬èX€ˆü6 +-ú[€~¬é?^€Èş mú[€^4êo:±ªÿpâó[€N4ëoºP²R~Ğ…rıSë[€zâG½®ÿ·¹«´ ÛKŸu¡şYù-@Y9Ã.Ó?3¿((oÖ­û[€2r‡½®ÿ·”+·õdÏºƒş6`µüI—è¿6¿XgÍ¤ûèoò­›s/ı-@¦•sî¦¿È±zÌıô· é
Œ¹Ÿş Q‘)/Åÿğç° kUî¾Òšım@‚R#NËûñëNbVX1áÛA'äÿıûwíş NÁIÇßù¿9>ªÀYÆ§bFÙQO´ÿçâó-ıGPæ4ÃS1­ì¨Ã÷ùn½¿m‹ş`QáQôÿº¼«î€XRzÔ¡ş£üWP»¿˜U~Ôãşü—¨ŞßÌ¨0êQÿ`şû[€I5&=z÷/@¥3é?må`_^£ûÒ¯M0aí\_^†ğv©™ıK*dÛ±îÅê±¾Œàíb‡wèú[€ÕS}™_€Ï«é¡¿[?Ô—ñ¼_rJÿÑËÅõÇ
Úv¶{°z¤/ı?›êß¥õ#}	,ÀûEß¾è£¿X=Ğ—Éş§ˆş_Ç}»hõ¹&l:Üş­hDÿ÷¬³ù·ëon¬ŸçLÿÅ€Ë9ôocõ8ƒù‡ı'àöcnû[€-¬Ÿælÿù/®?@ÿ&ÖO3®hn?`»şàbı0ÏùÃÿ…Æé¸y¯şMæ9ÿèÂŞ¯a&ğÒ/	8Ü„-GÜµ2Ã|	_ØÇ[C?:ß4\€‡›:2ïêø2æĞ½ü¦øGóñÔ>-ûóGPû`Ô›ğÕœ#óoõàó¹Ø´ÿçUú¯ï‡oª|.ZôÿÈ?zcåsQoÀ×sí|£şÛ¨7àë9ûŸBo|låsQoÀWsŞÓúÿ'@ç¢Ãş7]÷\Ô›ïõ ÓúŸôßL½ù^:œ?æ ê±¨7ŞëIOÜıc êŠS·ı7X€Ú“İ‡ZÓ½5•ºÿ©vÿºcİJÓ˜ìšÊy ¨t¤ªSİJÓÈ¸ÿŸ Î‰êNu7êw¤»şu§ºU†;6ûø?û ÎÔêT˜mHgıëÎtOÊÏ6(§ÿyŠŸ¦êD÷¥ølÃ&óÇô÷@VSx²Ó#Ÿ¯|}”Û÷” Øb¬»Qt²3–îå×'¹}Oé€»;k±(Ñ·ò [Íu/ŠvŞôÓ¨ÿè/[€Íæº…æºd*ÿå}NßJ÷ßv´»Pd®ËÂ÷ÿ«÷rş…õgh0İş­k”Ğ—ÿ7ïÕ*Ù¿Ítû·r¬±ıoß,VlwÖL5Ş·Œş£× Ù×Şd°;‘=Ô$şÃwNu[İ¿Í\÷"s¨‰ÆıGïJ·¶«ÁîEŞTúßü¼·=nÎ7ënäL5Ynÿ«È9j«™îJNÏD—ÇğàuÎ=º¿ø·œ¿Òj{“U4Í·áŞ=õ¹¹'m2Ë]ÊJšdØ?ôî…‹H=hÓ‰îKZË7ßÆ	\cÔ«û¤ƒ6èÎ$æL¶Ô?r¢¯¯õ<÷&1g²oƒ@©kk=Í*5ú	[öo=Ê*3ü©&ùËõo=Æ+1şÉ(7Oÿã(Ô¿õ÷n}É2s¯şrú/¤õğîNnëÉı[Ïæ@b“ŒşÛÏ	ôïÜbñùµfÿÖã8¤¥úÛõo=‰£ZÈ¿QÿÖS8´Šı# õn:ÿŠW€ñı[ß|pùï¾­ı
@ş½Ö_}ÿX€Ö7œMû·¾±Œ•Y€¨ş­o*![õo};™pÕ?ûgKı[ßFf\òçÿÌh¾ë[È’—¯ÿ“ıúƒgú·¼]$‹®û±“ı[ßÖ™‹ºÜ¿éÑ©m¾ëÓQİ\ÿÖg£¾Éş­ÆFı[‰M]ú·>	Í|›úçA                                                                                                                                                                                                              €šO­Ï@3ïZŸ‚FÏğë¯ïZŠíò[€#ù|şÿ¥ÿ¡é8Og§ÏşŸğ÷ÿ´>Õ=]ûìÑútTö4`e˜´ ­HMãüÃh}BjÒÿØBıŸô?ŒÅş­HUÁş'ù"ÜŸ£ĞÿØô?6ıNşƒÓÿàä?8ùNşÃ“                                                                                                                                                                                                                                       ØµŸïZŸ‚F~ş´ Çõó§şöSÿCÓÿĞ~êhò›úÇ&ÿ±Épò  Ü9_ø™ïû™úÚğ‡~mÆ&ı-À¡,ôÿñãGÛóQ×|ÿ_Ÿ’Z†/ÿFwpßf_úë$ß¿?ıº¦ÿ‘|ókbZÚ¾ú_ õé¨ì{°ÿ¯_ùÿnwíÒÿéÍh,À}ûÈÿtae¼ ­HeOúÊ0ÿpZŸºÆıŸô?@ÿ'ùc¾ëÓQÛlÿÖ‡£ºPÿÖgb;ú›şÇ¦ÿ±élúœü§ÿÑÉtò                                                                                                                                                                                                                                   ‡ğğ¡õ1hâáJë³°¹‡[­Ã†~~²ÇóóÚCúüùPıœTğsh¸ ğçÚ6G¦˜Qı@ÿ™ø3²İÑY+?eÆñ-ÀLÔõ.@8¿Ø‡ÉúáoÀT~°sùÃ0Ø€™ü6 wóõ'úßlÀ|~Ğµ¥üË°”ßtl9ÿÒ,ç· İŠÉ?¿ 1ùm@§âòO-ÀûEDö· ŠÍ?³ ±ù­@âó—éoº’ò@j~+ĞVı­@
ôÏÌozĞ¼¿¨%jÄ=ô·åÅ¸ş ¬èÈ_¤¿()~ÀëëëoJ™šïë_ƒ+>¼Øêım@“Ó}}mÀ|ûÇ³÷?VÏoJ˜îëhfïù1P´¿Xmf¸¯£˜îÿıû÷QÿĞ”ÍoV‹èY€¹ü7p:ıøñ#´ ¥û[€•búŸ`ªÿ÷Aÿ_¿~¼÷/ß¬1?Ù×ÑÌæÿşëÊô· Ù¢ó-@¸ÿ÷éşÃ¨ÑßdZëkÔœN¿ù' ÷g¿ ‚¤ü“Ï çş¿~àí“j÷· ÒòO-Àé«ÿÓ›Àœ®¿
¨Õß$KÍ^€·7üúõ•ÿËGÿÏ¯¯ïşÕú[€DÉõƒßxÿã[ë§¡·ü_¶èo’¤×Ÿ]€Qş§§ËumğğoÍ2yı/°Qoi”‰ıO¡şçØª¿ˆµ8Éø€?û-ÀVù-@¬åI.õ?Å÷ßìîo"Erñà¤ÿ^ÅrªÿèàãQık~õ÷eûiîOÌ'ûàó/tÏôßòîÿÇ,‹ãtÿ¯¸º[Ïõ¯ÿÃŸ[ÍÆºQcœéÿ¹ ×Ó“üú/‰cJÿ‡™¯ÿ·¾û[€‘Sœëÿ± K0ø¨-^ı½i9ÜˆœbZÿĞœµQ~0+vˆ³ıßàav>¯nû»¿şsbg8Ÿ?ø p×oğìÿ¦Õp»?Â˜ş£ºy½Ü#›Ît?&¸ô-€Ğ<´Êo‚RÙô×;®®îAÿ$Ío)ÿå{ÀÃ˜R)ô„†sîTÒøó_ÿàû[€´éÍ•Ìx¹ş†¯ıgãMÚğ¢êßL¹·üúßH›]tş?‘°}~ı¯¥.%Ôl÷¿À±¨š?bZä×ÿ"utiù¯ç=‘_ÿ–Òg—‘ÿsäáüú·”1¼¬üw‚µZ½Yã»
Ÿÿ}îú÷%o|7½£ã¿¾‹üúj1ùú·{/ŒşÏà÷B}ñßĞö£ÿs» MÎĞzêİØ~ôóoÛ¿õÔ»±ùäÏöo=ô~l<ø›—ş_1gÛN~Ğ¡MÿÖ#ïÉ¦ƒ9? lw•­Ş™íòÕ£«k=ìm4ù)›õo=çNÕü¼ú·s·j~Éı[Ï¸gUaƒş­GÜµšƒQ¿ë	÷­âà£TïßzÀ«7ø8µ¿ l=ßŞÕš{¬Êı[·{•æ¯jÿÖÓí_¹'¨Ù¿õpw ÊÜSTìßz¶{PcîIêõo=Ú]¨0÷4µú·ì^ül”ñ›¢û§üõ£%7\cºÿò¤ü5£ÖCİ‘Ì’ÅÄöÿ{f­'º3%cæÈì¿ø÷Ì‰S<h¢È€qşÀá[Ïr—j…×?p÷¿=~Óî[õÄ³rû·ÚÙ&ô”˜şÓw
Ø¨tXDùk}›ÅX~×¾±’Åş§“üÍl· Sñß©ßJËş×çP¿‘NúÓşG×¤ëÍıOêõ-@ë›Êœêı[ß@b\ ù÷­hÿÖ7†ÂÒú·>-Lä?é¡üş­I=£üúL8ÿå_l}>ª»
ıpñşöÆ'c[7À±<<X€#ÓÿØô?6ıMÿƒÓÿàô?8ùN~                                                                                                                                                                                              N§‡¿ZŸf¾´>úyñğ`åçÀÃCÖ
üù«Ş!©e˜° 1+ğçFı#SÎ8ÿh6àÏÈ6'§€Pş´ç· {®ŸôÊoöa:ÿx&."œßìÁ|şá/b*¿èßbşÁ.b:¿è]LşÛ]Ä\~Ğ·Øü30Ÿßô,>ÿpÎ{°”ßô+%ÿíœ÷`9¿èUZşñ÷ƒ"ó[€.¥æ}C0²¿èOzşqÿèü 7ùGıòÛ€¾ää}38­¿èG^şÁwSó[^äæ¿ıµ°œşV Ùù¯ ;¿hmEş2ı­@KkòŸ`e~+ĞÌºü?Ï?Xİß4Q¢ÿÛåèoêyı2xûÊü?Şım@5¯×nŞÓ];PÜëĞÕû¢"?>>N~|ş6 ¤Qşë˜íşıû÷¿òøîíƒüø1úœ:ı-@1üW°ÿû÷_¿Îı¼|R¥ş pşóD÷ÿõë³ÿß÷/ß”ğ9Ê™˜Éúìÿë#ÿ¯_?BPéîo
8Orú!`ºşéÜÿlãş6`«AN>	Ìäÿ5êÿµ ×kSµ¿Xáf“/&óõúpµoï¼Ê_³¿È5cFÿ§÷şOoı¿.şá’¿ne8ÅÉşáø{	ƒßæß€¯Ë¿ı½ßšı-@†Ñ§ûà=Àù
nóÏ÷_»­†¸_ãÎô-ÀTÿó¤ô_­Ùw*0ÂRı¿`»‡&<Á¹şè¬¿ˆ61ÀÙşãè­¿ˆ”•¼ Kı7|ù¯‚©ñ-õ/@gı-@Œ™ù-ô?Å.ÀÇéß£Ù–y ø¼¦Íóë¿la‚i úïÌò“ ü
ğëÊôïMÌçûßş2À)¸ _×¶}0+n†ı¯7àÙ?şÊWj2Ö½ˆœábÿÓuÿñ|]]ƒ»¿ş3¢‡˜Ö¸ Ÿ×vıÅŸşˆb|ÿ©Ûûáa˜_ÿÖâ‡˜Ğ?´ #iW¿Æ†óÜ™„!.ö?óŸó^Œóëß„!.÷?]ç¿^@|/ÿ»2ÆåşáÒ3ù}ÿ§­”)FÜÿOSwõÉşµ’ßh3Û=H™b\ÿèH?@¶“İ…¤)Fö\€œäÚ~°;‘4Åéü£GÆO=A¦mgº'IcœJtTıÔ#äÙt¤»’2ÅÅúÃQGõ/yÆ¶3İ‘¤)ÆäÌº»¿şSR†—?â…@î²m9Ñ}IblşåÈºú5¶é$Ì0ºşhŞ£ü_´ªi‚6³İƒø¦äNüÏMşµ5Óµ™íD0©şÕÄ?ş(Ÿ’Æ_ÿ<óóåïQê$ãÒŸ‡~ıgù;Twê7nÖ¿õŒ;Vwìƒ74êßzÆ«;÷áÚôo=ã^mœáO£ş­ÇÜ©m#|j° ­çÜ§-\Ù¾ëA÷iÃ 76ïßzĞ]ÚnüC÷o=è>m5ı€m¿ĞzĞ}Úföa[öo=çNm1úi[õo=ånUŸü¼mú·r¿*~Ñ&ı[¹cu¿lƒş­GÜ­šCU»ëw¬ÚÌSTíßzÂ]«3òTû·pßjL<Cµş­çÛ»òÏR©ëéö¯ôÄ3Uéßz¶{PvâÙŠ÷o=×½(7ñUÊş  õPw¤ÌÀW+Ø¿õD÷¥ÀÀK(Ô¿õ4w¨H¾õ
ôo=É*Up5ıOÒ¯Q¸dìş­§w'ÊM“û õÜîF¨)òú·Ú©R5^NÿÖ#»/•ÂFJïßz^w'0à‚¤öo=¬»4pñÎSÒú·Ó}»nÕèW¾ h5˜cª^şC|ÿÖ9œúñÿ$ôo=ƒú˜ıç¿İ2µ§ËÙ¿õ¸õµ×oXÓ?ö¤Wyù_¿úÏ-@ë›FŒ¬ü—şÓĞú†)#ÿUÿ‰h}£Hœÿºÿâ9‚=HÊÿÕÿaü·¾äJÈîÿğõïH¿É>Åå¿ôøÊÏıøx ŸÉ¯ÿQÜÔ?Æıä¿ççvınÜÿAş#	< ´>[? ´>Ûä×ÿpô?¶ıMşcÓÿØô?6ùNşƒ                                                                                                                                                                                           €+7ZŸ†m=Œe\D“Q_ ~â
\>áÏ_ÕJSù£—àü±.ªŸš2æëG,ÀÕ‡ş± ;³Xan>êÏ­oyÂµşü·“é-À.Œ²_[z¸zk°¾èİLü™šŠoú¶\?fæêëß¯¨ú‹0ùÈoúV&ÿR}Ğ§›ˆ³ùg "¿èPJş™şQù-@w¦ëÿï›ØˆÌoú2}çÿïSúGç· =™¾óÿ7©B~ĞÙüáşÁHÊoz1Ÿ?úş¿øe¿èÑdüÏüoF÷ş@ÿŒüú·“¼ eîş ¹¸üı³ò[€Æ¦óÿw. ^~PÛè~:ñŞ•ù3ïş ²Àõõäå/ÚßÔ4Ñ(-`Vô· åÔÏÈŸıô¯e©ícòîo*»8¦ÿbıÂÿ6 ªÀ„×æ/ÀÚş –ù	/åÿ Ç7ŸŸğùŠ÷· u,Lx6ÿÇ‡<~:ÿáıÿïojXšğLıAşÇËŞß^¼¿¨ ­ÿMşÏGüKÿ> àËPM`º¯¯¯—÷Ïä¿zÄ¿Î\€2w+PÚp¶¯0—ÿñû÷ï§ËSşuÿ·7TêoÊöõu¸ “Ïıïõ?àtzzsÓ° eû[€2Fs}}mÀBşïŸñ¯àëE`½û¿(b<Õ×é|Ùîÿtåë‚ı‹/€Xk9ÿÕSÀà›~_ıŸğùPóşoV
tÔÿ¼ ƒü§¯şOO3P÷îoÖsÜÿs†ßò?}¾úæÿZ€á@­şV Slş÷øï0ÿGÿÇqıAÿÓ¥¿èI|ş¿0Îÿşüîÿ± çïŸó×ëo’¥äåŸéÿ¾ Ûö· iÒóÿß ÿ\ÿ·÷¯™ß$™ãdşÿû¿Ûüı‡?œ½R°­¹1N=øó,Àrÿ^şÙ€4cœ~î¿ıIğ\ÿÇı-@œ¥1Nå?Åö?üoÓßÄXœâTşá¯‚Ì| ĞƒüúGˆãTşÁ<N¼ıØ6ı-À²˜1ò~dbnòoÜß,Š™âø»>Á_{-@ø7@7Ê¯ÿ’¸1ó_õ?/Àå?oø‡/şõïGÜÇùCı^÷xÿ@ı{9ÆqşàÀir¶êoæEN1?øğ&¢~±_ş_Ödªû7ÄPşÉşÃÇ×¿q3ÕŸéÿîëiÿòˆ?ùx«jÛyîMÔóŸ`|—øWòüß‹˜	^çÿÑ?ühº}_åêgÏsgb&x“ÿÍ|ÿÙgûË»+åi2ÖİXßGù?Lõ_|±§GÇ7•8Û¯ş—gû÷ÅÖ¿KÓ›Í=ÜÏşƒüáØ[.@«ÁîÄÂôò_Íw˜®ÿŸíú7ìNÌOo9ÿyÂ—ü·¾¯o¶ Í»³Ã‹Éı È?‘ZÿNÌÍ.¦şÍˆGşoÂ©7êßhªû13»Èü—!ïşSwõMú·šê~LÏ.:ÿMÿñ¥N=Ôo± ­¦º“£‹Ïİ?p¡û·ênLN.ê•ßpÎõo6Õİ˜^JşìşU ÙT÷cn|	ù¯~´¸ØÉ/õêöo8Ö½˜™Şÿ{?»µh8Õİ˜›ß¹Ê¸ûW| h8Õı˜àWÿ¤y‡ûoÿ Ğp¦
en„ïıSGşşG]¶~ Øx¶½›œÍÜ·é_eŒ¸gáU™zı[Îº?¥§;;öôşå í¸{Sv¶KsÏë_tÚ»;%G»<ùŒşe ñ´»Sl°q³Ïé_ò ñ´»Sj®±ÃŸè¿p/´ gİ£cM™^ÿĞxÎ½Z9Õäùıı‡ÀkX3Ôœsı«-@ë!÷+{¤¹!rû¯xh=ãe4[~ÿÌh=àÎeLt•uıÓ õ|»—<Ñ•òû'/@ëÑîBR¼VôOzh=×½HÌ·ÚªóD?´ê~¤´+aİùb õTw$%Şz?æYõù­gº+IıÖZÛÿü¥¥ä[m‹ŸòµèŞzú·Rdì«ù!o3%æ¾Z‘_ói=Éı*Pp¥ı[qßJDÌó-ÀY­Çw.£<Ouø*IëuÂË¨«tòIıGçi;˜£¨ı,ºÿèHmfqDmû·¾õÔ\€…ş­o9êöŸ^€Ö·›Omú·¾Õ\Óıù ?C¹ı' õÍ!YÉş­oò@ÿ{Ræ õ­`Õ ­o ¥ép)ı[Ÿ•&@ıcˆëßú”Ôt9Ô¿õñØĞèù¿õØÖõ×ÿ­ÏÂö>û·>èlú›şÇ¦>                                                                                                                                                                                         °èáMëC°½‡¡ÖbC£úVà@ÂõmÀ1L×·÷o©¾¸k1ùmÀ}ŠloîSJ~poÒêÛ€;“ßÜ‘œüà~äõ· w"3¿¸Ùùõ¿ùùoÀRìÒšüá‹iwcH¶ªÿCøBŞßög İMdÚºüá9ëÛ€.­Ìÿ0q¡ú6 ?kó¿-@B~Ğ—õù—1]ßô¥@ÿÔü #ê[€~´ÉozÑ*¿èBÃü6`CÃJSoß4¿ØJ¸Õä;ŞßùóV•ü`Ó‘cëG.@r~°…¸ûîÅ8~ädô· õÉ± 9ù-@}eò//@^P[¡üK™_ÿê
å_X€Üş ºBùg øûú÷gEş™ÿ¾èÆõ´sëÏõÏÏojšwNüŸ?§=Võ· µÌLü’.®ı|ÿUùõ¯baèÉùß/´ÆİßT9õ…Ş.[ãî¯y±cŸ»¯?==>^àÇ›pÿµwPZìØƒñ¿ÿşvWùŸ>ó şê,ÀVbÇ>‘ÿmÎğ÷ÿ}õ-@ÊµÙ€D=ôĞÿŞÿéÃãÓ—sÿ7Ó÷ş××WĞZÂĞÏü×ı/N1ı_?X€¦Rfxİîÿùàãnúòç.@Ã‘İ“Ä©^öOö¿÷}]¹ 6 €ô©ßæ_€qş›í·¾¿X-câÃş¯ı“û¿¾–Y «°Æšş?¿.¤“ş6 YÎ;îoeÍxØ?˜¢ÿÕÅÔÈÿÇ¤È›ğ 8³ş Zæ€O ¹ı×~ı?©É,w({À…ú¯üşß¤&ÃÜ¡ìß> ä÷_õıÿmÆ¹7ùóÍï_®ñœ6óÜ™5î¼¿ˆ°f¾1/ .×4ığ_K›‰îÊºınÿÇeEç×¿+|ş«—ûêÏ€N¬ğÕ7t¿„ó?•È»¨ÅH÷dõ€ı¿6àúzFõõïÂêûß
´ßl6å­ğÃâLå×¿¹÷¸}ÓdşM åtûWbÂ·ıG¿ò»ñ÷ šN·{ef|İwæÎşu¥ú÷¢ĞŒÃ÷õpü7öo5Ù](5ä™û|(ÿ– &»Å¦¼üP{Å›õßz¢»RnÌÓwö`şÍ ¶œæş”›óÒCıí5¶z Øz ûRpĞıoÃèß^ÉIOö?…#oòĞf¬{±n²ƒ7„ú_½g|	ú·¶n®ƒ7İæ¿gtôo<ßŞ­ëà×ùCï_Lõh;İî­êàíWıƒï_RåW '»«‡zû™˜-ú·šên¬Ÿìí›ÓûW\€†sİ‰¾}ËBÿù€²Ğz¸;PtŞïfRF< \€Ö£íY¹)tÒ¿õ„{VjÆAı/@ëñvnı€gåô/¸ ­§Û½uã]¶ºÿšh=Üş­nœ¬şe ZÏ¶oÙcM“×¿À´o¯ò¦™m&ãlÜUĞzÆıJåZ%ú§,@ë÷-§àJıË.@ëùv.3á*¹ıs õ|{—ÛpÌ€2 õx{—›p•üş‰ĞzºıË¸ÂRÿØX¸šÖ³İƒ5³mĞ¿õ\÷bmÊ,sïØ1ı[Ou?Ö¦Ì²ªÄoƒ¶ê¬m™c]ÿÙOÿ£~šÕ13¬ìÿg.ëyîÎêšéûG-@è­‡¹G‰ñ
üãû³à1ıÃZr·n8?äÿñ2ıÛÎìÍ½È|guÿÖºsQùó`ş¸Åş­§s1ùs`á8Kı[æ ªõX×¿õ\jãş¾µÛ­úÏ? ´Â•ï?óúw¨}ÿÖ8¸²ıç>@ş.ıòOÿı)øíŸÙ÷Ëß©sşÁÛ“`şİò÷*œÿTø_ˆ—§fÓ.ÄUÿÁ?Ìİ˜_÷şƒlyZ¶uÕŸÒÿØô?¶plú›€cÓÿàô?8ù                                                                                                                                                                                                                                                                                                                                                                                                                                              àÿ·w¯KW¢FÙÇ²ì*ùŸ\mI!½Œì9ç÷øıŸå4oE\2L Äe­‰˜ºHÜßæ¥XÕ2                                                                                                                                                                                                                                                                                                                    Ä|û®ö9PÉ·†ÚçÂê¾uÔ>VÕÍoN¥ŸßœI¨¿8ıO-˜_ÿÓ÷· g¡ÿÉénòŸ›ş'§ÿÉÉròŸœü§'>                                                                                                                                                                                                                  @Û¯mµO‡5ıTû¬XG¸¾8…¡ø6àğFó[€ãJˆo+=¿8 œüàpòò[€ƒÉÍo%?¿8)ù-Àıöİç¿LËoöê·O·šßìÓo¿µ`z~°G¿ıÖ^€9ı-ÀîüÖ1+¿Ø›nş¹ı-À¾ïoödüáx}Ù~·IUËôï.Aï(]ÕîÿÙ-—¿± £ù­@%Sş«§]*)¿¨aRÿÆõS.˜šß¬/7ïŠö·+ËËß»ú/×ÿW¶¿XSVÿÇu~¿¹şÓ/¿Œ,@ğ`;òóÿştËß€²ımÀj2şküŞë?ğ<†ØŒ‡ÿãÍşc:„Ø’ôşÏk4ó?àş…È5¦æ· +è<¡ÿå³ıİ3ÿ¥»‘CX€Iïß¼Ö?îú7¸øŒü`qSúÿ£¥usı‹ÏÊoÖ›wvşö~ø[€…%÷]¥›¿µ ¥ş`Qıiöïço.@÷òóó[€å†=Ö?”¿± Kô· 	{ÂÃ?Ş¿H~°ğ°õ?‰Ø´Ëõ/”ß,!:ìbı‹å×¿¼io¯¿(mhØù“ûÿZ4¿(mpØìoŠöüçÿïW)Ûß4>íØôï\¡p~ıËIwìM@´÷â¥û[€b’Æ± —Ğ/ïo
IwâkÀõúù-ÀVe<² —ÆÜş-”‰°óeÍ;Ú¿)\‘ş`®Ü/@,ÿ"ımÀ<ùó·}İb÷Ï-ÀvMšwôñ}]‚ÀZ,İßL4yÜñ=),ŞßL2cÜñ§€¦G™öŸ,¢ö(÷hÎ¸Óâ?Ûè¿A³Æ‘¿ué™™ã'D¦yóÎÉßºô¼ÃÆÕçŞÌ÷gĞëä_cjÏsgf»Õÿf ¿ş3ŞışÍ_õ‰^Zÿ-(0ï@ÿ¡·y‹/@µYîO‘y‡ú_’ú/³ µ†¹;…æì_€¥?ª4Ìı)5ğpÿK´ñÂO u†¹?¥æıknÿÁoæ«3Í)8ïXÿK´ğ¢¯ UÆ¹3EŞëÿŒ ÿF•x»£C¼ğ‚?¨=Ûí+=ñFÿv‰Â‹õ¯=Üí+<ğFËØ²®4Oíán]ÙißÄÊKöÿüÓÚãİº‰Ã4ğT>”8?ÿ+ù·›ş%jwë2†nbÿßÒòÔ¼díánß´¾c¦ö3\ş©öLwdfç˜Wòåû×éÌ«7ŞÚè_ÔÌÊqúïÁÌÈjö¯=Õİ˜ÙxÈĞwò3úË_ĞÌÄƒêõ¯=Õİ˜YxX¥şµgº#3X¦¿ôÅÌ<b‘şâ—“:ó¹ÿ€¯åŞ¦ö%O}Ú,ĞÿrÑ¾˜)Ms”ï=kñK)y@ñşÏ¾ˆ2•ã†úOyX{^GS¦r\JÿŒ¨=®ã):¢lÿÚÃ: b¥ÃŠö¯=«#*—:h°æ€Ú£:¦r­CÊõ¯=§ÃjÎ¸@ñpâÁÿÅĞñ[©=£CkN¹Tö×mŞóçö¯=““iN¼hıá[Õ«JçßbôÍA­»MCÑüúïQ¹üúïT™ú‘Š,@…»I\‰ú9ıW¿ƒ$˜™_ÿƒh…Jß¹âà¬ygXQZÿÚgÉbRú×>G4Ş¿ö²¨‘¨}z,Mÿ³è_ûÔXC´íc-ÁşµOŠ5uû×>Ö×X€Ú§B-ò                                                                                                                                                                                               œÂ¯AµÏŠU„ãÛ€Sˆoo,¿8´ñü6à¸’ê[€£JÍo)=¿8 œü6àx2û[€cÉÍo%?¿8ıÏlJ}pó[€C˜\ßÁœü`÷æå· {§ÿ©ÍÍ¯ÿ®ÍÎ¯ÿ®éjóóGúÿÖ´î}"İBıëZû~‘f‘ş½ú6`«è¬o¶©xÿX}°I¥ûä·T¸ÿp~°9eûæ· S´B~°1«÷·›’Wy°b~°%ïÈ>¿’ÜßlÇxûß¯®òüãôü`;Fòÿşô¸ø/ıë<o)§¿ØŒñÇ~£ÿ/¿ôàyCyı-ÀFåïöÿå—ûÈo6b(÷éÿ—Çéo6!œÿ_ÿº}±ûŞ/Ş??¿şÛÎ_€¼Ü/|_€2ımÀ&Dò_àÿè.@¯ÿãF&å· [xíå-À¥\P_âÃÿs.úJôáßëÿÀU2µ¿XSpè©OÿèõŸß¬&2ôpşû[€5ÄÇŞí‰=ı/Õß,nhî½ş—Ş7ÿ÷· Ë|¿ÿİŠımÀ‚Fç>§ÿ¯ã‡° U%Ì}ımÀ"’Æ~ˆöï_¼HP^ÚĞ³úÿÚ‘xPAêÌS_ .ÁìoJJŸxZÿğ‹“dÖ•3ğPÿş€ù-\ß’9î„ÿ®PñúV €üa÷Ô¯Æü—[ 0Ç„Q÷_Õ;š_]¡¿˜nÒ ¯ìM­/¬ÒßL4mĞ§öÆm¶ÿpşß®ô/ ö÷ëE^ß;øŞeËÕïm@½î×¤ñß¯:° ¯º_¡ğÀ·oÁ¨;É]š6ÿÇ•ãĞm]¶ÿ·o Œ©î×NÎÿ[øO§ú[€ºÃÜŸÉ×ï=İ¯Òÿ[´¿È2=Áãı#O+”\€oñ¨9Íİ™‘à~Ïí{=4® ÿæÌIp¿…vÿ—±ÇÿÌĞ¿€y	Úuo;”¹àè?ß¬ ¿µû÷n5Yÿ™5şÏAwşŸ_F^lº§Å˜YÃºİ¿ñÅ„ş³@ÿyæÌ¾1èVÿæÃ‰Z€îY1bÎà[“=ü#ı—Y€ŞY1hÎÔ;“=ücıø&°R™7óÎ¨³ûO[€PéøI1 qâ‰£nôo18"Ïô±s".)l¢ëíÍîŸ° ñ·úÁS".£î¸ë¾úw¿Ï›¹ İzâPy¸—şšèÒúö¯ûÕ¼yĞë»µ¼i¯¡âù3 † Ÿ?|jxÛ’_AóLëŸµ iıkÏwã2ŞBeê—ÑhBı»÷ öx7¯bÿ¹0Ş¿öp·/åõsŠáz)Ë1¾ cıkÏv¶×?ã-À`ÿÚ“İ‡…ûÏùê¼şµ»UûG¾|Ií?ğ@í¹îÃàoKÍ2«ÿ%µôÀÚƒİ‡ş '÷şjìË9#Tşézã[«ÿÈ—/?”üu§·Ö·ÿ¯/Ç~êt¹ş’Hœú“4g·¹ş³ÿö!#ãZ$bÿØ4N/[í±îÆs`Käë?òĞ:¿<•‡º#¯™-òÖ/©ÿPÄ)Ç®<Ò]™2ß­ïİG_ †2æ»î@w&¼)~ı5i–è_wœ»“;Ş$İüÓ>˜r†Ug¹GYÓMU´Şuš<ùqäö=ó,«pß&&”Üè	 ë4ëÌîætY ÿ\WŸÔA•MßÊú?ÌÀ‚ÔËY,Ñÿ·^şìş•§r"K/Ààaôß€æØî@ô úoMcèåÜp¬ÿú#à©BÿŞÔ¸ß<-‘?ë	`ı»LşÜÌÏ¾àÀÚwt“ëG®Ûï¿êİ¡””€	ı×;aÖ7Ö¿öù±´xÿÚgÆ:ÂıkŸëé/@í3¢ù                                                                                                                                                                                                                  –ğûwµÏj~ÿİœØïúŸšşç&ÿÉÉ                                                                                                                                                                                                                                              @]ï7µÏ‚:Ş_jŸ
ë{o«}:¬ë½§ö±¦~p"üúŸH¨¿8ıÏMÿsÓÿÜô?7ıÏMşsÓÿÜä?µNxõOÆÿÜä?9ıÏ­Ÿ?o>n–97Vğ™ÊwOŸ$
}¶ M‹Ÿ'ˆÄÏÏoö¨`~°?¡ò$^·—ßìL§û§´kú[€=i=ÙÿñG‰ş`?Ú/ô…ú[€½è¾ÏËÍéoö!ãCˆH°³óGû[€]˜›ßìÜìŸ÷Eû[€sˆ/€8pnƒı­@k6° ›³nƒ±°+[yüIı-ÁjÖ}z°‚Õ'ŸÓß,mı™ç÷·‹©0ğIı-À2vÓß,¢Â¸§ö· åÕ˜öäş6 ¸
³‘ß”¶»ş ¨
“ÙßÔéú[€û/3áRù-@İ.?àüÈ`9íy~ıºü€sû,³Œô_`ÀúoI'¿şçÒæ×5@ÿíèL3Ô¿øˆõß†À4¿.° Y-å_Kpœáş³¦œW3||ù‹Ïókñ'€œüÑãë_ZæüKg¸ú
œÈ©ŒÌ¿Ø 3ó¿ú'n@Ñ¡œÇØøKM:7³ÒËIŒO?4êü¡gçï,Àø,8¤ãJ~‰©OÈß_ Y¸´´ÑÏû¤üú/-uò³ç>)¯ÿày,=«*3ø”ÉOëŸó`ñaOrıÙı£7Ÿ¹ ş{Q%%×ŸûÌ;p€ásI}!ZtLG•š~ö$z2ı—Ô!ååŸ± Ã‰Mú,?«Êj?ºÉÇÉîÿ1z«ŒëhÆ²”Z€ÑãD.—Ü¥yËÈ'ô„?Nä„b×‘¿€%òS$'rF±+ùß›o™ü¡İÄúßnûâêÏ41Â`/ÏÀáC].ıˆœÒ@ÿç…ëï Ëß¼¥Ğ¡.±ş¹7ËÓê'ı
ÎpØÛŸLÈ¯Ióg÷ï¥}¿™ŒşuFv$)CÓÏ¸hx>Ï ÿhN¾Ù
ó:˜üü Sû‡Ş­uk¦Şìª“:¤iùC8¡r¯´[]r.'15ÿ÷õú/9ó˜>Ãı—Êy¬’jÿ*ÿÕÉƒ{oğåû/7 c[¯yÃ×©ı×ÿß8¸U³?uóç¼cŞàbã9º•Ãßõòg}ÇÖ¿½¥†sëÇ~\{§%ÿ¹­ÿø¹®ş%vEkJl¥ÿ–”É?´ İ#ê¿%eêë¿W³Ã—è_ãs7Ô-£|ºÔ[²åô.@ï€òoË@µĞ;şÛ‰–“?p+Áüá_ìe“òú6`üV×¼;äÊËÿi0è{Ù¨Iù“ov‰3¦¬%ò³Sê                                                                                                                                                                                                       ğ~Wû4¨ãıSí3¡‚÷¦Ú'ÃÚŞûjŸ«	Ô·	ç1’ßÚh}pdIùmÀ]“¦Ö· ‡“‘ŞOv~p$ò[€™ÔßÄ´úúÄÔüúB»éÿ½² 'Òú?ÿ£ÿÉ´‚ê>úŸ\3ÿ½ÿÿè"­şwûÜÕ¸L6½ÿÛ[óv>^jİòMÏÿ½c>>,ÀÍyø7ú|X€]šõğö·{1¯ÿszùíÀNLîÿ6Şß
lßhş?Z—~æ.@´¿Ø¸pÿË=í‹¿%÷· ›êÿÏïÂùŸ—Ëèo¶,’ÿáQşóßWzËêo6¬×ÿòÏ!÷+½u`¬¿Øª^ÿÁüx{ëlÀx°MyÿØ¤ô·[Ôéí{Gğ6mlÀæäæ¿¿%|ëI\ K°-İ‡ÿhşÇ·³ÀlE÷İßxşûşY`¶!ÿáïŸ¿ 6 ¶iOÿ‘şÀÔ•İÿùap¹şv ¢ìwÿÏO„ƒıßR¿´[1¥ÿõzáşóÀ
¬¯ıÙ_BÿûÕ"ùÓ?²›Ğùì7anW‹åOıQ€Ø†î~ûGóÏü[€õ~òŸÖ¿‘{‰ş`-şcpiå¿t
Ä· ë	õıõö«}S¡ú`-½ßû¼ıirşNÿrùõ_G¸ÿ%º—•ò[€¥}ş+ÿİõë•óë¿¬÷¡ş±¸¬—_ÿE½ô¼tâ¯˜_ÿ%æï¼¸ıSïı†Òõõ_TBÿväî§<‹ç×¿´¯×Nîİ¯¿x~ıËúÚĞ}÷÷ßgşÀßîkŞôõõ/æ6Ê¯-íşÿıïïıs¿½úËŸãü[€Æã¿5ùÔúå×¾Ö<#ğzõïÌ¾rşÇû&L4ğà³ë²—áğ¦X~0Kx¤Í¸^(œÿº 5ş­sdŠøP³ıˆöÿüı®¡Ãè¿	SıîÇ@ÿøŒ¥d0ÙhşïÃÊÿx>Ü¡üúÏ64Ô§áş‘>ˆşQ x†Qº¥ÙÁxş¯cùÃ?‚ş’’´hbX µáíÜ3ï@ü¤‡ÿkúı—Ìÿ!ÿd­Çw<şíiı?ZŸ=³hş‹úÓôâÑøéÿ«îÃáüL3P; =·ÿ²ùõŸ(/NÿVù7)3ÆÓ»¿ü›”™?ëá¿bÿÚcÜ«Üü“ûË¿I×gôÅò¯Õ¿ö÷ëùíşBı?Vé_{ˆ;ö9Ãıö¯=Â=kŒq‘üË÷¯=Á]k2Üûö•Æsû,Û¿ö ÷¬3ÊHüÎ×³û,Õ¿öøöçûÌ®s»ı_Àpşû×óó,ğííAîOÊTGò_/q©Û¿öw*m¸cÿ«ÿY®¿ÿ!À…¤vÊêŸz£÷_;Á3­9¼ıKî”Rÿ„ÇÿĞ©Öœİ$gy÷3%ÿxÿ¡“­6·ƒH®4öİßMéşc§»ş¼fNşÒıÓİâ—4'&åÏìOIsê÷@ÿ™¿¿úïÌìú­%˜–ÿÕ¿:•Çsx‘"·Ïÿ/¿ó1«ü	 öx/Òÿ&¹şëU`Rşø@ÅÁœD¤ÈõKòü¿«ıÛçSs0'Kr©Ô¿yB5çrÑÈÉßîŸ›ÿÒìÿyFgr*«ôùáN{XWşÏ÷:şª2©,pü0¯ÿ$hÅûz¥ÿÃı¯
Æ#u2Ùé7)ÿãPı¯Ê¿3ú§üöFèH+ßC5²dæ¿_ûş«ãÛ¹Œä{^Ê	ı9‚	ŸşË@òŸ›ü'§şÉ©~ròŸüg'?İÿ‘_                                                                                                                                                                                                  Èğ~Sû,¨âıSí3¡‚÷wpbïïàÄŞƒjŸë×· ç­oÎ`(¿ş‡7˜ÿıíªö)²˜áúşàPOìcùı-À4^ÙGó?û[€ÃøL{Ééoâ•6%¿şGÓèŸ_ÿ£I‰êoarpÓûÛÈÌßìÿ×Úw€Y&÷oü{íûÀt%ú[€ıÊíÿlŞŞ‡Ú÷‚©¦ôoô· û6©ÿû[ã-ÀMëßÚı÷¬ĞÔ¾L¥ÿÉérÉ¥Ã—ÕçÆ²ÿñÇÿ¼Š\Øw {7ÜşgÿûÄú[€İŠ´¿Ïèoö*Z¿×ÿúÏ±üúïU(ÿåŸ÷e¸„óë¿SOó‡ó?Ÿ.ıöúïW 8ÿk.ıúúïÕÄşşÇĞüq~ûÍßÈ+€ü‡ğÖ_€ØÃÿõ°÷Pû^0U^ÿú×¾Ìğè??·ÿGÈZ÷qşCÿû$õ¦·“İÿŸiıê[ƒúŞæ÷ïßhN{[PÕÄşo¯o {79­¾¨bRÿK£çö¦Ç·+úü¹½`¤ÿıjÁş3ëÛ€uÜ+ßû_7àó
İşê[€5¼÷àÒîõóÏ?÷oÜj™ü`qí{ŞßnŸ§ÿßûÿ9² ‘ş¥òë¿¸÷aÏ‹öï~óW,¿X\bÿÈ,_ÿÅ%ö¿½tW`ñü`y‰ı_úõ›_-›_ÿå¥>¼¼u4¾T8¿şkø|ÇÿñıÿF7 [É‡¿ş+úy¤/üòùõ_Osè­ˆtä×¿ÚSOÎ¿ìÃ_ÿµÆ¾‡¿ş+	Ï=ïÑ¿@~ı×üHüÂ?ñ×U_?Mìß»Eı÷ãkË”ş½›\ ¿şÅİçúu¬ÿ„ĞË:ƒMèıÿu_ıõ/ 2Ù±şÁ«÷· sE'›ßÿ{ıw&>Ù)ı[|¤9ªí8&;©ÿG´ÿìÒauÆv“-ÛvèˆJs;ŠÉNë^€¹•ãêîâƒğşÿ&Ôvå¨Š£;„è`G¿ÿ	ôŸŸ9ªæìö/^vüó¿¨ŞÈSw|;Oûµ+§I·™Òa•'¸cı¶½èû´ûoŞP{ˆ»5Ôºlÿ…Ê_ÕânåÖÏìiô_(ı‡úÓ-œÿÕÿâS¿-yÌ.?ÿÄş?óİ’Ïù-Şÿ²Ø›¿Ú3Ü±Æ—Í´DşÊóÛ©à(—î¿ÀÓí9îÏĞ4“zOÌÿxü_€I¡c7I†Ñ&=Ü7Ñ¿ö(÷(a¬IÏö“òí_{’»”4Ù¤ûà_ıHhV¦í9îTÚp“úLix=‡ÛL¸nçfÈ—8Ş´şSÃÍî_{Š»•:àM÷¯=ÄKñ”şi·~=‹ıkpçRÇë?° ‰7½ØèÀğéÖÚ¤´¿Šö/@âí_/5Ò?tÂfuDóûÇ õ×Ëÿø¿Şto~ş¹¯·Óz¨:Ÿ£</ÿ¼¸F¼Õé_dàyùg½¸] Ú¿Ú`Î"6ò¼ü# ÿfFşLú¼HRÿèDÒ¾€şÕôFŞªz™›¿ÿtïß¿TÅ¹œÅpÿd#ıàúUıëY§ÿÈ§;á_¬4‘“)Ñøá<Nó‘_¬4³Y©d®_ÿ
xYœÒìüãOÿıµ.ñúûÿêW07ÿğw±c5/ÒıÏ¿¬r·yš™ì‡@‘£)½1Só÷`ì@òoÒôş_3ƒÊ¿E3ú_2{Ê¿EÓósòŸ\zjõÉCıìä?=ıÏNşÓ“Ÿ‹÷ù                                                                                                                                                                                                ÷ö©ö™°º·®Ú'ÄŠzõ­Ài„Û[“Ìon´¾8°”úà¨ë[€CJ¯o'«¾8šÜüúJv~ı¥ß÷ıÁœ@´şÀÔ>gŠÛ€ÚgM!	ùCPû´)d<~pjŸ6…$å· G•˜_ÿƒšÜßìØÇİ¥Ù0¿şGòññ¹ ÷ğúŸÉÇËåÑ},¿şÇñÑôìßßìT«ÿe¤û@°OÅú[€=ú˜Ò?˜ßìĞÇ”şÑß¨}oÈ•İÿq=ı!·ÿëšúÀG^ÿÖu-Àîuódä.@•{ÁTyıû××ß²úÿq×¼¾ş»ÖË?ĞÿòÇıĞ×2ú_‚ı{Pë0A?¬ÿ¿şõèÿÓw­ÛĞ¿’ûÿëæ‘¿³ ıw*?ØÿrÏùé©s;úïR(¨ÿ÷‹¶óÿôóİó†ôß¥Äşß/y{Ì÷òn€ş{ÌìÿSÛÏ?w §ø¨·ß=eM“úÿÜu½¥ÄşÑô6¢‚ØĞ#Oÿsúç†·+X¥ÿŒò`QÑyç=ı÷ŸŸß,$>íğÃÿ’ß¿H}°ˆa‡şùıKå· X¾¹ü ¸¡Qû_rû—ÌoJœt¸ÿ%˜?Ö¿l~ıËvøùÿr	Ô_«¿(ilØóû—Îo
õû[€BFüøOÿ#H›uğãßàÜnTÿ½Hö«ÿ5h¼ÿ[OŞq,ÀšÒgİèßX€„üö· 3åÌºÑÿ-òˆ¯ÿ†eÍº‘ÿs.­ç×«2‡İÈÿxhŞX$şÛbŸÿè?Oş´_ù?£Æ«¯òPmx»7qÚI½×{¨9Á=›>íÔàë<Tá%÷kÚÉöæE3›®Êøv.}º_;ıS^ êşiÑòŸ'D–¤±~ı”Û¿y¨îŸë__ÚXú/@ëXİ¯”Ï¯¦Ä±föÿüÃÎÑÚ—)ÿCÿcıY€Ûí´[ßÿ<øøï,@Áì­ó!EÖ\Óû?¾ ÿÆeõkrÿç"ı[P&yïtH7×äş¯¯Dú/» ëÎp·rÇúu¡ş¥`İ)îUöX¿Æû7¿hßvì`ÉXyû”=Õ¯eûg/@òi¯7ÃË)3T?¡à/û§.@î¯:ÇJïş0œ¿Ó¿ñ…@ÿş×ûgŸm‰îIŞ<?FûŸ3öï¿ ô¿4Ô?ÿl+ÍtGF'Øù÷¯£ùûw¯µÄ;Àª“İñ	¶wãóÇûÇÖâ®|ÿºÃİ¾Ñv÷óçõo|ºüë›_7rbş”şáÊ¿¦‘ñj§åOè_&ğÊ³İáùëÿV¹íánßĞôRğñüóºZ§íÙîÀàğ’ë—î?ùWjv†ç—öRËÿÑÊ?µÿÄ_«=Øaò;½Èõô;ÇğUH32Èyù;¿è×úRNÿ¼¨:Ï½åÌ‡ÿxÿñ?Ëæ%É26Ò’Oÿ3ú¼J1MBÁ2ı‡Ëë?ü]
“¤\¬ò€á“­6¼ıKKX»üt+í(Rè<bZÿª#:²ôˆÓ`~ÿª#:²œŠ“àÒlÜ=dJÿÚS:®ıÓà2Ô8á€ÚC:°9ı“àñùOø‹ãıkÏèÈ2ú÷?Jİ€á#÷¯<Ÿ£›Ù?m†4Ø¿òxoÛı+ç6İ¿òlNa»ı+æ,¶Ú¿òXÎ#1øw ÓûGî_w&'Ôœ}°áäş#Œö¯9‰“jÎ>Ô0ÒtGí_k§Öœ} a¬ÿÈ0ÚıûNG?G´ÿÀ_ú¼Ùhÿï&é² ~3‘ş—ö›ïŸw;Ñşl[™ü]úïÆùõß“âõ/˜3                                                                                                                                                                                                   @}omµO‡5½…Õ>-Ö‰o	Na¤¾8´ñú6à°ÒâÛ€ƒÊÈo'3¿8–ìüàP&ô· Ç1%¿8‰ı-À1LÍoazpúŸÚŒüà fõ· »7¯¿Ø»™ı-À¾ÍÍoöMÿsÓÿÜæ÷· {¦ÿ¹énúŸ›şç¦ÿÉénúŸ›şç–Wÿ£éÿÇw#¬{şÌ3ÿ± ú’şç–ä îù3ÓPÿKJ°kƒı/úİPÿ¿÷ÙÿzÉ¿}wíı~¥ÿŒäÿûgş«kÿ¿]ô?’áüÿéêç›Gÿï ÿŒç.ÀÏ—fÿwı"Zÿ™ÿÙÿñğèÿ.ÿQ<³¿ßşíïïäÿì_€ËEÿciöÿi ÿu®š/ UOœ">Ÿ÷¿çÿ)ôÊßéÑ—>ºşêÿÓ½à‘ßĞ_>^:_éö¿Äêë¿Sí¯¶úw¹Äò?@ÿ=éÆï-@§ÿãOÇúû`Bùú‡ó÷^ V¾3ä
æï¬ş‡5˜ÿº ×oú{¯ÿıa$ÿã@ÿƒÍ_€ş7 úABşÛtû_@ÿ½Kªßêÿ~[€ÇMë¿y‰õoğÙÿó	à'ı÷+=}gŞ_O á¸ßşõ‚úoVnşÏşïï·Ÿ n@8ÿã’úoTvşNÿøÜnşMÿËÿÙÿş¡şõF"/·¼é¿a“ò< Ó]€ë?¶ê~Ÿø¦ÿMËßîÿ~­Üü9àËÛ[kôß˜‰ù¯Ÿ 4à­íóæÛêÀ·fjş‘şÂ½?Ó[&çïö-@`#zÏÔ3=ş½ÿàÀÛ¥__ÿ-™•¿×¿¿ ıúİ¿5BEóògõTÿ˜Yÿñ; iı‡Õfçï÷İx,ş¥õ3#ê™Ÿ¨ÿ%š_ÿM(¿÷úß:@,ÿó îåYS©üñşÑïóô¯¯Xş	ı?
\áP"ÿôşïŸı-@Eò=ıô¸‹+S?½ÿØXƒU•Êßÿô¯s xÿöÕ<¬©Xş9ı-@-åò÷5ĞßÔQ0ï§ÿ½ƒõ,ÀÂw²ùgöï/À²w…óÇû§-À²wÂùK÷_ö®S:ÿøÓVÿEï9—âù‹ö_ôsU:BÿäXò~sS<şù×R>‰ş>ú_ÉùÇ?şKèÏ*ÖÈ¯ÿf-‘_ÿİX$¿ş»¡ÿ©-“?©¿¿êYßBù“¾ÿÓ¿¾%û~„«u‹õo/@øàúW·lÿ‘põ¯náş#ô¯m¹ş) múŸÛ‚ı@ÿÚô?7ıONÿ“«Ùÿ"}5û_äß
ıÙı‘ùÏN~î´                                                                                                                                                                                                                  ØnjŸ•üğƒ83ıÏMÿ““                                                                                                                                                                                                                                             Ø”/wµOƒ:¾|ª}&ÔğÅœØ—®Ú'ÄšzùíÀ©„ûÛ€sˆÕ·§0˜ßÜx}p\iõmÀ!¥Ç· ”—_ÿCÉŒo%øßúŸC¸ş•şg ÿ™…ëşûßcPû¼)#\÷OÿSˆÄıSÿsˆåÿîßş©ÿÑÅóß|ù?MúÎp~ın8fÿ¿¾¬~G˜däáŸÕÿ¯ëßräÏéßÍo	v`0ÿåòÃ?¼ò·/İ½¥p~+°mù¯_~õÿÛÍ¤ş6`»†ó¿úÿmV+°UÑüŞâ·ÿÛı»0Òß
lRüáÿÃİş—Á7 ãı-ÀöÄòÿı³ÿkşò—Îº´n)¡¿Øœø‹ÿ3ÿ¥Ñ`óÛ‚m	çÿKK£|òú[€HÈßY€Ìü ²Ï¡·şCı;ğº9ı÷£Ñ óáÿ]è	@ÿ=iFÈÎßY€Î-ÎSu*§Ñšw~şÎÀ—öMÚ€­k;?o¾ìo×ïŸ™¿×ÿË—‚ı-À²:³Îyëÿø­ı÷¡7ë	ÿPÿ¢Ï v`)Eòÿ%ük£6`ëCnê?«á¨=¬Ã	¸óCŸ™ı½Ü°à„Û¿í9¡ÿ¥³úoSdÂÎì¿qO p+~ÿçíë¿iÑ	·óçöÜòıúoVjşôşGó¶ôß¨ø|oáÿ·‘?±ÿ%ÜÚ·€[4–ÿÿ÷™?µ$¿ş[4’ÿñøÿ|;ŸÒ‰{ô_ÆÀp»/ş©°Ä;}ı14Û`ş„X1¿şóLÈÿåË†òë?OFşKÚ,ò1şËÈÉßú¼Éß÷ÒCsı³ßÿjl^û®“_ÿéçÈûóáX=¿ş“µ÷ŞïuñÈ´Ş!ımß!µ‡¸_ƒcÈß[€/}«å×ªÁ©Æüˆß»ø’jq¯‡Úı‘oïò¯Ğ—gÚ}ë¸x0{…şµç¸SÃCíæ]Fÿi÷Å?|©áşåKÕä>Ï4-ÿĞŒ¢”ÚƒÜ§á™¦æX ù·lx¦üßÿmøg8ş;4<Ò?Ûı‡Uî_{’»42Óœü±»Ffš—?¼ ãG)¢ö$÷ix¦¹ùC0z2jrŸ†gšŸ?° £G)¢ö ÷ix¦Sò÷`ô0%Ôä>ÏtZşŞŒ§„Ú“Ü¥‘™Níÿ×Üşó÷£ö$wid¦“ów`üá?·íAîÔğPgäÿkŞÃÿ¯ó^ jq¯†§:'kâÎé_{Š»5<ÖïÙÿ3=ÿç"váşµg¸cc£ıÏÕäüHêï?¿¶±ñn»íéíİè€ÿóŸÇd†i&Jşî?éŒÚg„!ÏÍ¿XÿÊ£;‚”1ßû'W	uÊêŸ¶ uçv‰ÿ“x¹xª¬şş·€W’TïÇ»¤ËFseö¸h­YOZ¼,± ş	Ÿÿ^¥ASZº,° “úw/\eHÇ•˜îÇğêï•}#RÓéDÉå~ü±Ü¤ºîXÎ"=Üe µİ±œDN8ı&3\Rÿ”·õ_R¾¨=œÃÊ¬ş’Øô i¿T{L5-ıMjÿ±ƒ$ı¸ò˜jjû«¤—ÿñÃ¼~làBu§t\Óëwú„¸™„şUGtdsò§}ü3~¤ñş5'tlóú§\(áH#¯ÿ5çstªçI8Ôğã¿ŞlNa±ğı|±‹ô¯6–ÓX4şĞOl_¢ı+ä\Š¥7Úÿ2r,aFïØMå)ôùß²w™Ìú%òê?¶@,¦péœÃ¼~şó¸@ác’d¹èÑã|íËèµ8EŸaØıOO}                                                           €ÿÜıLn  ¼ 
